/* XPM */
static char *ceiling[] = {
/* columns rows colors chars-per-pixel */
"64 64 5 1 ",
". c #020716",
"+ c #101010",
"X c #182018",
"o c #203020",
"O c #284028",
/* pixels */
"................................................................",
".oo++++++++X+++..oo+++++++++++X..oo++++++++++++..oo++++++++++++.",
".+oo++++++++++o..+oo++X+++++++o..+oo+++++X++++o..+oo++++++++X+o.",
".++oo++++++++oo..++oo++++++++oo..X+oo++++++++oo..++oo++++++++oo.",
".+++ooX+++++oo+..+++oo+++X++oo+..+++oo++++++oo+..+++oo++++++oo+.",
".++++oo+O++oo++..X+++oo+O++oo++..+++Xoo+O++oo++..++++ooXO++oo++.",
".+++++oOOOoo+++..+++++oOOOooX++..+++++oOOOoo+++..+++++oOOOoo+++.",
".X++++OOOOO++++..+++X+OOOOO++++..+++++OOOOO++++..+++++OOOOO++++.",
".++++OOOOOOOX++..++++OOOOOOO+++..++++OOOOOOO+++..+X++OOOOOOO+++.",
".+++X+OOOOO++++..+++++OOOOO++++..+++++OOOOO++++..+++++OOOOO++X+.",
".+++++oOOOoo+++..+++++oOOOoo+++..+X+++oOOOoo+++..++++XoOOOoo+++.",
".++++ooXO++oo++..++++oo+O+Xoo++..++++oo+O++ooX+..++++oo+O++oo++.",
".+++oo++++++oo+..+X+oo++++++oo+..+++oo++++++oo+..+++oo++X+++oo+.",
".++oo+++++X++oo..++oo++++++++oo..++oo++++++++oo..++oo++++++++oo.",
".+oo++++++++++o..+oo+X++++++++o..+oo++++X+++++o..+oo+++++++X++o.",
"................................................................",
"................................................................",
".oo++++++++++++..oo++++++++++++..ooX+++++++++++..oo+++X++++++++.",
".+oo++++X+++++o..+oo+++++++X++o..+oo++++++++++o..+oo++++++++++o.",
".++oo++++++++oo..++oo++++++++oo..++oo+X++++++oo..++oo++++X+++oo.",
".+++oo+++++Xoo+..+++oo++++++ooX..+++oo++++++oo+..X++oo++++++oo+.",
".++X+oo+O++oo++..++++oo+O++oo++..++++oo+OX+oo++..++++oo+O++oo++.",
".+++++oOOOoo++X..+++++oOOOoo+++..X++++oOOOoo+++..+++X+oOOOoo+++.",
".+++++OOOOO++++..+++++OOOOO++++..+++++OOOOO+X++..+++++OOOOO++++.",
".++++OOOOOOO+++..X+++OOOOOOO+++..+++XOOOOOOO+++..++++OOOOOOO+++.",
".+++++OOOOO++++..+++++OOOOO+X++..+++++OOOOO++++..+++++OOOOO++++.",
".X++++oOOOoo+++..+++X+oOOOoo+++..+++++oOOOoo+++..+++++oOOOoo+++.",
".++++oo+O++oo++..++++oo+O++oo++..++++oo+O++oo++..+X++oo+O++oo++.",
".+++oo++++++oo+..+++oo+X++++oo+..+++oo++++X+oo+..+++oo++++++oo+.",
".++oo++++++++oo..++oo++++++++oo..+Xoo++++++++oo..++ooX+++++++oo.",
".+oo+++X++++++o..+oo++++++X+++o..+oo+++++++++Xo..+oo++++++++++o.",
"................................................................",
"................................................................",
".oo++++++++++++..oo++X+++++++++..oo+++++X++++++..oo++++++++X+++.",
".+oo+++++++++Xo..+oo++++++++++o..+oo++++++++++o..+oo++++++++++o.",
".++ooX+++++++oo..++oo+++X++++oo..++oo++++++X+oo..++oo++++++++oo.",
".+++oo++++++oo+..+++oo++++++oo+..++Xoo++++++oo+..+++ooX+++++oo+.",
".++++oo+O++oo++..++++oo+O++oo++..++++oo+O++oo+X..++++oo+O++oo++.",
".+++++oOOOoo+++..++X++oOOOoo+++..+++++oOOOoo+++..+++++oOOOoo+++.",
".+++++OOOOOX+++..+++++OOOOO+++X..+++++OOOOO++++..X++++OOOOO++++.",
".++X+OOOOOOO+++..++++OOOOOOO+++..++++OOOOOOO+++..++++OOOOOOOX++.",
".+++++OOOOO+++X..+++++OOOOO++++..X++++OOOOO++++..+++X+OOOOO++++.",
".+++++oOOOoo+++..+++++oOOOoo+++..+++++oOOOooX++..+++++oOOOoo+++.",
".++++oo+O++oo++..X+++oo+O++oo++..+++Xoo+O++oo++..++++ooXO++oo++.",
".+++oo+++X++oo+..+++oo++++++oo+..+++oo++++++oo+..+++oo++++++oo+.",
".X+oo++++++++oo..++oo++++++++oo..++oo++X+++++oo..++oo+++++X++oo.",
".+oo++++++++X+o..+oo++++++++++o..+oo++++++++++o..+oo++++++++++o.",
"................................................................",
"................................................................",
".oo++++X+++++++..oo+++++++X++++..oo++++++++++X+..oo++++++++++++.",
".+oo++++++++++o..+oo++++++++++o..+oo+X++++++++o..+oo++++X+++++o.",
".++oo+++++X++oo..++oo++++++++oo..++oo++++++++oo..++oo++++++++oo.",
".+X+oo++++++oo+..+++oo++++++oo+..+++oo++X+++oo+..+++oo+++++Xoo+.",
".++++oo+O++ooX+..++++oo+O++oo++..++++oo+O++oo++..++X+oo+O++oo++.",
".++++XoOOOoo+++..+++++oOOOoo+++..+++++oOOOoo+++..+++++oOOOoo++X.",
".+++++OOOOO++++..+++++OOOOO++++..++X++OOOOO++++..+++++OOOOO++++.",
".++++OOOOOOO+++..++++OOOOOOO+++..++++OOOOOOO++X..++++OOOOOOO+++.",
".+++++OOOOO++++..++X++OOOOO++++..+++++OOOOO++++..+++++OOOOO++++.",
".+++++oOOOoo+++..+++++oOOOoo++X..+++++oOOOoo+++..X++++oOOOoo+++.",
".++X+oo+O++oo++..++++oo+O++oo++..++++oo+OX+oo++..++++oo+O++oo++.",
".+++oo++++++ooX..+++oo++++++oo+..X++oo++++++oo+..+++oo++++++oo+.",
".++oo+X++++++oo..++oo++++X+++oo..++oo+++++++Xoo..++oo++++++++oo.",
".+oo++++++++++o..Xoo++++++++++o..+ooX+++++++++o..+oo+++X++++++o.",
"................................................................"
};