/* XPM */
static char *floor[] = {
/* columns rows colors chars-per-pixel */
"64 64 5 1 ",
". c #151515",
"+ c #303030",
"X c #3A3A3A",
"o c #444444",
"O c #545454",
/* pixels */
"................................................................",
".+++X+++oX++++X..++X++++Oo+++X+..+X++++X++o+X++..X+++OX++++o+++.",
".++X++++X++++X+..+XO+++X++++X++..o++++X++++X+++..+o++X++++X++++.",
".+X++++o++++X+O..X++++X+o++X+++..++++X+++oXO+++..+++X++++Xo+++X.",
".X++++X++O+X+++..++++X++++X++++..+++X+O++X++++X..o+X++++X++++X+.",
".+++OXo+++X++++..+++X++o+X++++X..O+X++++o++++X+..+X++++X+o++X+O.",
".+++X++++X++++o..++X++++X+++OX+..+X++++X++++X++..X++++X++O+X+++.",
".++X+o++X++++X+..+X+++oO++++X++..X++++Xo+++X+++..+++OX++o+X++++.",
".+X++++X++++Xo+..XO+++X++++X++o..++++X++++X++++..+++X++++X++++X.",
".X++o+X++++X+O+..++++o++++X++++..+++X+o++XO+++X..++X+++oX++++X+.",
".++++X++O+X+o++..+++X++++X+++oX..++X+O++X++++Xo..+X++++X++++X++.",
".++OX++++X++++X..++Xo+++X++++X+..+X++o+X++++X++..X++++o++++X+O+.",
".++X++++X++o+X+..+X++++X+++Oo++..X++++X++++X+o+..++++X++O+X+++o.",
".+o++++X++++X++..X+o++O++++X+++..+++oX++++X++++..++OXo+++X++++X.",
".X++++X+++oX+++..O+++X++++Xo+++..+++X++++X++o+O..++X++++X++++o+.",
"................................................................",
"................................................................",
".+OX++++X++++X+..oX++++X++++X++..Xo+++X++++X+++..++o+X++++X+O++.",
".+X++++Xo+++X++..X++++X++oOX+++..++++X++++o++++..+++X++O+X+o++X.",
".X++++X++++X+++..++++O++++X++++..o++X++++X++++X..+OX++++X++++X+.",
".++++X+o++X++++..+++X+++oX++++X..++X++++Xo+++O+..+X++++X++o+X++.",
".+++X++++X+O++X..++X++++X++++X+..+X++++XO+++X++..o++++X++++X+++.",
".++X++O+X++++X+..+X++++o++++X++..X+O++X+o++X+++..++++X+++oX++++.",
".OX++++X++++X+o..X++++X++++X++O..++++X++++X++++..+++X++++X+O++X.",
".X+++oX++++X+++..++++Xo++OX++++..+++X++o+X++++X..++X++O+o++++X+.",
".++++X++++X++o+..+++O++++X++++o..++X++++X++++X+..OX++++X++++X++.",
".+++o++++X++++X..++X+o++X++++X+..+X+++oX++++O++..X++++Xo+++X+++.",
".++X++++X+O+oX+..+X++++X++++Xo+..X++++XO+++X++o..++++X++++X++++.",
".+Xo+O+X++++X++..X++o+X++++X+++..+O++o++++X++++..+++X+o++X++++X.",
".X++++X++++o+++..++++X++++X+oO+..+++X++++X+++oX..++X++++X+O++Xo.",
".+o++X++++X++++..++oX+++OX++++X..++Xo+++X++++X+..+X++O+X++++X++.",
"................................................................",
"................................................................",
".+X++++X+O++X++..X++++X+++oX+++..++++XO+++Xo+++..+++X++++X++o+X.",
".X++O+X++++X+++..o+++X++++X++++..Oo+X++++X++++X..++o++++X++++XO.",
".++++X++o+X++++..+++X++++o++O+X..++X++++X+o++X+..+X++++X+O+oX++.",
".+++X++++X++++X..++X+++OX++++X+..oX++++X++++X++..Xo+O+X++++X+++.",
".++X+++oX++++X+..+O++++Xo+++X++..X++++X++o+X+++..++++X++++o++++.",
".+X++++X++++XO+..X++++X++++X+++..++++X++++O++++..o++X++++X++++X.",
".X++++o+O++X+++..++++X+o++X++++..+++XO++oX++++X..++X++++Xo+++X+.",
".++O+X++++X+++o..+++X++++X++++X..++X++++X++++X+..+X++++X++++XO+.",
".+++Xo+++X++++X..++X++o+X++O+X+..+X++++o++++X++..X++++X+O++X+++.",
".++X++++X++++o+..+X+++OX++++X+o..X++++X++++X+++..++O+X++++X++++.",
".+X+o++X++++X++..O+++oX++++X+++..++++Xo+++X+++O..+++X++o+X++++X.",
".X++++X++++XO++..++++X++++X++o+..+++X++++O++++o..++X++++X++++X+.",
".++o+X+O++X++++..+++o++++X++++X..++XOo++X++++X+..+X+++oX++++X++.",
".+O+X++++X+o++X..++X++++X+++oX+..+X++++X++++Xo+..X++++X++++XO+o.",
"................................................................",
"................................................................",
".o++++X++++X+++..+o++X++++X++++..++oX++++X+++OX..++Xo+++X++++X+.",
".++++X+++oXO+++..+++X++++Xo+++X..++X++++O++o+X+..+X++++X++++o++.",
".+++X+O++X++++X..o+X++++X++++X+..+oO+++X++++X++..X+o++X++++X+++.",
".O+X++++o++++X+..+X++++X+o++X+O..X++++X+++oX+++..++++X++++XO+++.",
".+X++++X++++X++..X++++X++O+X+++..o+++X++++X++++..+o+X+O++X++++X.",
".X++++Xo+++X+++..+++OX++o+X++++..+++X++++o++++X..O+X++++X+o++X+.",
".++++X++++X++++..+++X++++X++++X..++X++++X+++OX+..oX++++X++++X++.",
".+++X+o++XO+++X..++X+++oX++++X+..+X++++Oo+++X++..X++++X++o+X+++.",
".++X+O++X++++Xo..+X++++X++++X++..XO+++X++++X+++..++++X++++X++++.",
".+X++o+X++++X++..X++++o++++X+O+..++++X+o++X++++..+++X+++oXO+++X.",
".X++++X++++X+o+..++++X++O+X+++o..+++X++++X++++X..++X+O++X++++X+.",
".+++oX++++X++++..++OXo+++X++++X..++X++o+X++++X+..+X++++o++++X++.",
".+++X++++X++o+O..++X++++X++++o+..+X++++X+++OX+o..X++++X++++X+++.",
".++o++++XO+++X+..+X+o++X++++X++..X+++oO++++X+++..++++Xo+++X++++.",
"................................................................"
};