/* XPM */
static char *gun_shoot_2[] = {
/* columns rows colors chars-per-pixel */
"512 512 61 1 ",
"  c #010101",
". c #141414",
"X c #121407",
"o c #2B230F",
"O c #3A2D15",
"+ c #2D2410",
"@ c #262626",
"# c #373333",
"$ c #251A0C",
"% c #533F1F",
"& c #4A371B",
"* c #4D2B2B",
"= c #691E1C",
"- c #5F4323",
"; c #744D2A",
": c #4C4B4B",
"> c #777777",
", c #664545",
"< c #B70403",
"1 c #AA3634",
"2 c #932220",
"3 c #D80000",
"4 c #C80402",
"5 c #EB0101",
"6 c #FD1E1E",
"7 c #F60606",
"8 c #FE2524",
"9 c #FF3B3A",
"0 c #F8302D",
"q c #E12A21",
"w c #8B5B35",
"e c #8B5430",
"r c #9B633B",
"t c #A46B3F",
"y c #B54832",
"u c #DE521E",
"i c #BD5959",
"p c #B44B48",
"a c #B47447",
"s c #FE514F",
"d c #C96764",
"f c #FE726E",
"g c #CE6554",
"h c #FF3F40",
"j c #D28656",
"k c #E0996E",
"l c #AD9A4E",
"z c magenta",
"x c #9C9C9C",
"c c #FE938C",
"v c #FDA898",
"b c #FDB4AA",
"n c #D8AD88",
"m c #F5D2B4",
"M c #E4CFA0",
"N c #FED6C9",
"B c #FFFBD7",
"V c #FCE8D2",
"C c #FFFEFC",
"Z c #F8F2E7",
"A c #D0D0D0",
/* pixels */
"zzzzzzzzzzzzzzzzzzzzzzzzzzzzzzzzzzzzzzzzzzzzzzzzzzzzzzzzzzzzzzzzzzzzzzzzzzzzzzzzzzzzzzzzzzzzzzzzzzzzzzzzzzzzzzzzzzzzzzzzzzzzzzzzzzzzzzzzzzzzzzzzzzzzzzzzzzzzzzzzzzzzzzzzzzzzzzzzzzzzzzzzzzzzzzzzzzzzzzzzzzzzzzzzzzzzzzzzzzzzzzzzzzzzzzzzzzzzzzzzzzzzzzzzzzzzzzzzzzzzzzzzzzzzzzzzzzzzzzzzzzzzzzzzzzzzzzzzzzzzzzzzzzzzzzzzzzzzzzzzzzzzzzzzzzzzzzzzzzzzzzzzzzzzzzzzzzzzzzzzzzzzzzzzzzzzzzzzzzzzzzzzzzzzzzzzzzzzzzzzzzzzzzzzzzzzzzzzzzzzzzzzzzzzzzzzzzzzzzzzzzzzzzzzzzzzzzzzzzzzzzzzzzzzzzzzzzzzzzzzzzzzzzzzzzzzzzzzzzzzzzzzzzzzzzzz",
"zzzzzzzzzzzzzzzzzzzzzzzzzzzzzzzzzzzzzzzzzzzzzzzzzzzzzzzzzzzzzzzzzzzzzzzzzzzzzzzzzzzzzzzzzzzzzzzzzzzzzzzzzzzzzzzzzzzzzzzzzzzzzzzzzzzzzzzzzzzzzzzzzzzzzzzzzzzzzzzzzzzzzzzzzzzzzzzzzzzzzzzzzzzzzzzzzzzzzzzzzzzzzzzzzzzzzzzzzzzzzzzzzzzzzzzzzzzzzzzzzzzzzzzzzzzzzzzzzzzzzzzzzzzzzzzzzzzzzzzzzzzzzzzzzzzzzzzzzzzzzzzzzzzzzzzzzzzzzzzzzzzzzzzzzzzzzzzzzzzzzzzzzzzzzzzzzzzzzzzzzzzzzzzzzzzzzzzzzzzzzzzzzzzzzzzzzzzzzzzzzzzzzzzzzzzzzzzzzzzzzzzzzzzzzzzzzzzzzzzzzzzzzzzzzzzzzzzzzzzzzzzzzzzzzzzzzzzzzzzzzzzzzzzzzzzzzzzzzzzzzzzzzzzzzzzz",
"zzzzzzzzzzzzzzzzzzzzzzzzzzzzzzzzzzzzzzzzzzzzzzzzzzzzzzzzzzzzzzzzzzzzzzzzzzzzzzzzzzzzzzzzzzzzzzzzzzzzzzzzzzzzzzzzzzzzzzzzzzzzzzzzzzzzzzzzzzzzzzzzzzzzzzzzzzzzzzzzzzzzzzzzzzzzzzzzzzzzzzzzzzzzzzzzzzzzzzzzzzzzzzzzzzzzzzzzzzzzzzzzzzzzzzzzzzzzzzzzzzzzzzzzzzzzzzzzzzzzzzzzzzzzzzzzzzzzzzzzzzzzzzzzzzzzzzzzzzzzzzzzzzzzzzzzzzzzzzzzzzzzzzzzzzzzzzzzzzzzzzzzzzzzzzzzzzzzzzzzzzzzzzzzzzzzzzzzzzzzzzzzzzzzzzzzzzzzzzzzzzzzzzzzzzzzzzzzzzzzzzzzzzzzzzzzzzzzzzzzzzzzzzzzzzzzzzzzzzzzzzzzzzzzzzzzzzzzzzzzzzzzzzzzzzzzzzzzzzzzzzzzzzzzzzzz",
"zzzzzzzzzzzzzzzzzzzzzzzzzzzzzzzzzzzzzzzzzzzzzzzzzzzzzzzzzzzzzzzzzzzzzzzzzzzzzzzzzzzzzzzzzzzzzzzzzzzzzzzzzzzzzzzzzzzzzzzzzzzzzzzzzzzzzzzzzzzzzzzzzzzzzzzzzzzzzzzzzzzzzzzzzzzzzzzzzzzzzzzzzzzzzzzzzzzzzzzzzzzzzzzzzzzzzzzzzzzzzzzzzzzzzzzzzzzzzzzzzzzzzzzzzzzzzzzzzzzzzzzzzzzzzzzzzzzzzzzzzzzzzzzzzzzzzzzzzzzzzzzzzzzzzzzzzzzzzzzzzzzzzzzzzzzzzzzzzzzzzzzzzzzzzzzzzzzzzzzzzzzzzzzzzzzzzzzzzzzzzzzzzzzzzzzzzzzzzzzzzzzzzzzzzzzzzzzzzzzzzzzzzzzzzzzzzzzzzzzzzzzzzzzzzzzzzzzzzzzzzzzzzzzzzzzzzzzzzzzzzzzzzzzzzzzzzzzzzzzzzzzzzzzzzzzz",
"zzzzzzzzzzzzzzzzzzzzzzzzzzzzzzzzzzzzzzzzzzzzzzzzzzzzzzzzzzzzzzzzzzzzzzzzzzzzzzzzzzzzzzzzzzzzzzzzzzzzzzzzzzzzzzzzzzzzzzzzzzzzzzzzzzzzzzzzzzzzzzzzzzzzzzzzzzzzzzzzzzzzzzzzzzzzzzzzzzzzzzzzzzzzzzzzzzzzzzzzzzzzzzzzzzzzzzzzzzzzzzzzzzzzzzzzzzzzzzzzzzzzzzzzzzzzzzzzzzzzzzzzzzzzzzzzzzzzzzzzzzzzzzzzzzzzzzzzzzzzzzzzzzzzzzzzzzzzzzzzzzzzzzzzzzzzzzzzzzzzzzzzzzzzzzzzzzzzzzzzzzzzzzzzzzzzzzzzzzzzzzzzzzzzzzzzzzzzzzzzzzzzzzzzzzzzzzzzzzzzzzzzzzzzzzzzzzzzzzzzzzzzzzzzzzzzzzzzzzzzzzzzzzzzzzzzzzzzzzzzzzzzzzzzzzzzzzzzzzzzzzzzzzzzzzzz",
"zzzzzzzzzzzzzzzzzzzzzzzzzzzzzzzzzzzzzzzzzzzzzzzzzzzzzzzzzzzzzzzzzzzzzzzzzzzzzzzzzzzzzzzzzzzzzzzzzzzzzzzzzzzzzzzzzzzzzzzzzzzzzzzzzzzzzzzzzzzzzzzzzzzzzzzzzzzzzzzzzzzzzzzzzzzzzzzzzzzzzzzzzzzzzzzzzzzzzzzzzzzzzzzzzzzzzzzzzzzzzzzzzzzzzzzzzzzzzzzzzzzzzzzzzzzzzzzzzzzzzzzzzzzzzzzzzzzzzzzzzzzzzzzzzzzzzzzzzzzzzzzzzzzzzzzzzzzzzzzzzzzzzzzzzzzzzzzzzzzzzzzzzzzzzzzzzzzzzzzzzzzzzzzzzzzzzzzzzzzzzzzzzzzzzzzzzzzzzzzzzzzzzzzzzzzzzzzzzzzzzzzzzzzzzzzzzzzzzzzzzzzzzzzzzzzzzzzzzzzzzzzzzzzzzzzzzzzzzzzzzzzzzzzzzzzzzzzzzzzzzzzzzzzzzzzz",
"zzzzzzzzzzzzzzzzzzzzzzzzzzzzzzzzzzzzzzzzzzzzzzzzzzzzzzzzzzzzzzzzzzzzzzzzzzzzzzzzzzzzzzzzzzzzzzzzzzzzzzzzzzzzzzzzzzzzzzzzzzzzzzzzzzzzzzzzzzzzzzzzzzzzzzzzzzzzzzzzzzzzzzzzzzzzzzzzzzzzzzzzzzzzzzzzzzzzzzzzzzzzzzzzzzzzzzzzzzzzzzzzzzzzzzzzzzzzzzzzzzzzzzzzzzzzzzzzzzzzzzzzzzzzzzzzzzzzzzzzzzzzzzzzzzzzzzzzzzzzzzzzzzzzzzzzzzzzzzzzzzzzzzzzzzzzzzzzzzzzzzzzzzzzzzzzzzzzzzzzzzzzzzzzzzzzzzzzzzzzzzzzzzzzzzzzzzzzzzzzzzzzzzzzzzzzzzzzzzzzzzzzzzzzzzzzzzzzzzzzzzzzzzzzzzzzzzzzzzzzzzzzzzzzzzzzzzzzzzzzzzzzzzzzzzzzzzzzzzzzzzzzzzzzzzzz",
"zzzzzzzzzzzzzzzzzzzzzzzzzzzzzzzzzzzzzzzzzzzzzzzzzzzzzzzzzzzzzzzzzzzzzzzzzzzzzzzzzzzzzzzzzzzzzzzzzzzzzzzzzzzzzzzzzzzzzzzzzzzzzzzzzzzzzzzzzzzzzzzzzzzzzzzzzzzzzzzzzzzzzzzzzzzzzzzzzzzzzzzzzzzzzzzzzzzzzzzzzzzzzzzzzzzzzzzzzzzzzzzzzzzzzzzzzzzzzzzzzzzzzzzzzzzzzzzzzzzzzzzzzzzzzzzzzzzzzzzzzzzzzzzzzzzzzzzzzzzzzzzzzzzzzzzzzzzzzzzzzzzzzzzzzzzzzzzzzzzzzzzzzzzzzzzzzzzzzzzzzzzzzzzzzzzzzzzzzzzzzzzzzzzzzzzzzzzzzzzzzzzzzzzzzzzzzzzzzzzzzzzzzzzzzzzzzzzzzzzzzzzzzzzzzzzzzzzzzzzzzzzzzzzzzzzzzzzzzzzzzzzzzzzzzzzzzzzzzzzzzzzzzzzzzzzz",
"zzzzzzzzzzzzzzzzzzzzzzzzzzzzzzzzzzzzzzzzzzzzzzzzzzzzzzzzzzzzzzzzzzzzzzzzzzzzzzzzzzzzzzzzzzzzzzzzzzzzzzzzzzzzzzzzzzzzzzzzzzzzzzzzzzzzzzzzzzzzzzzzzzzzzzzzzzzzzzzzzzzzzzzzzzzzzzzzzzzzzzzzzzzzzzzzzzzzzzzzzzzzzzzzzzzzzzzzzzzzzzzzzzzzzzzzzzzzzzzzzzzzzzzzzzzzzzzzzzzzzzzzzzzzzzzzzzzzzzzzzzzzzzzzzzzzzzzzzzzzzzzzzzzzzzzzzzzzzzzzzzzzzzzzzzzzzzzzzzzzzzzzzzzzzzzzzzzzzzzzzzzzzzzzzzzzzzzzzzzzzzzzzzzzzzzzzzzzzzzzzzzzzzzzzzzzzzzzzzzzzzzzzzzzzzzzzzzzzzzzzzzzzzzzzzzzzzzzzzzzzzzzzzzzzzzzzzzzzzzzzzzzzzzzzzzzzzzzzzzzzzzzzzzzzzzz",
"zzzzzzzzzzzzzzzzzzzzzzzzzzzzzzzzzzzzzzzzzzzzzzzzzzzzzzzzzzzzzzzzzzzzzzzzzzzzzzzzzzzzzzzzzzzzzzzzzzzzzzzzzzzzzzzzzzzzzzzzzzzzzzzzzzzzzzzzzzzzzzzzzzzzzzzzzzzzzzzzzzzzzzzzzzzzzzzzzzzzzzzzzzzzzzzzzzzzzzzzzzzzzzzzzzzzzzzzzzzzzzzzzzzzzzzzzzzzzzzzzzzzzzzzzzzzzzzzzzzzzzzzzzzzzzzzzzzzzzzzzzzzzzzzzzzzzzzzzzzzzzzzzzzzzzzzzzzzzzzzzzzzzzzzzzzzzzzzzzzzzzzzzzzzzzzzzzzzzzzzzzzzzzzzzzzzzzzzzzzzzzzzzzzzzzzzzzzzzzzzzzzzzzzzzzzzzzzzzzzzzzzzzzzzzzzzzzzzzzzzzzzzzzzzzzzzzzzzzzzzzzzzzzzzzzzzzzzzzzzzzzzzzzzzzzzzzzzzzzzzzzzzzzzzzzzz",
"zzzzzzzzzzzzzzzzzzzzzzzzzzzzzzzzzzzzzzzzzzzzzzzzzzzzzzzzzzzzzzzzzzzzzzzzzzzzzzzzzzzzzzzzzzzzzzzzzzzzzzzzzzzzzzzzzzzzzzzzzzzzzzzzzzzzzzzzzzzzzzzzzzzzzzzzzzzzzzzzzzzzzzzzzzzzzzzzzzzzzzzzzzzzzzzzzzzzzzzzzzzzzzzzzzzzzzzzzzzzzzzzzzzzzzzzzzzzzzzzzzzzzzzzzzzzzzzzzzzzzzzzzzzzzzzzzzzzzzzzzzzzzzzzzzzzzzzzzzzzzzzzzzzzzzzzzzzzzzzzzzzzzzzzzzzzzzzzzzzzzzzzzzzzzzzzzzzzzzzzzzzzzzzzzzzzzzzzzzzzzzzzzzzzzzzzzzzzzzzzzzzzzzzzzzzzzzzzzzzzzzzzzzzzzzzzzzzzzzzzzzzzzzzzzzzzzzzzzzzzzzzzzzzzzzzzzzzzzzzzzzzzzzzzzzzzzzzzzzzzzzzzzzzzzzzz",
"zzzzzzzzzzzzzzzzzzzzzzzzzzzzzzzzzzzzzzzzzzzzzzzzzzzzzzzzzzzzzzzzzzzzzzzzzzzzzzzzzzzzzzzzzzzzzzzzzzzzzzzzzzzzzzzzzzzzzzzzzzzzzzzzzzzzzzzzzzzzzzzzzzzzzzzzzzzzzzzzzzzzzzzzzzzzzzzzzzzzzzzzzzzzzzzzzzzzzzzzzzzzzzzzzzzzzzzzzzzzzzzzzzzzzzzzzzzzzzzzzzzzzzzzzzzzzzzzzzzzzzzzzzzzzzzzzzzzzzzzzzzzzzzzzzzzzzzzzzzzzzzzzzzzzzzzzzzzzzzzzzzzzzzzzzzzzzzzzzzzzzzzzzzzzzzzzzzzzzzzzzzzzzzzzzzzzzzzzzzzzzzzzzzzzzzzzzzzzzzzzzzzzzzzzzzzzzzzzzzzzzzzzzzzzzzzzzzzzzzzzzzzzzzzzzzzzzzzzzzzzzzzzzzzzzzzzzzzzzzzzzzzzzzzzzzzzzzzzzzzzzzzzzzzzzzz",
"zzzzzzzzzzzzzzzzzzzzzzzzzzzzzzzzzzzzzzzzzzzzzzzzzzzzzzzzzzzzzzzzzzzzzzzzzzzzzzzzzzzzzzzzzzzzzzzzzzzzzzzzzzzzzzzzzzzzzzzzzzzzzzzzzzzzzzzzzzzzzzzzzzzzzzzzzzzzzzzzzzzzzzzzzzzzzzzzzzzzzzzzzzzzzzzzzzzzzzzzzzzzzzzzzzzzzzzzzzzzzzzzzzzzzzzzzzzzzzzzzzzzzzzzzzzzzzzzzzzzzzzzzzzzzzzzzzzzzzzzzzzzzzzzzzzzzzzzzzzzzzzzzzzzzzzzzzzzzzzzzzzzzzzzzzzzzzzzzzzzzzzzzzzzzzzzzzzzzzzzzzzzzzzzzzzzzzzzzzzzzzzzzzzzzzzzzzzzzzzzzzzzzzzzzzzzzzzzzzzzzzzzzzzzzzzzzzzzzzzzzzzzzzzzzzzzzzzzzzzzzzzzzzzzzzzzzzzzzzzzzzzzzzzzzzzzzzzzzzzzzzzzzzzzzzzz",
"zzzzzzzzzzzzzzzzzzzzzzzzzzzzzzzzzzzzzzzzzzzzzzzzzzzzzzzzzzzzzzzzzzzzzzzzzzzzzzzzzzzzzzzzzzzzzzzzzzzzzzzzzzzzzzzzzzzzzzzzzzzzzzzzzzzzzzzzzzzzzzzzzzzzzzzzzzzzzzzzzzzzzzzzzzzzzzzzzzzzzzzzzzzzzzzzzzzzzzzzzzzzzzzzzzzzzzzzzzzzzzzzzzzzzzzzzzzzzzzzzzzzzzzzzzzzzzzzzzzzzzzzzzzzzzzzzzzzzzzzzzzzzzzzzzzzzzzzzzzzzzzzzzzzzzzzzzzzzzzzzzzzzzzzzzzzzzzzzzzzzzzzzzzzzzzzzzzzzzzzzzzzzzzzzzzzzzzzzzzzzzzzzzzzzzzzzzzzzzzzzzzzzzzzzzzzzzzzzzzzzzzzzzzzzzzzzzzzzzzzzzzzzzzzzzzzzzzzzzzzzzzzzzzzzzzzzzzzzzzzzzzzzzzzzzzzzzzzzzzzzzzzzzzzzzzz",
"zzzzzzzzzzzzzzzzzzzzzzzzzzzzzzzzzzzzzzzzzzzzzzzzzzzzzzzzzzzzzzzzzzzzzzzzzzzzzzzzzzzzzzzzzzzzzzzzzzzzzzzzzzzzzzzzzzzzzzzzzzzzzzzzzzzzzzzzzzzzzzzzzzzzzzzzzzzzzzzzzzzzzzzzzzzzzzzzzzzzzzzzzzzzzzzzzzzzzzzzzzzzzzzzzzzzzzzzzzzzzzzzzzzzzzzzzzzzzzzzzzzzzzzzzzzzzzzzzzzzzzzzzzzzzzzzzzzzzzzzzzzzzzzzzzzzzzzzzzzzzzzzzzzzzzzzzzzzzzzzzzzzzzzzzzzzzzzzzzzzzzzzzzzzzzzzzzzzzzzzzzzzzzzzzzzzzzzzzzzzzzzzzzzzzzzzzzzzzzzzzzzzzzzzzzzzzzzzzzzzzzzzzzzzzzzzzzzzzzzzzzzzzzzzzzzzzzzzzzzzzzzzzzzzzzzzzzzzzzzzzzzzzzzzzzzzzzzzzzzzzzzzzzzzzzzz",
"zzzzzzzzzzzzzzzzzzzzzzzzzzzzzzzzzzzzzzzzzzzzzzzzzzzzzzzzzzzzzzzzzzzzzzzzzzzzzzzzzzzzzzzzzzzzzzzzzzzzzzzzzzzzzzzzzzzzzzzzzzzzzzzzzzzzzzzzzzzzzzzzzzzzzzzzzzzzzzzzzzzzzzzzzzzzzzzzzzzzzzzzzzzzzzzzzzzzzzzzzzzzzzzzzzzzzzzzzzzzzzzzzzzzzzzzzzzzzzzzzzzzzzzzzzzzzzzzzzzzzzzzzzzzzzzzzzzzzzzzzzzzzzzzzzzzzzzzzzzzzzzzzzzzzzzzzzzzzzzzzzzzzzzzzzzzzzzzzzzzzzzzzzzzzzzzzzzzzzzzzzzzzzzzzzzzzzzzzzzzzzzzzzzzzzzzzzzzzzzzzzzzzzzzzzzzzzzzzzzzzzzzzzzzzzzzzzzzzzzzzzzzzzzzzzzzzzzzzzzzzzzzzzzzzzzzzzzzzzzzzzzzzzzzzzzzzzzzzzzzzzzzzzzzzzzz",
"zzzzzzzzzzzzzzzzzzzzzzzzzzzzzzzzzzzzzzzzzzzzzzzzzzzzzzzzzzzzzzzzzzzzzzzzzzzzzzzzzzzzzzzzzzzzzzzzzzzzzzzzzzzzzzzzzzzzzzzzzzzzzzzzzzzzzzzzzzzzzzzzzzzzzzzzzzzzzzzzzzzzzzzzzzzzzzzzzzzzzzzzzzzzzzzzzzzzzzzzzzzzzzzzzzzzzzzzzzzzzzzzzzzzzzzzzzzzzzzzzzzzzzzzzzzzzzzzzzzzzzzzzzzzzzzzzzzzzzzzzzzzzzzzzzzzzzzzzzzzzzzzzzzzzzzzzzzzzzzzzzzzzzzzzzzzzzzzzzzzzzzzzzzzzzzzzzzzzzzzzzzzzzzzzzzzzzzzzzzzzzzzzzzzzzzzzzzzzzzzzzzzzzzzzzzzzzzzzzzzzzzzzzzzzzzzzzzzzzzzzzzzzzzzzzzzzzzzzzzzzzzzzzzzzzzzzzzzzzzzzzzzzzzzzzzzzzzzzzzzzzzzzzzzzzzz",
"zzzzzzzzzzzzzzzzzzzzzzzzzzzzzzzzzzzzzzzzzzzzzzzzzzzzzzzzzzzzzzzzzzzzzzzzzzzzzzzzzzzzzzzzzzzzzzzzzzzzzzzzzzzzzzzzzzzzzzzzzzzzzzzzzzzzzzzzzzzzzzzzzzzzzzzzzzzzzzzzzzzzzzzzzzzzzzzzzzzzzzzzzzzzzzzzzzzzzzzzzzzzzzzzzzzzzzzzzzzzzzzzzzzzzzzzzzzzzzzzzzzzzzzzzzzzzzzzzzzzzzzzzzzzzzzzzzzzzzzzzzzzzzzzzzzzzzzzzzzzzzzzzzzzzzzzzzzzzzzzzzzzzzzzzzzzzzzzzzzzzzzzzzzzzzzzzzzzzzzzzzzzzzzzzzzzzzzzzzzzzzzzzzzzzzzzzzzzzzzzzzzzzzzzzzzzzzzzzzzzzzzzzzzzzzzzzzzzzzzzzzzzzzzzzzzzzzzzzzzzzzzzzzzzzzzzzzzzzzzzzzzzzzzzzzzzzzzzzzzzzzzzzzzzzzzz",
"zzzzzzzzzzzzzzzzzzzzzzzzzzzzzzzzzzzzzzzzzzzzzzzzzzzzzzzzzzzzzzzzzzzzzzzzzzzzzzzzzzzzzzzzzzzzzzzzzzzzzzzzzzzzzzzzzzzzzzzzzzzzzzzzzzzzzzzzzzzzzzzzzzzzzzzzzzzzzzzzzzzzzzzzzzzzzzzzzzzzzzzzzzzzzzzzzzzzzzzzzzzzzzzzzzzzzzzzzzzzzzzzzzzzzzzzzzzzzzzzzzzzzzzzzzzzzzzzzzzzzzzzzzzzzzzzzzzzzzzzzzzzzzzzzzzzzzzzzzzzzzzzzzzzzzzzzzzzzzzzzzzzzzzzzzzzzzzzzzzzzzzzzzzzzzzzzzzzzzzzzzzzzzzzzzzzzzzzzzzzzzzzzzzzzzzzzzzzzzzzzzzzzzzzzzzzzzzzzzzzzzzzzzzzzzzzzzzzzzzzzzzzzzzzzzzzzzzzzzzzzzzzzzzzzzzzzzzzzzzzzzzzzzzzzzzzzzzzzzzzzzzzzzzzzzzz",
"zzzzzzzzzzzzzzzzzzzzzzzzzzzzzzzzzzzzzzzzzzzzzzzzzzzzzzzzzzzzzzzzzzzzzzzzzzzzzzzzzzzzzzzzzzzzzzzzzzzzzzzzzzzzzzzzzzzzzzzzzzzzzzzzzzzzzzzzzzzzzzzzzzzzzzzzzzzzzzzzzzzzzzzzzzzzzzzzzzzzzzzzzzzzzzzzzzzzzzzzzzzzzzzzzzzzzzzzzzzzzzzzzzzzzzzzzzzzzzzzzzzzzzzzzzzzzzzzzzzzzzzzzzzzzzzzzzzzzzzzzzzzzzzzzzzzzzzzzzzzzzzzzzzzzzzzzzzzzzzzzzzzzzzzzzzzzzzzzzzzzzzzzzzzzzzzzzzzzzzzzzzzzzzzzzzzzzzzzzzzzzzzzzzzzzzzzzzzzzzzzzzzzzzzzzzzzzzzzzzzzzzzzzzzzzzzzzzzzzzzzzzzzzzzzzzzzzzzzzzzzzzzzzzzzzzzzzzzzzzzzzzzzzzzzzzzzzzzzzzzzzzzzzzzzzzz",
"zzzzzzzzzzzzzzzzzzzzzzzzzzzzzzzzzzzzzzzzzzzzzzzzzzzzzzzzzzzzzzzzzzzzzzzzzzzzzzzzzzzzzzzzzzzzzzzzzzzzzzzzzzzzzzzzzzzzzzzzzzzzzzzzzzzzzzzzzzzzzzzzzzzzzzzzzzzzzzzzzzzzzzzzzzzzzzzzzzzzzzzzzzzzzzzzzzzzzzzzzzzzzzzzzzzzzzzzzzzzzzzzzzzzzzzzzzzzzzzzzzzzzzzzzzzzzzzzzzzzzzddddddiiiiiizzzzzzzzzzzzzzzzzzzzzzzzzzzzzzzzzzzzzzzzzzzzzzzzzzzzzzzzzzzzzzzzzzzzzzzzzzzzzzzzzzzzzzzzzzzzzzzzzzzzzzzzzzzzzzzzzzzzzzzzzzzzzzzzzzzzzzzzzzzzzzzzzzzzzzzzzzzzzzzzzzzzzzzzzzzzzzzzzzzzzzzzzzzzzzzzzzzzzzzzzzzzzzzzzzzzzzzzzzzzzzzzzzzzzzzzzzzzzz",
"zzzzzzzzzzzzzzzzzzzzzzzzzzzzzzzzzzzzzzzzzzzzzzzzzzzzzzzzzzzzzzzzzzzzzzzzzzzzzzzzzzzzzzzzzzzzzzzzzzzzzzzzzzzzzzzzzzzzzzzzzzzzzzzzzzzzzzzzzzzzzzzzzzzzzzzzzzzzzzzzzzzzzzzzzzzzzzzzzzzzzzzzzzzzzzzzzzzzzzzzzzzzzzzzzzzzzzzzzzzzzzzzzzzzzzzzzzzzzzzzzzzzzzzzzzzzzzzzzzzzzzddddddiiiiiizzzzzzzzzzzzzzzzzzzzzzzzzzzzzzzzzzzzzzzzzzzzzzzzzzzzzzzzzzzzzzzzzzzzzzzzzzzzzzzzzzzzzzzzzzzzzzzzzzzzzzzzzzzzzzzzzzzzzzzzzzzzzzzzzzzzzzzzzzzzzzzzzzzzzzzzzzzzzzzzzzzzzzzzzzzzzzzzzzzzzzzzzzzzzzzzzzzzzzzzzzzzzzzzzzzzzzzzzzzzzzzzzzzzzzzzzzzzzz",
"zzzzzzzzzzzzzzzzzzzzzzzzzzzzzzzzzzzzzzzzzzzzzzzzzzzzzzzzzzzzzzzzzzzzzzzzzzzzzzzzzzzzzzzzzzzzzzzzzzzzzzzzzzzzzzzzzzzzzzzzzzzzzzzzzzzzzzzzzzzzzzzzzzzzzzzzzzzzzzzzzzzzzzzzzzzzzzzzzzzzzzzzzzzzzzzzzzzzzzzzzzzzzzzzzzzzzzzzzzzzzzzzzzzzzzzzzzzzzzzzzzzzzzzzzzzzzzzzzzzzzzddddddiiiiiizzzzzzzzzzzzzzzzzzzzzzzzzzzzzzzzzzzzzzzzzzzzzzzzzzzzzzzzzzzzzzzzzzzzzzzzzzzzzzzzzzzzzzzzzzzzzzzzzzzzzzzzzzzzzzzzzzzzzzzzzzzzzzzzzzzzzzzzzzzzzzzzzzzzzzzzzzzzzzzzzzzzzzzzzzzzzzzzzzzzzzzzzzzzzzzzzzzzzzzzzzzzzzzzzzzzzzzzzzzzzzzzzzzzzzzzzzzzzz",
"zzzzzzzzzzzzzzzzzzzzzzzzzzzzzzzzzzzzzzzzzzzzzzzzzzzzzzzzzzzzzzzzzzzzzzzzzzzzzzzzzzzzzzzzzzzzzzzzzzzzzzzzzzzzzzzzzzzzzzzzzzzzzzzzzzzzzzzzzzzzzzzzzzzzzzzzzzzzzzzzzzzzzzzzzzzzzzzzzzzzzzzzzzzzzzzzzzzzzzzzzzzzzzzzzzzzzzzzzzzzzzzzzzzzzzzzzzzzzzzzzzzzzzzzzzzzzzzzzzzzzzddddddiiiiiizzzzzzzzzzzzzzzzzzzzzzzzzzzzzzzzzzzzzzzzzzzzzzzzzzzzzzzzzzzzzzzzzzzzzzzzzzzzzzzzzzzzzzzzzzzzzzzzzzzzzzzzzzzzzzzzzzzzzzzzzzzzzzzzzzzzzzzzzzzzzzzzzzzzzzzzzzzzzzzzzzzzzzzzzzzzzzzzzzzzzzzzzzzzzzzzzzzzzzzzzzzzzzzzzzzzzzzzzzzzzzzzzzzzzzzzzzzzzz",
"zzzzzzzzzzzzzzzzzzzzzzzzzzzzzzzzzzzzzzzzzzzzzzzzzzzzzzzzzzzzzzzzzzzzzzzzzzzzzzzzzzzzzzzzzzzzzzzzzzzzzzzzzzzzzzzzzzzzzzzzzzzzzzzzzzzzzzzzzzzzzzzzzzzzzzzzzzzzzzzzzzzzzzzzzzzzzzzzzzzzzzzzzzzzzzzzzzzzzzzzzzzzzzzzzzzzzzzzzzzzzzzzzzzzzzzzzzzzzzzzzzzzzzzzzzzzzzzzzzzzzzddddddiiiiiizzzzzzzzzzzzzzzzzzzzzzzzzzzzzzzzzzzzzzzzzzzzzzzzzzzzzzzzzzzzzzzzzzzzzzzzzzzzzzzzzzzzzzzzzzzzzzzzzzzzzzzzzzzzzzzzzzzzzzzzzzzzzzzzzzzzzzzzzzzzzzzzzzzzzzzzzzzzzzzzzzzzzzzzzzzzzzzzzzzzzzzzzzzzzzzzzzzzzzzzzzzzzzzzzzzzzzzzzzzzzzzzzzzzzzzzzzzzzz",
"zzzzzzzzzzzzzzzzzzzzzzzzzzzzzzzzzzzzzzzzzzzzzzzzzzzzzzzzzzzzzzzzzzzzzzzzzzzzzzzzzzzzzzzzzzzzzzzzzzzzzzzzzzzzzzzzzzzzzzzzzzzzzzzzzzzzzzzzzzzzzzzzzzzzzzzzzzzzzzzzzzzzzzzzzzzzzzzzzzzzzzzzzzzzzzzzzzzzzzzzzzzzzzzzzzzzzzzzzzzzzzzzzzzzzzzzzzzzzzzzzzzzzzzzzzzzzzzzzzzzzzddddddiiiiiizzzzzzzzzzzzzzzzzzzzzzzzzzzzzzzzzzzzzzzzzzzzzzzzzzzzzzzzzzzzzzzzzzzzzzzzzzzzzzzzzzzzzzzzzzzzzzzzzzzzzzzzzzzzzzzzzzzzzzzzzzzzzzzzzzzzzzzzzzzzzzzzzzzzzzzzzzzzzzzzzzzzzzzzzzzzzzzzzzzzzzzzzzzzzzzzzzzzzzzzzzzzzzzzzzzzzzzzzzzzzzzzzzzzzzzzzzzzzz",
"zzzzzzzzzzzzzzzzzzzzzzzzzzzzzzzzzzzzzzzzzzzzzzzzzzzzzzzzzzzzzzzzzzzzzzzzzzzzzzzzzzzzzzzzzzzzzzzzzzzzzzzzzzzzzzzzzzzzzzzzzzzzzzzzzzzzzzzzzzzzzzzzzzzzzzzzzzzzzzzzzzzzzzzzzzzzzzzzzzzzzzzzzzzzzzzzzzzzzzzzzzzzzzzzzzzzzzzzzzzzzzzzzzzzzzzzzzzzzzzzzzzzzzzzzzzzzzzzzzzzzziiiiiippppppzzzzzzzzzzzzzzzzzzzzzzzzzzzzzzzzzzzzzzzzzzzzzzzzzzzzzzzzzzzzzzzzzzzzzzzzzzzzzzzzzzzzzzzzzzzzzzzzzzzzzzzzzzzzzzzzzzzzzzzzzzzzzzzzzzzzzzzzzzzzzzzzzzzzzzzzzzzzzzzzzzzzzzzzzzzzzzzzzzzzzzzzzzzzzzzzzzzzzzzzzzzzzzzzzzzzzzzzzzzzzzzzzzzzzzzzzzzzzz",
"zzzzzzzzzzzzzzzzzzzzzzzzzzzzzzzzzzzzzzzzzzzzzzzzzzzzzzzzzzzzzzzzzzzzzzzzzzzzzzzzzzzzzzzzzzzzzzzzzzzzzzzzzzzzzzzzzzzzzzzzzzzzzzzzzzzzzzzzzzzzzzzzzzzzzzzzzzzzzzzzzzzzzzzzzzzzzzzzzzzzzzzzzzzzzzzzzzzzzzzzzzzzzzzzzzzzzzzzzzzzzzzzzzzzzzzzzzzzzzzzzzzzzzzzzzzzzzzzzzzzzziiiiiippppppzzzzzzzzzzzzzzzzzzzzzzzzzzzzzzzzzzzzzzzzzzzzzzzzzzzzzzzzzzzzzzzzzzzzzzzzzzzzzzzzzzzzzzzzzzzzzzzzzzzzzzzzzzzzzzzzzzzzzzzzzzzzzzzzzzzzzzzzzzzzzzzzzzzzzzzzzzzzzzzzzzzzzzzzzzzzzzzzzzzzzzzzzzzzzzzzzzzzzzzzzzzzzzzzzzzzzzzzzzzzzzzzzzzzzzzzzzzzzz",
"zzzzzzzzzzzzzzzzzzzzzzzzzzzzzzzzzzzzzzzzzzzzzzzzzzzzzzzzzzzzzzzzzzzzzzzzzzzzzzzzzzzzzzzzzzzzzzzzzzzzzzzzzzzzzzzzzzzzzzzzzzzzzzzzzzzzzzzzzzzzzzzzzzzzzzzzzzzzzzzzzzzzzzzzzzzzzzzzzzzzzzzzzzzzzzzzzzzzzzzzzzzzzzzzzzzzzzzzzzzzzzzzzzzzzzzzzzzzzzzzzzzzzzzzzzzzzzzzzzzzzziiiiiippppppzzzzzzzzzzzzzzzzzzzzzzzzzzzzzzzzzzzzzzzzzzzzzzzzzzzzzzzzzzzzzzzzzzzzzzzzzzzzzzzzzzzzzzzzzzzzzzzzzzzzzzzzzzzzzzzzzzzzzzzzzzzzzzzzzzzzzzzzzzzzzzzzzzzzzzzzzzzzzzzzzzzzzzzzzzzzzzzzzzzzzzzzzzzzzzzzzzzzzzzzzzzzzzzzzzzzzzzzzzzzzzzzzzzzzzzzzzzzzz",
"zzzzzzzzzzzzzzzzzzzzzzzzzzzzzzzzzzzzzzzzzzzzzzzzzzzzzzzzzzzzzzzzzzzzzzzzzzzzzzzzzzzzzzzzzzzzzzzzzzzzzzzzzzzzzzzzzzzzzzzzzzzzzzzzzzzzzzzzzzzzzzzzzzzzzzzzzzzzzzzzzzzzzzzzzzzzzzzzzzzzzzzzzzzzzzzzzzzzzzzzzzzzzzzzzzzzzzzzzzzzzzzzzzzzzzzzzzzzzzzzzzzzzzzzzzzzzzzzzzzzzziiiiiippppppzzzzzzzzzzzzzzzzzzzzzzzzzzzzzzzzzzzzzzzzzzzzzzzzzzzzzzzzzzzzzzzzzzzzzzzzzzzzzzzzzzzzzzzzzzzzzzzzzzzzzzzzzzzzzzzzzzzzzzzzzzzzzzzzzzzzzzzzzzzzzzzzzzzzzzzzzzzzzzzzzzzzzzzzzzzzzzzzzzzzzzzzzzzzzzzzzzzzzzzzzzzzzzzzzzzzzzzzzzzzzzzzzzzzzzzzzzzzzz",
"zzzzzzzzzzzzzzzzzzzzzzzzzzzzzzzzzzzzzzzzzzzzzzzzzzzzzzzzzzzzzzzzzzzzzzzzzzzzzzzzzzzzzzzzzzzzzzzzzzzzzzzzzzzzzzzzzzzzzzzzzzzzzzzzzzzzzzzzzzzzzzzzzzzzzzzzzzzzzzzzzzzzzzzzzzzzzzzzzzzzzzzzzzzzzzzzzzzzzzzzzzzzzzzzzzzzzzzzzzzzzzzzzzzzzzzzzzzzzzzzzzzzzzzzzzzzzzzzzzzzzziiiiiippppppzzzzzzzzzzzzzzzzzzzzzzzzzzzzzzzzzzzzzzzzzzzzzzzzzzzzzzzzzzzzzzzzzzzzzzzzzzzzzzzzzzzzzzzzzzzzzzzzzzzzzzzzzzzzzzzzzzzzzzzzzzzzzzzzzzzzzzzzzzzzzzzzzzzzzzzzzzzzzzzzzzzzzzzzzzzzzzzzzzzzzzzzzzzzzzzzzzzzzzzzzzzzzzzzzzzzzzzzzzzzzzzzzzzzzzzzzzzzzz",
"zzzzzzzzzzzzzzzzzzzzzzzzzzzzzzzzzzzzzzzzzzzzzzzzzzzzzzzzzzzzzzzzzzzzzzzzzzzzzzzzzzzzzzzzzzzzzzzzzzzzzzzzzzzzzzzzzzzzzzzzzzzzzzzzzzzzzzzzzzzzzzzzzzzzzzzzzzzzzzzzzzzzzzzzzzzzzzzzzzzzzzzzzzzzzzzzzzzzzzzzzzzzzzzzzzzzzzzzzzzzzzzzzzzzzzzzzzzzzzzzzzzzzzzzzzzzzzzzzzzzzziiiiiippppppzzzzzzzzzzzzzzzzzzzzzzzzzzzzzzzzzzzzzzzzzzzzzzzzzzzzzzzzzzzzzzzzzzzzzzzzzzzzzzzzzzzzzzzzzzzzzzzzzzzzzzzzzzzzzzzzzzzzzzzzzzzzzzzzzzzzzzzzzzzzzzzzzzzzzzzzzzzzzzzzzzzzzzzzzzzzzzzzzzzzzzzzzzzzzzzzzzzzzzzzzzzzzzzzzzzzzzzzzzzzzzzzzzzzzzzzzzzzzz",
"zzzzzzzzzzzzzzzzzzzzzzzzzzzzzzzzzzzzzzzzzzzzzzzzzzzzzzzzzzzzzzzzzzzzzzzzzzzzzzzzzzzzzzzzzzzzzzzzzzzzzzzzzzzzzzzzzzzzzzzzzzzzzzzzzzzzzzzzzzzzzzzzzzzzzzzzzzzzzzzzzzzzzzzzzzzzzzzzzzzzzzzzzzzzzzzzzzzzzzzzzzzzzzzzzzzzzzzzzzzzzzzzzzzzzzzzzzzzzzzzzzzzzzzzzzzzzzzzzzzzzziiiiiippppppzzzzzzzzzzzzzzzzzzzzzzzzzzzzzzzzzzzzzzzzzzzzzzzzzzzzzzzzzzzzzzzzzzzzzzzzzzzzzzzzzzzzzzzzzzzzzzzzzzzzzzzzzzzzzzzzzzzzzzzzzzzzzzzzzzzzzzzzzzzzzzzzzzzzzzzzzzzzzzzzzzzzzzzzzzzzzzzzzzzzzzzzzzzzzzzzzzzzzzzzzzzzzzzzzzzzzzzzzzzzzzzzzzzzzzzzzzzzzz",
"zzzzzzzzzzzzzzzzzzzzzzzzzzzzzzzzzzzzzzzzzzzzzzzzzzzzzzzzzzzzzzzzzzzzzzzzzzzzzzzzzzzzzzzzzzzzzzzzzzzzzzzzzzzzzzzzzzzzzzzzzzzzzzzzzzzzzzzzzzzzzzzzzzzzzzzzzzzzzzzzzzzzzzzzzzzzzzzzzzzzzzzzzzzzzzzzzzzzzzzzzzzzzzzzzzzzzzzzzzzzzzzzzzzzzzzzzzzzzzzzzzzzzzzzzzzzzzzzzzzzzziiiiiippppppzzzzzzzzzzzzzzzzzzzzzzzzzzzzzzzzzzzzzzzzzzzzzzzzzzzzzzzzzzzzzzzzzzzzzzzzzzzzzzzzzzzzzzzzzzzzzzzzzzzzzzzzzzzzzzzzzzzzzzzzzzzzzzzzzzzzzzzzzzzzzzzzzzzzzzzzzzzzzzzzzzzzzzzzzzzzzzzzzzzzzzzzzzzzzzzzzzzzzzzzzzzzzzzzzzzzzzzzzzzzzzzzzzzzzzzzzzzzzz",
"zzzzzzzzzzzzzzzzzzzzzzzzzzzzzzzzzzzzzzzzzzzzzzzzzzzzzzzzzzzzzzzzzzzzzzzzzzzzzzzzzzzzzzzzzzzzzzzzzzzzzzzzzzzzzzzzzzzzzzzzzzzzzzzzzzzzzzzzzzzzzzzzzzzzzzzzzzzzzzzzzzzzzzzzzzzzzzzzzzzzzzzzzzzzzzzzzzzzzzzzzzzzzzzzzzzzzzzzzzzzzzzzzzzzzzzzzzzzzzzzzzzzzzzzzzzzzzzzzzzzzziiiiiippppppzzzzzzzzzzzzzzzzzzzzzzzzzzzzzzzzzzzzzzzzzzzzzzzzzzzzzzzzzzzzzzzzzzzzzzzzzzzzzzzzzzzzzzzzzzzzzzzzzzzzzzzzzzzzzzzzzzzzzzzzzzzzzzzzzzzzzzzzzzzzzzzzzzzzzzzzzzzzzzzzzzzzzzzzzzzzzzzzzzzzzzzzzzzzzzzzzzzzzzzzzzzzzzzzzzzzzzzzzzzzzzzzzzzzzzzzzzzzzz",
"zzzzzzzzzzzzzzzzzzzzzzzzzzzzzzzzzzzzzzzzzzzzzzzzzzzzzzzzzzzzzzzzzzzzzzzzzzzzzzzzzzzzzzzzzzzzzzzzzzzzzzzzzzzzzzzzzzzzzzzzzzzzzzzzzzzzzzzzzzzzzzzzzzzzzzzzzzzzzzzzzzzzzzzzzzzzzzzzzzzzzzzzzzzzzzzzzzzzzzzzzzzzzzzzzzzzzzzzzzzzzzzzzzzzzzzzzzzzzzzzzzzzzzzzzzzzzzzzzzzzzziiiiiippppppzzzzzzzzzzzzzzzzzzzzzzzzzzzzzzzzzzzzzzzzzzzzzzzzzzzzzzzzzzzzzzzzzzzzzzzzzzzzzzzzzzzzzzzzzzzzzzzzzzzzzzzzzzzzzzzzzzzzzzzzzzzzzzzzzzzzzzzzzzzzzzzzzzzzzzzzzzzzzzzzzzzzzzzzzzzzzzzzzzzzzzzzzzzzzzzzzzzzzzzzzzzzzzzzzzzzzzzzzzzzzzzzzzzzzzzzzzzzzz",
"zzzzzzzzzzzzzzzzzzzzzzzzzzzzzzzzzzzzzzzzzzzzzzzzzzzzzzzzzzzzzzzzzzzzzzzzzzzzzzzzzzzzzzzzzzzzzzzzzzzzzzzzzzzzzzzzzzzzzzzzzzzzzzzzzzzzzzzzzzzzzzzzzzzzzzzzzzzzzzzzzzzzzzzzzzzzzzzzzzzzzzzzzzzzzzzzzzzzzzzzzzzzzzzzzzzzzzzzzzzzzzzzzzzzzzzzzzzzzzzzzzzzzzzzzzzzzzzzzzzzzziiiiiippppppzzzzzzzzzzzzzzzzzzzzzzzzzzzzzzzzzzzzzzzzzzzzzzzzzzzzzzzzzzzzzzzzzzzzzzzzzzzzzzzzzzzzzzzzzzzzzzzzzzzzzzzzzzzzzzzzzzzzzzzzzzzzzzzzzzzzzzzzzzzzzzzzzzzzzzzzzzzzzzzzzzzzzzzzzzzzzzzzzzzzzzzzzzzzzzzzzzzzzzzzzzzzzzzzzzzzzzzzzzzzzzzzzzzzzzzzzzzzzz",
"zzzzzzzzzzzzzzzzzzzzzzzzzzzzzzzzzzzzzzzzzzzzzzzzzzzzzzzzzzzzzzzzzzzzzzzzzzzzzzzzzzzzzzzzzzzzzzzzzzzzzzzzzzzzzzzzzzzzzzzzzzzzzzzzzzzzzzzzzzzzzzzzzzzzzzzzzzzzzzzzzzzzzzzzzzzzzzzzzzzzzzzzzzzzzzzzzzzzzzzzzzzzzzzzzzzzzzzzzzzzzzzzzzzzzzzzzzzzzzzzzzzzzzzzzzzzzzzzzzzzzziiiiiippppppzzzzzzzzzzzzzzzzzzzzzzzzzzzzzzzzzzzzzzzzzzzzzzzzzzzzzzzzzzzzzzzzzzzzzzzzzzzzzzzzzzzzzzzzzzzzzzzzzzzzzzzzzzzzzzzzzzzzzzzzzzzzzzzzzzzzzzzzzzzzzzzzzzzzzzzzzzzzzzzzzzzzzzzzzzzzzzzzzzzzzzzzzzzzzzzzzzzzzzzzzzzzzzzzzzzzzzzzzzzzzzzzzzzzzzzzzzzzzz",
"zzzzzzzzzzzzzzzzzzzzzzzzzzzzzzzzzzzzzzzzzzzzzzzzzzzzzzzzzzzzzzzzzzzzzzzzzzzzzzzzzzzzzzzzzzzzzzzzzzzzzzzzzzzzzzzzzzzzzzzzzzzzzzzzzzzzzzzzzzzzzzzzzzzzzzzzzzzzzzzzzzzzzzzzzzzzzzzzzzzzzzzzzzzzzzzzzzzzzzzzzzzzzzzzzzzzzzzzzzzzzzzzzzzzzzzzzzzzzzzzzzzzzzzzzzzzzzzzzzzzzzaaaaaaaaaaaazzzzzzzzzzzzzzzzzzzzzzzzzzzzzzzzzzzzzzzzzzzzzzzzzzzzzzzzzzzzzzzzzzzzzzzzzzzzzzzzzzzzzzzzzzzzzzzzzzzzzzzzzzzzzzzzzzzzzzzzzzzzzzzzzzzzzzzzzzzzzzzzzzzzzzzzzzzzzzzzzzzzzzzzzzzzzzzzzzzzzzzzzzzzzzzzzzzzzzzzzzzzzzzzzzzzzzzzzzzzzzzzzzzzzzzzzzzzzz",
"zzzzzzzzzzzzzzzzzzzzzzzzzzzzzzzzzzzzzzzzzzzzzzzzzzzzzzzzzzzzzzzzzzzzzzzzzzzzzzzzzzzzzzzzzzzzzzzzzzzzzzzzzzzzzzzzzzzzzzzzzzzzzzzzzzzzzzzzzzzzzzzzzzzzzzzzzzzzzzzzzzzzzzzzzzzzzzzzzzzzzzzzzzzzzzzzzzzzzzzzzzzzzzzzzzzzzzzzzzzzzzzzzzzzzzzzzzzzzzzzzzzzzzzzzzzzzzzzzzzzzzaaaaaaaaaaaazzzzzzzzzzzzzzzzzzzzzzzzzzzzzzzzzzzzzzzzzzzzzzzzzzzzzzzzzzzzzzzzzzzzzzzzzzzzzzzzzzzzzzzzzzzzzzzzzzzzzzzzzzzzzzzzzzzzzzzzzzzzzzzzzzzzzzzzzzzzzzzzzzzzzzzzzzzzzzzzzzzzzzzzzzzzzzzzzzzzzzzzzzzzzzzzzzzzzzzzzzzzzzzzzzzzzzzzzzzzzzzzzzzzzzzzzzzzzz",
"zzzzzzzzzzzzzzzzzzzzzzzzzzzzzzzzzzzzzzzzzzzzzzzzzzzzzzzzzzzzzzzzzzzzzzzzzzzzzzzzzzzzzzzzzzzzzzzzzzzzzzzzzzzzzzzzzzzzzzzzzzzzzzzzzzzzzzzzzzzzzzzzzzzzzzzzzzzzzzzzzzzzzzzzzzzzzzzzzzzzzzzzzzzzzzzzzzzzzzzzzzzzzzzzzzzzzzzzzzzzzzzzzzzzzzzzzzzzzzzzzzzzzzzzzzzzzzzzzzzzzzaaaaaaaaaaaazzzzzzzzzzzzzzzzzzzzzzzzzzzzzzzzzzzzzzzzzzzzzzzzzzzzzzzzzzzzzzzzzzzzzzzzzzzzzzzzzzzzzzzzzzzzzzzzzzzzzzzzzzzzzzzzzzzzzzzzzzzzzzzzzzzzzzzzzzzzzzzzzzzzzzzzzzzzzzzzzzzzzzzzzzzzzzzzzzzzzzzzzzzzzzzzzzzzzzzzzzzzzzzzzzzzzzzzzzzzzzzzzzzzzzzzzzzzzz",
"zzzzzzzzzzzzzzzzzzzzzzzzzzzzzzzzzzzzzzzzzzzzzzzzzzzzzzzzzzzzzzzzzzzzzzzzzzzzzzzzzzzzzzzzzzzzzzzzzzzzzzzzzzzzzzzzzzzzzzzzzzzzzzzzzzzzzzzzzzzzzzzzzzzzzzzzzzzzzzzzzzzzzzzzzzzzzzzzzzzzzzzzzzzzzzzzzzzzzzzzzzzzzzzzzzzzzzzzzzzzzzzzzzzzzzzzzzzzzzzzzzzzzzzzzzzzzzzzzzzzzzaaaaaaaaaaaazzzzzzzzzzzzzzzzzzzzzzzzzzzzzzzzzzzzzzzzzzzzzzzzzzzzzzzzzzzzzzzzzzzzzzzzzzzzzzzzzzzzzzzzzzzzzzzzzzzzzzzzzzzzzzzzzzzzzzzzzzzzzzzzzzzzzzzzzzzzzzzzzzzzzzzzzzzzzzzzzzzzzzzzzzzzzzzzzzzzzzzzzzzzzzzzzzzzzzzzzzzzzzzzzzzzzzzzzzzzzzzzzzzzzzzzzzzzzz",
"zzzzzzzzzzzzzzzzzzzzzzzzzzzzzzzzzzzzzzzzzzzzzzzzzzzzzzzzzzzzzzzzzzzzzzzzzzzzzzzzzzzzzzzzzzzzzzzzzzzzzzzzzzzzzzzzzzzzzzzzzzzzzzzzzzzzzzzzzzzzzzzzzzzzzzzzzzzzzzzzzzzzzzzzzzzzzzzzzzzzzzzzzzzzzzzzzzzzzzzzzzzzzzzzzzzzzzzzzzzzzzzzzzzzzzzzzzzzzzzzzzzzzzzzzzzzzzzzzzzzzzaaaaaaaaaaaazzzzzzzzzzzzzzzzzzzzzzzzzzzzzzzzzzzzzzzzzzzzzzzzzzzzzzzzzzzzzzzzzzzzzzzzzzzzzzzzzzzzzzzzzzzzzzzzzzzzzzzzzzzzzzzzzzzzzzzzzzzzzzzzzzzzzzzzzzzzzzzzzzzzzzzzzzzzzzzzzzzzzzzzzzzzzzzzzzzzzzzzzzzzzzzzzzzzzzzzzzzzzzzzzzzzzzzzzzzzzzzzzzzzzzzzzzzzzz",
"zzzzzzzzzzzzzzzzzzzzzzzzzzzzzzzzzzzzzzzzzzzzzzzzzzzzzzzzzzzzzzzzzzzzzzzzzzzzzzzzzzzzzzzzzzzzzzzzzzzzzzzzzzzzzzzzzzzzzzzzzzzzzzzzzzzzzzzzzzzzzzzzzzzzzzzzzzzzzzzzzzzzzzzzzzzzzzzzzzzzzzzzzzzzzzzzzzzzzzzzzzzzzzzzzzzzzzzzzzzzzzzzzzzzzzzzzzzzzzzzzzzzzzzzzzzzzzzzzzzzzzaaaaaaaaaaaazzzzzzzzzzzzzzzzzzzzzzzzzzzzzzzzzzzzzzzzzzzzzzzzzzzzzzzzzzzzzzzzzzzzzzzzzzzzzzzzzzzzzzzzzzzzzzzzzzzzzzzzzzzzzzzzzzzzzzzzzzzzzzzzzzzzzzzzzzzzzzzzzzzzzzzzzzzzzzzzzzzzzzzzzzzzzzzzzzzzzzzzzzzzzzzzzzzzzzzzzzzzzzzzzzzzzzzzzzzzzzzzzzzzzzzzzzzzzz",
"zzzzzzzzzzzzzzzzzzzzzzzzzzzzzzzzzzzzzzzzzzzzzzzzzzzzzzzzzzzzzzzzzzzzzzzzzzzzzzzzzzzzzzzzzzzzzzzzzzzzzzzzzzzzzzzzzzzzzzzzzzzzzzzzzzzzzzzzzzzzzzzzzzzzzzzzzzzzzzzzzzzzzzzzzzzzzzzzzzzzzzzzzzzzzzzzzzzzzzzzzzzzzzzzzzzzzzzzzzzzzzzzzzzzzzzzzzzzzzzzzzzzzzzzzzzzzzzziiiiiiaaaaaaaaaaaaiiiiiiiiiiiizzzzzzzzzzzzzzzzzzzzzzzzzzzzzzzzzzzzzzzzzzzzzzzzzzzzzzzzzzzzzzzzzzzzzzzzzzzzzzzzzzzzzzzzzzzzzzzzzzzzzzzzzzzzzzzzzzzzzzzzzzzzzzzzzzzzzzzzzzzzzzzzzzzzzzzzzzzzzzzzzzzzzzzzzzzzzzzzzzzzzzzzzzzzzzzzzzzzzzzzzzzzzzzzzzzzzzzzzzzzzzzzzz",
"zzzzzzzzzzzzzzzzzzzzzzzzzzzzzzzzzzzzzzzzzzzzzzzzzzzzzzzzzzzzzzzzzzzzzzzzzzzzzzzzzzzzzzzzzzzzzzzzzzzzzzzzzzzzzzzzzzzzzzzzzzzzzzzzzzzzzzzzzzzzzzzzzzzzzzzzzzzzzzzzzzzzzzzzzzzzzzzzzzzzzzzzzzzzzzzzzzzzzzzzzzzzzzzzzzzzzzzzzzzzzzzzzzzzzzzzzzzzzzzzzzzzzzzzzzzzzzzziiiiiiaaaaaaaaaaaaiiiiiiiiiiiizzzzzzzzzzzzzzzzzzzzzzzzzzzzzzzzzzzzzzzzzzzzzzzzzzzzzzzzzzzzzzzzzzzzzzzzzzzzzzzzzzzzzzzzzzzzzzzzzzzzzzzzzzzzzzzzzzzzzzzzzzzzzzzzzzzzzzzzzzzzzzzzzzzzzzzzzzzzzzzzzzzzzzzzzzzzzzzzzzzzzzzzzzzzzzzzzzzzzzzzzzzzzzzzzzzzzzzzzzzzzzzzzz",
"zzzzzzzzzzzzzzzzzzzzzzzzzzzzzzzzzzzzzzzzzzzzzzzzzzzzzzzzzzzzzzzzzzzzzzzzzzzzzzzzzzzzzzzzzzzzzzzzzzzzzzzzzzzzzzzzzzzzzzzzzzzzzzzzzzzzzzzzzzzzzzzzzzzzzzzzzzzzzzzzzzzzzzzzzzzzzzzzzzzzzzzzzzzzzzzzzzzzzzzzzzzzzzzzzzzzzzzzzzzzzzzzzzzzzzzzzzzzzzzzzzzzzzzzzzzzzzzziiiiiiaaaaaaaaaaaaiiiiiiiiiiiizzzzzzzzzzzzzzzzzzzzzzzzzzzzzzzzzzzzzzzzzzzzzzzzzzzzzzzzzzzzzzzzzzzzzzzzzzzzzzzzzzzzzzzzzzzzzzzzzzzzzzzzzzzzzzzzzzzzzzzzzzzzzzzzzzzzzzzzzzzzzzzzzzzzzzzzzzzzzzzzzzzzzzzzzzzzzzzzzzzzzzzzzzzzzzzzzzzzzzzzzzzzzzzzzzzzzzzzzzzzzzzzzz",
"zzzzzzzzzzzzzzzzzzzzzzzzzzzzzzzzzzzzzzzzzzzzzzzzzzzzzzzzzzzzzzzzzzzzzzzzzzzzzzzzzzzzzzzzzzzzzzzzzzzzzzzzzzzzzzzzzzzzzzzzzzzzzzzzzzzzzzzzzzzzzzzzzzzzzzzzzzzzzzzzzzzzzzzzzzzzzzzzzzzzzzzzzzzzzzzzzzzzzzzzzzzzzzzzzzzzzzzzzzzzzzzzzzzzzzzzzzzzzzzzzzzzzzzzzzzzzzzziiiiiiaaaaaaaaaaaaiiiiiiiiiiiizzzzzzzzzzzzzzzzzzzzzzzzzzzzzzzzzzzzzzzzzzzzzzzzzzzzzzzzzzzzzzzzzzzzzzzzzzzzzzzzzzzzzzzzzzzzzzzzzzzzzzzzzzzzzzzzzzzzzzzzzzzzzzzzzzzzzzzzzzzzzzzzzzzzzzzzzzzzzzzzzzzzzzzzzzzzzzzzzzzzzzzzzzzzzzzzzzzzzzzzzzzzzzzzzzzzzzzzzzzzzzzzzz",
"zzzzzzzzzzzzzzzzzzzzzzzzzzzzzzzzzzzzzzzzzzzzzzzzzzzzzzzzzzzzzzzzzzzzzzzzzzzzzzzzzzzzzzzzzzzzzzzzzzzzzzzzzzzzzzzzzzzzzzzzzzzzzzzzzzzzzzzzzzzzzzzzzzzzzzzzzzzzzzzzzzzzzzzzzzzzzzzzzzzzzzzzzzzzzzzzzzzzzzzzzzzzzzzzzzzzzzzzzzzzzzzzzzzzzzzzzzzzzzzzzzzzzzzzzzzzzzzziiiiiiaaaaaaaaaaaaiiiiiiiiiiiizzzzzzzzzzzzzzzzzzzzzzzzzzzzzzzzzzzzzzzzzzzzzzzzzzzzzzzzzzzzzzzzzzzzzzzzzzzzzzzzzzzzzzzzzzzzzzzzzzzzzzzzzzzzzzzzzzzzzzzzzzzzzzzzzzzzzzzzzzzzzzzzzzzzzzzzzzzzzzzzzzzzzzzzzzzzzzzzzzzzzzzzzzzzzzzzzzzzzzzzzzzzzzzzzzzzzzzzzzzzzzzzzz",
"zzzzzzzzzzzzzzzzzzzzzzzzzzzzzzzzzzzzzzzzzzzzzzzzzzzzzzzzzzzzzzzzzzzzzzzzzzzzzzzzzzzzzzzzzzzzzzzzzzzzzzzzzzzzzzzzzzzzzzzzzzzzzzzzzzzzzzzzzzzzzzzzzzzzzzzzzzzzzzzzzzzzzzzzzzzzzzzzzzzzzzzzzzzzzzzzzzzzzzzzzzzzzzzzzzzzzzzzzzzzzzzzzzzzzzzzzzzzzzzzzzzzzzzzzzzzzzzziiiiiiaaaaaaaaaaaaiiiiiiiiiiiizzzzzzzzzzzzzzzzzzzzzzzzzzzzzzzzzzzzzzzzzzzzzzzzzzzzzzzzzzzzzzzzzzzzzzzzzzzzzzzzzzzzzzzzzzzzzzzzzzzzzzzzzzzzzzzzzzzzzzzzzzzzzzzzzzzzzzzzzzzzzzzzzzzzzzzzzzzzzzzzzzzzzzzzzzzzzzzzzzzzzzzzzzzzzzzzzzzzzzzzzzzzzzzzzzzzzzzzzzzzzzzzzz",
"zzzzzzzzzzzzzzzzzzzzzzzzzzzzzzzzzzzzzzzzzzzzzzzzzzzzzzzzzzzzzzzzzzzzzzzzzzzzzzzzzzzzzzzzzzzzzzzzzzzzzzzzzzzzzzzzzzzzzzzzzzzzzzzzzzzzzzzzzzzzzzzzzzzzzzzzzzzzzzzzzzzzzzzzzzzzzzzzzzzzzzzzzzzzzzzzzzzzzzzzzzzzzzzzzzzzzzzzzzzzzzzzzzzzzzzzzzzzzzzzzzzzzzzzzzzzzzzziiiiiiaaaaaaaaaaaaiiiiiippppppzzzzzzzzzzzzzzzzzzzzzzzzzzzzzzzzzzzzzzzzzzzzzzzzzzzzzzzzzzzzzzzzzzzzzzzzzzzzzzzzzzzzzzzzzzzzzzzzzzzzzzzzzzzzzzzzzzzzzzzzzzzzzzzzzzzzzzzzzzzzzzzzzzzzzzzzzzzzzzzzzzzzzzzzzzzzzzzzzzzzzzzzzzzzzzzzzzzzzzzzzzzzzzzzzzzzzzzzzzzzzzzzzz",
"zzzzzzzzzzzzzzzzzzzzzzzzzzzzzzzzzzzzzzzzzzzzzzzzzzzzzzzzzzzzzzzzzzzzzzzzzzzzzzzzzzzzzzzzzzzzzzzzzzzzzzzzzzzzzzzzzzzzzzzzzzzzzzzzzzzzzzzzzzzzzzzzzzzzzzzzzzzzzzzzzzzzzzzzzzzzzzzzzzzzzzzzzzzzzzzzzzzzzzzzzzzzzzzzzzzzzzzzzzzzzzzzzzzzzzzzzzzzzzzzzzzzzzzzzzzzzzzziiiiiiaaaaaaaaaaaaiiiiiippppppzzzzzzzzzzzzzzzzzzzzzzzzzzzzzzzzzzzzzzzzzzzzzzzzzzzzzzzzzzzzzzzzzzzzzzzzzzzzzzzzzzzzzzzzzzzzzzzzzzzzzzzzzzzzzzzzzzzzzzzzzzzzzzzzzzzzzzzzzzzzzzzzzzzzzzzzzzzzzzzzzzzzzzzzzzzzzzzzzzzzzzzzzzzzzzzzzzzzzzzzzzzzzzzzzzzzzzzzzzzzzzzzzz",
"zzzzzzzzzzzzzzzzzzzzzzzzzzzzzzzzzzzzzzzzzzzzzzzzzzzzzzzzzzzzzzzzzzzzzzzzzzzzzzzzzzzzzzzzzzzzzzzzzzzzzzzzzzzzzzzzzzzzzzzzzzzzzzzzzzzzzzzzzzzzzzzzzzzzzzzzzzzzzzzzzzzzzzzzzzzzzzzzzzzzzzzzzzzzzzzzzzzzzzzzzzzzzzzzzzzzzzzzzzzzzzzzzzzzzzzzzzzzzzzzzzzzzzzzzzzzzzzziiiiiiaaaaaaaaaaaaiiiiiippppppzzzzzzzzzzzzzzzzzzzzzzzzzzzzzzzzzzzzzzzzzzzzzzzzzzzzzzzzzzzzzzzzzzzzzzzzzzzzzzzzzzzzzzzzzzzzzzzzzzzzzzzzzzzzzzzzzzzzzzzzzzzzzzzzzzzzzzzzzzzzzzzzzzzzzzzzzzzzzzzzzzzzzzzzzzzzzzzzzzzzzzzzzzzzzzzzzzzzzzzzzzzzzzzzzzzzzzzzzzzzzzzzzz",
"zzzzzzzzzzzzzzzzzzzzzzzzzzzzzzzzzzzzzzzzzzzzzzzzzzzzzzzzzzzzzzzzzzzzzzzzzzzzzzzzzzzzzzzzzzzzzzzzzzzzzzzzzzzzzzzzzzzzzzzzzzzzzzzzzzzzzzzzzzzzzzzzzzzzzzzzzzzzzzzzzzzzzzzzzzzzzzzzzzzzzzzzzzzzzzzzzzzzzzzzzzzzzzzzzzzzzzzzzzzzzzzzzzzzzzzzzzzzzzzzzzzzzzzzzzzzzzzziiiiiiaaaaaaaaaaaaiiiiiippppppzzzzzzzzzzzzzzzzzzzzzzzzzzzzzzzzzzzzzzzzzzzzzzzzzzzzzzzzzzzzzzzzzzzzzzzzzzzzzzzzzzzzzzzzzzzzzzzzzzzzzzzzzzzzzzzzzzzzzzzzzzzzzzzzzzzzzzzzzzzzzzzzzzzzzzzzzzzzzzzzzzzzzzzzzzzzzzzzzzzzzzzzzzzzzzzzzzzzzzzzzzzzzzzzzzzzzzzzzzzzzzzzzz",
"zzzzzzzzzzzzzzzzzzzzzzzzzzzzzzzzzzzzzzzzzzzzzzzzzzzzzzzzzzzzzzzzzzzzzzzzzzzzzzzzzzzzzzzzzzzzzzzzzzzzzzzzzzzzzzzzzzzzzzzzzzzzzzzzzzzzzzzzzzzzzzzzzzzzzzzzzzzzzzzzzzzzzzzzzzzzzzzzzzzzzzzzzzzzzzzzzzzzzzzzzzzzzzzzzzzzzzzzzzzzzzzzzzzzzzzzzzzzzzzzzzzzzzzzzzzzzzzziiiiiiaaaaaaaaaaaaiiiiiippppppzzzzzzzzzzzzzzzzzzzzzzzzzzzzzzzzzzzzzzzzzzzzzzzzzzzzzzzzzzzzzzzzzzzzzzzzzzzzzzzzzzzzzzzzzzzzzzzzzzzzzzzzzzzzzzzzzzzzzzzzzzzzzzzzzzzzzzzzzzzzzzzzzzzzzzzzzzzzzzzzzzzzzzzzzzzzzzzzzzzzzzzzzzzzzzzzzzzzzzzzzzzzzzzzzzzzzzzzzzzzzzzzzz",
"zzzzzzzzzzzzzzzzzzzzzzzzzzzzzzzzzzzzzzzzzzzzzzzzzzzzzzzzzzzzzzzzzzzzzzzzzzzzzzzzzzzzzzzzzzzzzzzzzzzzzzzzzzzzzzzzzzzzzzzzzzzzzzzzzzzzzzzzzzzzzzzzzzzzzzzzzzzzzzzzzzzzzzzzzzzzzzzzzzzzzzzzzzzzzzzzzzzzzzzzzzzzzzzzzzzzzzzzzzzzzzzzzzzzzzzzzzzzzzzzzzzzzzzzzzzzzzzziiiiiiaaaaaaaaaaaaiiiiiippppppzzzzzzzzzzzzzzzzzzzzzzzzzzzzzzzzzzzzzzzzzzzzzzzzzzzzzzzzzzzzzzzzzzzzzzzzzzzzzzzzzzzzzzzzzzzzzzzzzzzzzzzzzzzzzzzzzzzzzzzzzzzzzzzzzzzzzzzzzzzzzzzzzzzzzzzzzzzzzzzzzzzzzzzzzzzzzzzzzzzzzzzzzzzzzzzzzzzzzzzzzzzzzzzzzzzzzzzzzzzzzzzzzz",
"zzzzzzzzzzzzzzzzzzzzzzzzzzzzzzzzzzzzzzzzzzzzzzzzzzzzzzzzzzzzzzzzzzzzzzzzzzzzzzzzzzzzzzzzzzzzzzzzzzzzzzzzzzzzzzzzzzzzzzzzzzzzzzzzzzzzzzzzzzzzzzzzzzzzzzzzzzzzzzzzzzzzzzzzzzzzzzzzzzzzzzzzzzzzzzzzzzzzzzzzzzzzzzzzzzzzzzzzzzzzzzzzzzzzzzzzddddddpppppp333333999hssddddddkkkkkkjjjjjjddddddsssh99333333zzzzzzzzzzzzzzzzzzzzzzzzzzzzzzzzzzzzzzzzzzzzzzzzzzzzzzzzzzzzzzzzzzzzzzzzzzzzzzzzzzzzzzzzzzzzzzzzzzzzzzzzzzzzzzzzzzzzzzzzzzzzzzzzzzzzzzzzzzzzzzzzzzzzzzzzzzzzzzzzzzzzzzzzzzzzzzzzzzzzzzzzzzzzzzzzzzzzzzzzzzzzzzzzzzzzzzzzzzzz",
"zzzzzzzzzzzzzzzzzzzzzzzzzzzzzzzzzzzzzzzzzzzzzzzzzzzzzzzzzzzzzzzzzzzzzzzzzzzzzzzzzzzzzzzzzzzzzzzzzzzzzzzzzzzzzzzzzzzzzzzzzzzzzzzzzzzzzzzzzzzzzzzzzzzzzzzzzzzzzzzzzzzzzzzzzzzzzzzzzzzzzzzzzzzzzzzzzzzzzzzzzzzzzzzzzzzzzzzzzzzzzzzzzzzzzzzzddddddpppppp3333339999ssddddddkkkkkkjjjjjjdddddds9hh99333333zzzzzzzzzzzzzzzzzzzzzzzzzzzzzzzzzzzzzzzzzzzzzzzzzzzzzzzzzzzzzzzzzzzzzzzzzzzzzzzzzzzzzzzzzzzzzzzzzzzzzzzzzzzzzzzzzzzzzzzzzzzzzzzzzzzzzzzzzzzzzzzzzzzzzzzzzzzzzzzzzzzzzzzzzzzzzzzzzzzzzzzzzzzzzzzzzzzzzzzzzzzzzzzzzzzzzzzzzzzz",
"zzzzzzzzzzzzzzzzzzzzzzzzzzzzzzzzzzzzzzzzzzzzzzzzzzzzzzzzzzzzzzzzzzzzzzzzzzzzzzzzzzzzzzzzzzzzzzzzzzzzzzzzzzzzzzzzzzzzzzzzzzzzzzzzzzzzzzzzzzzzzzzzzzzzzzzzzzzzzzzzzzzzzzzzzzzzzzzzzzzzzzzzzzzzzzzzzzzzzzzzzzzzzzzzzzzzzzzzzzzzzzzzzzzzzzzzddddddpppppp3333339999ssddddddkkkkkkjjjjjjdddddd999999333333zzzzzzzzzzzzzzzzzzzzzzzzzzzzzzzzzzzzzzzzzzzzzzzzzzzzzzzzzzzzzzzzzzzzzzzzzzzzzzzzzzzzzzzzzzzzzzzzzzzzzzzzzzzzzzzzzzzzzzzzzzzzzzzzzzzzzzzzzzzzzzzzzzzzzzzzzzzzzzzzzzzzzzzzzzzzzzzzzzzzzzzzzzzzzzzzzzzzzzzzzzzzzzzzzzzzzzzzzzzz",
"zzzzzzzzzzzzzzzzzzzzzzzzzzzzzzzzzzzzzzzzzzzzzzzzzzzzzzzzzzzzzzzzzzzzzzzzzzzzzzzzzzzzzzzzzzzzzzzzzzzzzzzzzzzzzzzzzzzzzzzzzzzzzzzzzzzzzzzzzzzzzzzzzzzzzzzzzzzzzzzzzzzzzzzzzzzzzzzzzzzzzzzzzzzzzzzzzzzzzzzzzzzzzzzzzzzzzzzzzzzzzzzzzzzzzzzzddddddpppppp3333339999hhddddddkkkkkkjjjjjjdddddd999999333333zzzzzzzzzzzzzzzzzzzzzzzzzzzzzzzzzzzzzzzzzzzzzzzzzzzzzzzzzzzzzzzzzzzzzzzzzzzzzzzzzzzzzzzzzzzzzzzzzzzzzzzzzzzzzzzzzzzzzzzzzzzzzzzzzzzzzzzzzzzzzzzzzzzzzzzzzzzzzzzzzzzzzzzzzzzzzzzzzzzzzzzzzzzzzzzzzzzzzzzzzzzzzzzzzzzzzzzzzzzz",
"zzzzzzzzzzzzzzzzzzzzzzzzzzzzzzzzzzzzzzzzzzzzzzzzzzzzzzzzzzzzzzzzzzzzzzzzzzzzzzzzzzzzzzzzzzzzzzzzzzzzzzzzzzzzzzzzzzzzzzzzzzzzzzzzzzzzzzzzzzzzzzzzzzzzzzzzzzzzzzzzzzzzzzzzzzzzzzzzzzzzzzzzzzzzzzzzzzzzzzzzzzzzzzzzzzzzzzzzzzzzzzzzzzzzzzzzddddddpppppp333333999999ddddddkkkkkkjjjjjjdddddd999999333333zzzzzzzzzzzzzzzzzzzzzzzzzzzzzzzzzzzzzzzzzzzzzzzzzzzzzzzzzzzzzzzzzzzzzzzzzzzzzzzzzzzzzzzzzzzzzzzzzzzzzzzzzzzzzzzzzzzzzzzzzzzzzzzzzzzzzzzzzzzzzzzzzzzzzzzzzzzzzzzzzzzzzzzzzzzzzzzzzzzzzzzzzzzzzzzzzzzzzzzzzzzzzzzzzzzzzzzzzzzz",
"zzzzzzzzzzzzzzzzzzzzzzzzzzzzzzzzzzzzzzzzzzzzzzzzzzzzzzzzzzzzzzzzzzzzzzzzzzzzzzzzzzzzzzzzzzzzzzzzzzzzzzzzzzzzzzzzzzzzzzzzzzzzzzzzzzzzzzzzzzzzzzzzzzzzzzzzzzzzzzzzzzzzzzzzzzzzzzzzzzzzzzzzzzzzzzzzzzzzzzzzzzzzzzzzzzzzzzzzzzzzzzzzzzzzzzzzddddddpppppp333333999999ddddddkkkkkkjjjjjjddddddhs9999333333zzzzzzzzzzzzzzzzzzzzzzzzzzzzzzzzzzzzzzzzzzzzzzzzzzzzzzzzzzzzzzzzzzzzzzzzzzzzzzzzzzzzzzzzzzzzzzzzzzzzzzzzzzzzzzzzzzzzzzzzzzzzzzzzzzzzzzzzzzzzzzzzzzzzzzzzzzzzzzzzzzzzzzzzzzzzzzzzzzzzzzzzzzzzzzzzzzzzzzzzzzzzzzzzzzzzzzzzzzzz",
"zzzzzzzzzzzzzzzzzzzzzzzzzzzzzzzzzzzzzzzzzzzzzzzzzzzzzzzzzzzzzzzzzzzzzzzzzzzzzzzzzzzzzzzzzzzzzzzzzzzzzzzzzzzzzzzzzzzzzzzzzzzzzzzzzzzzzzzzzzzzzzzzzzzzzzzzzzzzzzzzzzzzzzzzzzzzzzzzzzzzzzzzzzzzzzzzzzzzzzzzzzzzzzzzzzzzzzzzzzzzzzzzzziiiiii11111111111166886699ss99jjjjjjvvvvvvkkkkkkjjjjjjsshh9h666666555555iiiiiiiiiiiizzzzzzzzzzzzzzzzzzzzzzzzzzzzzzzzzzzzzzzzzzzzzzzzzzzzzzzzzzzzzzzzzzzzzzzzzzzzzzzzzzzzzzzzzzzzzzzzzzzzzzzzzzzzzzzzzzzzzzzzzzzzzzzzzzzzzzzzzzzzzzzzzzzzzzzzzzzzzzzzzzzzzzzzzzzzzzzzzzzzzzzzzzzzzzzzzzzzzzzzzz",
"zzzzzzzzzzzzzzzzzzzzzzzzzzzzzzzzzzzzzzzzzzzzzzzzzzzzzzzzzzzzzzzzzzzzzzzzzzzzzzzzzzzzzzzzzzzzzzzzzzzzzzzzzzzzzzzzzzzzzzzzzzzzzzzzzzzzzzzzzzzzzzzzzzzzzzzzzzzzzzzzzzzzzzzzzzzzzzzzzzzzzzzzzzzzzzzzzzzzzzzzzzzzzzzzzzzzzzzzzzzzzzzzzziiiiii111111111111668866hhssssjjjjjjvvvvvvkkkkkkjjjjjjshhhhh666666555555iiiiiiiiiiiizzzzzzzzzzzzzzzzzzzzzzzzzzzzzzzzzzzzzzzzzzzzzzzzzzzzzzzzzzzzzzzzzzzzzzzzzzzzzzzzzzzzzzzzzzzzzzzzzzzzzzzzzzzzzzzzzzzzzzzzzzzzzzzzzzzzzzzzzzzzzzzzzzzzzzzzzzzzzzzzzzzzzzzzzzzzzzzzzzzzzzzzzzzzzzzzzzzzzzzzzz",
"zzzzzzzzzzzzzzzzzzzzzzzzzzzzzzzzzzzzzzzzzzzzzzzzzzzzzzzzzzzzzzzzzzzzzzzzzzzzzzzzzzzzzzzzzzzzzzzzzzzzzzzzzzzzzzzzzzzzzzzzzzzzzzzzzzzzzzzzzzzzzzzzzzzzzzzzzzzzzzzzzzzzzzzzzzzzzzzzzzzzzzzzzzzzzzzzzzzzzzzzzzzzzzzzzzzzzzzzzzzzzzzzzziiiiii111111222222666666hhhhhhjjjjggvvvvkkkkkkkkjjjjjj999ssh666866555555iiiiiiiiiiiizzzzzzzzzzzzzzzzzzzzzzzzzzzzzzzzzzzzzzzzzzzzzzzzzzzzzzzzzzzzzzzzzzzzzzzzzzzzzzzzzzzzzzzzzzzzzzzzzzzzzzzzzzzzzzzzzzzzzzzzzzzzzzzzzzzzzzzzzzzzzzzzzzzzzzzzzzzzzzzzzzzzzzzzzzzzzzzzzzzzzzzzzzzzzzzzzzzzzzzzzz",
"zzzzzzzzzzzzzzzzzzzzzzzzzzzzzzzzzzzzzzzzzzzzzzzzzzzzzzzzzzzzzzzzzzzzzzzzzzzzzzzzzzzzzzzzzzzzzzzzzzzzzzzzzzzzzzzzzzzzzzzzzzzzzzzzzzzzzzzzzzzzzzzzzzzzzzzzzzzzzzzzzzzzzzzzzzzzzzzzzzzzzzzzzzzzzzzzzzzzzzzzzzzzzzzzzzzzzzzzzzzzzzzzzziiiiii111111212222666666hhhhhhjjjjggvvvvkkkkkkkkjjjjgj99ss9h668866555555iiiiiiiiiiiizzzzzzzzzzzzzzzzzzzzzzzzzzzzzzzzzzzzzzzzzzzzzzzzzzzzzzzzzzzzzzzzzzzzzzzzzzzzzzzzzzzzzzzzzzzzzzzzzzzzzzzzzzzzzzzzzzzzzzzzzzzzzzzzzzzzzzzzzzzzzzzzzzzzzzzzzzzzzzzzzzzzzzzzzzzzzzzzzzzzzzzzzzzzzzzzzzzzzzzzzz",
"zzzzzzzzzzzzzzzzzzzzzzzzzzzzzzzzzzzzzzzzzzzzzzzzzzzzzzzzzzzzzzzzzzzzzzzzzzzzzzzzzzzzzzzzzzzzzzzzzzzzzzzzzzzzzzzzzzzzzzzzzzzzzzzzzzzzzzzzzzzzzzzzzzzzzzzzzzzzzzzzzzzzzzzzzzzzzzzzzzzzzzzzzzzzzzzzzzzzzzzzzzzzzzzzzzzzzzzzzzzzzzzzzziiiiii111111111122666686shhh9hjjjjgjvvvkkkkkkkkkjjaagg999999666666555555iiiiiiiiiiiizzzzzzzzzzzzzzzzzzzzzzzzzzzzzzzzzzzzzzzzzzzzzzzzzzzzzzzzzzzzzzzzzzzzzzzzzzzzzzzzzzzzzzzzzzzzzzzzzzzzzzzzzzzzzzzzzzzzzzzzzzzzzzzzzzzzzzzzzzzzzzzzzzzzzzzzzzzzzzzzzzzzzzzzzzzzzzzzzzzzzzzzzzzzzzzzzzzzzzzzzz",
"zzzzzzzzzzzzzzzzzzzzzzzzzzzzzzzzzzzzzzzzzzzzzzzzzzzzzzzzzzzzzzzzzzzzzzzzzzzzzzzzzzzzzzzzzzzzzzzzzzzzzzzzzzzzzzzzzzzzzzzzzzzzzzzzzzzzzzzzzzzzzzzzzzzzzzzzzzzzzzzzzzzzzzzzzzzzzzzzzzzzzzzzzzzzzzzzzzzzzzzzzzzzzzzzzzzzzzzzzzzzzzzzzziiiiii111111111112666666hhhhhhjjjjjjvvvkkkkkkkkkjjaagg999999666666555555iiiiiiiiiiiizzzzzzzzzzzzzzzzzzzzzzzzzzzzzzzzzzzzzzzzzzzzzzzzzzzzzzzzzzzzzzzzzzzzzzzzzzzzzzzzzzzzzzzzzzzzzzzzzzzzzzzzzzzzzzzzzzzzzzzzzzzzzzzzzzzzzzzzzzzzzzzzzzzzzzzzzzzzzzzzzzzzzzzzzzzzzzzzzzzzzzzzzzzzzzzzzzzzzzzzzz",
"zzzzzzzzzzzzzzzzzzzzzzzzzzzzzzzzzzzzzzzzzzzzzzzzzzzzzzzzzzzzzzzzzzzzzzzzzzzzzzzzzzzzzzzzzzzzzzzzzzzzzzzzzzzzzzzzzzzzzzzzzzzzzzzzzzzzzzzzzzzzzzzzzzzzzzzzzzzzzzzzzzzzzzzzzzzzzzzzzzzzzzzzzzzzzzzzzzzzzzzzzzzzzzzzzzzzzzzzzzzzpppppp112222<<<<<<555555886666ssssssffffffbbbbbbkkkkkkssssffsssh9986666655555544<<<<222211ppppppzzzzzzzzzzzzzzzzzzzzzzzzzzzzzzzzzzzzzzzzzzzzzzzzzzzzzzzzzzzzzzzzzzzzzzzzzzzzzzzzzzzzzzzzzzzzzzzzzzzzzzzzzzzzzzzzzzzzzzzzzzzzzzzzzzzzzzzzzzzzzzzzzzzzzzzzzzzzzzzzzzzzzzzzzzzzzzzzzzzzzzzzzzzzzzzzzzzz",
"zzzzzzzzzzzzzzzzzzzzzzzzzzzzzzzzzzzzzzzzzzzzzzzzzzzzzzzzzzzzzzzzzzzzzzzzzzzzzzzzzzzzzzzzzzzzzzzzzzzzzzzzzzzzzzzzzzzzzzzzzzzzzzzzzzzzzzzzzzzzzzzzzzzzzzzzzzzzzzzzzzzzzzzzzzzzzzzzzzzzzzzzzzzzzzzzzzzzzzzzzzzzzzzzzzzzzzzzzzzzpppppp112222<<<<4<555555886666ssssssffffffbbbbbbkkkkkkssssffsshh9h86666655555544<<<<222211ppppppzzzzzzzzzzzzzzzzzzzzzzzzzzzzzzzzzzzzzzzzzzzzzzzzzzzzzzzzzzzzzzzzzzzzzzzzzzzzzzzzzzzzzzzzzzzzzzzzzzzzzzzzzzzzzzzzzzzzzzzzzzzzzzzzzzzzzzzzzzzzzzzzzzzzzzzzzzzzzzzzzzzzzzzzzzzzzzzzzzzzzzzzzzzzzzzzzzzz",
"zzzzzzzzzzzzzzzzzzzzzzzzzzzzzzzzzzzzzzzzzzzzzzzzzzzzzzzzzzzzzzzzzzzzzzzzzzzzzzzzzzzzzzzzzzzzzzzzzzzzzzzzzzzzzzzzzzzzzzzzzzzzzzzzzzzzzzzzzzzzzzzzzzzzzzzzzzzzzzzzzzzzzzzzzzzzzzzzzzzzzzzzzzzzzzzzzzzzzzzzzzzzzzzzzzzzzzzzzzzzpppppp111122<<4444555555666666ssssssffffkkbbbbbbkkkkkkssffff9h99996666665555554444<<221111ppppppzzzzzzzzzzzzzzzzzzzzzzzzzzzzzzzzzzzzzzzzzzzzzzzzzzzzzzzzzzzzzzzzzzzzzzzzzzzzzzzzzzzzzzzzzzzzzzzzzzzzzzzzzzzzzzzzzzzzzzzzzzzzzzzzzzzzzzzzzzzzzzzzzzzzzzzzzzzzzzzzzzzzzzzzzzzzzzzzzzzzzzzzzzzzzzzzzzzz",
"zzzzzzzzzzzzzzzzzzzzzzzzzzzzzzzzzzzzzzzzzzzzzzzzzzzzzzzzzzzzzzzzzzzzzzzzzzzzzzzzzzzzzzzzzzzzzzzzzzzzzzzzzzzzzzzzzzzzzzzzzzzzzzzzzzzzzzzzzzzzzzzzzzzzzzzzzzzzzzzzzzzzzzzzzzzzzzzzzzzzzzzzzzzzzzzzzzzzzzzzzzzzzzzzzzzzzzzzzzzzpppppp111111<44444555555666666ssssssfffffkbbbbbbkkkkkksfffffhh99996666665555554444<<222111ppppppzzzzzzzzzzzzzzzzzzzzzzzzzzzzzzzzzzzzzzzzzzzzzzzzzzzzzzzzzzzzzzzzzzzzzzzzzzzzzzzzzzzzzzzzzzzzzzzzzzzzzzzzzzzzzzzzzzzzzzzzzzzzzzzzzzzzzzzzzzzzzzzzzzzzzzzzzzzzzzzzzzzzzzzzzzzzzzzzzzzzzzzzzzzzzzzzzzzz",
"zzzzzzzzzzzzzzzzzzzzzzzzzzzzzzzzzzzzzzzzzzzzzzzzzzzzzzzzzzzzzzzzzzzzzzzzzzzzzzzzzzzzzzzzzzzzzzzzzzzzzzzzzzzzzzzzzzzzzzzzzzzzzzzzzzzzzzzzzzzzzzzzzzzzzzzzzzzzzzzzzzzzzzzzzzzzzzzzzzzzzzzzzzzzzzzzzzzzzzzzzzzzzzzzzzzzzzzzzzzzpppppp222221<<<<44555555666666ssssssffffffbbbbbbkkkkkkffffffshhh99666666555555444<<<222111ppppppzzzzzzzzzzzzzzzzzzzzzzzzzzzzzzzzzzzzzzzzzzzzzzzzzzzzzzzzzzzzzzzzzzzzzzzzzzzzzzzzzzzzzzzzzzzzzzzzzzzzzzzzzzzzzzzzzzzzzzzzzzzzzzzzzzzzzzzzzzzzzzzzzzzzzzzzzzzzzzzzzzzzzzzzzzzzzzzzzzzzzzzzzzzzzzzzzzzz",
"zzzzzzzzzzzzzzzzzzzzzzzzzzzzzzzzzzzzzzzzzzzzzzzzzzzzzzzzzzzzzzzzzzzzzzzzzzzzzzzzzzzzzzzzzzzzzzzzzzzzzzzzzzzzzzzzzzzzzzzzzzzzzzzzzzzzzzzzzzzzzzzzzzzzzzzzzzzzzzzzzzzzzzzzzzzzzzzzzzzzzzzzzzzzzzzzzzzzzzzzzzzzzzzzzzzzzzzzzzzzpppppp222211<<<<44555555666666ssssssffffffbbbbbbkkkkkksfffffss9999666666555555444<<<222111ppppppzzzzzzzzzzzzzzzzzzzzzzzzzzzzzzzzzzzzzzzzzzzzzzzzzzzzzzzzzzzzzzzzzzzzzzzzzzzzzzzzzzzzzzzzzzzzzzzzzzzzzzzzzzzzzzzzzzzzzzzzzzzzzzzzzzzzzzzzzzzzzzzzzzzzzzzzzzzzzzzzzzzzzzzzzzzzzzzzzzzzzzzzzzzzzzzzzzzz",
"zzzzzzzzzzzzzzzzzzzzzzzzzzzzzzzzzzzzzzzzzzzzzzzzzzzzzzzzzzzzzzzzzzzzzzzzzzzzzzzzzzzzzzzzzzzzzzzzzzzzzzzzzzzzzzzzzzzzzzzzzzzzzzzzzzzzzzzzzzzzzzzzzzzzzzzzzzzzzzzzzzzzzzzzzzzzzzzzzzzzzzzzzzzzzzzzzzzzzzzzzzzzzzzzzzzzzzzzzzzz111111333333668866555555hhhh99ffffffbbvvbbmmmmmmkkkkkkffffffssssssss9h99555555666666333333iiiiiizzzzzzzzzzzzzzzzzzzzzzzzzzzzzzzzzzzzzzzzzzzzzzzzzzzzzzzzzzzzzzzzzzzzzzzzzzzzzzzzzzzzzzzzzzzzzzzzzzzzzzzzzzzzzzzzzzzzzzzzzzzzzzzzzzzzzzzzzzzzzzzzzzzzzzzzzzzzzzzzzzzzzzzzzzzzzzzzzzzzzzzzzzzzzzzzzzzz",
"zzzzzzzzzzzzzzzzzzzzzzzzzzzzzzzzzzzzzzzzzzzzzzzzzzzzzzzzzzzzzzzzzzzzzzzzzzzzzzzzzzzzzzzzzzzzzzzzzzzzzzzzzzzzzzzzzzzzzzzzzzzzzzzzzzzzzzzzzzzzzzzzzzzzzzzzzzzzzzzzzzzzzzzzzzzzzzzzzzzzzzzzzzzzzzzzzzzzzzzzzzzzzzzzzzzzzzzzzzzz111111333333666866555555hhhh99ffffffbvvvbbmmmmmmkkkkkkffffffssssffssss99555555666666333333iiiiiizzzzzzzzzzzzzzzzzzzzzzzzzzzzzzzzzzzzzzzzzzzzzzzzzzzzzzzzzzzzzzzzzzzzzzzzzzzzzzzzzzzzzzzzzzzzzzzzzzzzzzzzzzzzzzzzzzzzzzzzzzzzzzzzzzzzzzzzzzzzzzzzzzzzzzzzzzzzzzzzzzzzzzzzzzzzzzzzzzzzzzzzzzzzzzzzzzzz",
"zzzzzzzzzzzzzzzzzzzzzzzzzzzzzzzzzzzzzzzzzzzzzzzzzzzzzzzzzzzzzzzzzzzzzzzzzzzzzzzzzzzzzzzzzzzzzzzzzzzzzzzzzzzzzzzzzzzzzzzzzzzzzzzzzzzzzzzzzzzzzzzzzzzzzzzzzzzzzzzzzzzzzzzzzzzzzzzzzzzzzzzzzzzzzzzzzzzzzzzzzzzzzzzzzzzzzzzzzzzz111111333333666666555555hhhh99ffffffvvvvbvmmmmmmkkkkkkkfffffssfssssss999555555666666333333iiiiiizzzzzzzzzzzzzzzzzzzzzzzzzzzzzzzzzzzzzzzzzzzzzzzzzzzzzzzzzzzzzzzzzzzzzzzzzzzzzzzzzzzzzzzzzzzzzzzzzzzzzzzzzzzzzzzzzzzzzzzzzzzzzzzzzzzzzzzzzzzzzzzzzzzzzzzzzzzzzzzzzzzzzzzzzzzzzzzzzzzzzzzzzzzzzzzzzzzz",
"zzzzzzzzzzzzzzzzzzzzzzzzzzzzzzzzzzzzzzzzzzzzzzzzzzzzzzzzzzzzzzzzzzzzzzzzzzzzzzzzzzzzzzzzzzzzzzzzzzzzzzzzzzzzzzzzzzzzzzzzzzzzzzzzzzzzzzzzzzzzzzzzzzzzzzzzzzzzzzzzzzzzzzzzzzzzzzzzzzzzzzzzzzzzzzzzzzzzzzzzzzzzzzzzzzzzzzzzzzzz111111333333666666555555hhhh99ffffffvbvvvvmmmmmmkkkkkkkkfffffsffsshhs999555555666666333333iiiiiizzzzzzzzzzzzzzzzzzzzzzzzzzzzzzzzzzzzzzzzzzzzzzzzzzzzzzzzzzzzzzzzzzzzzzzzzzzzzzzzzzzzzzzzzzzzzzzzzzzzzzzzzzzzzzzzzzzzzzzzzzzzzzzzzzzzzzzzzzzzzzzzzzzzzzzzzzzzzzzzzzzzzzzzzzzzzzzzzzzzzzzzzzzzzzzzzzzz",
"zzzzzzzzzzzzzzzzzzzzzzzzzzzzzzzzzzzzzzzzzzzzzzzzzzzzzzzzzzzzzzzzzzzzzzzzzzzzzzzzzzzzzzzzzzzzzzzzzzzzzzzzzzzzzzzzzzzzzzzzzzzzzzzzzzzzzzzzzzzzzzzzzzzzzzzzzzzzzzzzzzzzzzzzzzzzzzzzzzzzzzzzzzzzzzzzzzzzzzzzzzzzzzzzzzzzzzzzzzzz111111333333666666555555hh9999ffffffbbbbvbmmmmmmkkkkkkkkffffffffss999999555555666666333333iiiiiizzzzzzzzzzzzzzzzzzzzzzzzzzzzzzzzzzzzzzzzzzzzzzzzzzzzzzzzzzzzzzzzzzzzzzzzzzzzzzzzzzzzzzzzzzzzzzzzzzzzzzzzzzzzzzzzzzzzzzzzzzzzzzzzzzzzzzzzzzzzzzzzzzzzzzzzzzzzzzzzzzzzzzzzzzzzzzzzzzzzzzzzzzzzzzzzzzzz",
"zzzzzzzzzzzzzzzzzzzzzzzzzzzzzzzzzzzzzzzzzzzzzzzzzzzzzzzzzzzzzzzzzzzzzzzzzzzzzzzzzzzzzzzzzzzzzzzzzzzzzzzzzzzzzzzzzzzzzzzzzzzzzzzzzzzzzzzzzzzzzzzzzzzzzzzzzzzzzzzzzzzzzzzzzzzzzzzzzzzzzzzzzzzzzzzzzzzzzzzzzzzzzzzzzzzzzzzzzzzz111111333333666666555555h99999ffffffbbbbbbmmmmmmkkkkkkkkffffffffss999999555555666666333333iiiiiizzzzzzzzzzzzzzzzzzzzzzzzzzzzzzzzzzzzzzzzzzzzzzzzzzzzzzzzzzzzzzzzzzzzzzzzzzzzzzzzzzzzzzzzzzzzzzzzzzzzzzzzzzzzzzzzzzzzzzzzzzzzzzzzzzzzzzzzzzzzzzzzzzzzzzzzzzzzzzzzzzzzzzzzzzzzzzzzzzzzzzzzzzzzzzzzzzzz",
"zzzzzzzzzzzzzzzzzzzzzzzzzzzzzzzzzzzzzzzzzzzzzzzzzzzzzzzzzzzzzzzzzzzzzzzzzzzzzzzzzzzzzzzzzzzzzzzzzzzzzzzzzzzzzzzzzzzzzzzzzzzzzzzzzzzzzzzzzzzzzzzzzzzzzzzzzzzzzzzzzzzzzzzzzzzzzzzzzzzzzzzzzzzzzzzzzzzzzzzzzziiiiiiiiiiii222111775555333333666688sh9999ssshhhffffffmmmmmmNNNVVVmmmmmmkkkkkkffsssfss9999999999666666555555111111111111iiiiiizzzzzzzzzzzzzzzzzzzzzzzzzzzzzzzzzzzzzzzzzzzzzzzzzzzzzzzzzzzzzzzzzzzzzzzzzzzzzzzzzzzzzzzzzzzzzzzzzzzzzzzzzzzzzzzzzzzzzzzzzzzzzzzzzzzzzzzzzzzzzzzzzzzzzzzzzzzzzzzzzzzzzzzzzzzzzzzzzzzzzzzz",
"zzzzzzzzzzzzzzzzzzzzzzzzzzzzzzzzzzzzzzzzzzzzzzzzzzzzzzzzzzzzzzzzzzzzzzzzzzzzzzzzzzzzzzzzzzzzzzzzzzzzzzzzzzzzzzzzzzzzzzzzzzzzzzzzzzzzzzzzzzzzzzzzzzzzzzzzzzzzzzzzzzzzzzzzzzzzzzzzzzzzzzzzzzzzzzzzzzzzzzzzzziiiiiiiiiiii222211575555333333666688s99999ssss99ffffffmmmmmmNNNVVVmmmmmmkkkvkkffsssfssss9999s9hh666666555555111111111111iiiiiizzzzzzzzzzzzzzzzzzzzzzzzzzzzzzzzzzzzzzzzzzzzzzzzzzzzzzzzzzzzzzzzzzzzzzzzzzzzzzzzzzzzzzzzzzzzzzzzzzzzzzzzzzzzzzzzzzzzzzzzzzzzzzzzzzzzzzzzzzzzzzzzzzzzzzzzzzzzzzzzzzzzzzzzzzzzzzzzzzzzzzzz",
"zzzzzzzzzzzzzzzzzzzzzzzzzzzzzzzzzzzzzzzzzzzzzzzzzzzzzzzzzzzzzzzzzzzzzzzzzzzzzzzzzzzzzzzzzzzzzzzzzzzzzzzzzzzzzzzzzzzzzzzzzzzzzzzzzzzzzzzzzzzzzzzzzzzzzzzzzzzzzzzzzzzzzzzzzzzzzzzzzzzzzzzzzzzzzzzzzzzzzzzzzziiiiiiiiiiii22222255555533333366668899ss999h9999ffffffmmmmmmNNVVVVmmmmmmkkkkkkffsssshsshh99hssss666666555555111111111111iiiiiizzzzzzzzzzzzzzzzzzzzzzzzzzzzzzzzzzzzzzzzzzzzzzzzzzzzzzzzzzzzzzzzzzzzzzzzzzzzzzzzzzzzzzzzzzzzzzzzzzzzzzzzzzzzzzzzzzzzzzzzzzzzzzzzzzzzzzzzzzzzzzzzzzzzzzzzzzzzzzzzzzzzzzzzzzzzzzzzzzzzzzzz",
"zzzzzzzzzzzzzzzzzzzzzzzzzzzzzzzzzzzzzzzzzzzzzzzzzzzzzzzzzzzzzzzzzzzzzzzzzzzzzzzzzzzzzzzzzzzzzzzzzzzzzzzzzzzzzzzzzzzzzzzzzzzzzzzzzzzzzzzzzzzzzzzzzzzzzzzzzzzzzzzzzzzzzzzzzzzzzzzzzzzzzzzzzzzzzzzzzzzzzzzzzziiiiiiiiiiii22222255555533333366666699sh99999999ffffffmmmmmmNNVVVVmmmmmmkkkkkkffssssh9ss999hhsss866666555555111111111111iiiiiizzzzzzzzzzzzzzzzzzzzzzzzzzzzzzzzzzzzzzzzzzzzzzzzzzzzzzzzzzzzzzzzzzzzzzzzzzzzzzzzzzzzzzzzzzzzzzzzzzzzzzzzzzzzzzzzzzzzzzzzzzzzzzzzzzzzzzzzzzzzzzzzzzzzzzzzzzzzzzzzzzzzzzzzzzzzzzzzzzzzzzzz",
"zzzzzzzzzzzzzzzzzzzzzzzzzzzzzzzzzzzzzzzzzzzzzzzzzzzzzzzzzzzzzzzzzzzzzzzzzzzzzzzzzzzzzzzzzzzzzzzzzzzzzzzzzzzzzzzzzzzzzzzzzzzzzzzzzzzzzzzzzzzzzzzzzzzzzzzzzzzzzzzzzzzzzzzzzzzzzzzzzzzzzzzzzzzzzzzzzzzzzzzzzziiiiiiiiiiii11112255555533333366666699ss99999999ffffffmmmmmmVVVVVVmmmmmmkkkkkkffssss999999999999666666555555111111111111iiiiiizzzzzzzzzzzzzzzzzzzzzzzzzzzzzzzzzzzzzzzzzzzzzzzzzzzzzzzzzzzzzzzzzzzzzzzzzzzzzzzzzzzzzzzzzzzzzzzzzzzzzzzzzzzzzzzzzzzzzzzzzzzzzzzzzzzzzzzzzzzzzzzzzzzzzzzzzzzzzzzzzzzzzzzzzzzzzzzzzzzzzzzz",
"zzzzzzzzzzzzzzzzzzzzzzzzzzzzzzzzzzzzzzzzzzzzzzzzzzzzzzzzzzzzzzzzzzzzzzzzzzzzzzzzzzzzzzzzzzzzzzzzzzzzzzzzzzzzzzzzzzzzzzzzzzzzzzzzzzzzzzzzzzzzzzzzzzzzzzzzzzzzzzzzzzzzzzzzzzzzzzzzzzzzzzzzzzzzzzzzzzzzzzzzzziiiiiiiiiiii11112255555533333366666699hs99h99h99ffffffmmmmmmVVNNVVmmmmmmkkkkkkffssss999999999999666666555555111111111111iiiiiizzzzzzzzzzzzzzzzzzzzzzzzzzzzzzzzzzzzzzzzzzzzzzzzzzzzzzzzzzzzzzzzzzzzzzzzzzzzzzzzzzzzzzzzzzzzzzzzzzzzzzzzzzzzzzzzzzzzzzzzzzzzzzzzzzzzzzzzzzzzzzzzzzzzzzzzzzzzzzzzzzzzzzzzzzzzzzzzzzzzzzzz",
"zzzzzzzzzzzzzzzzzzzzzzzzzzzzzzzzzzzzzzzzzzzzzzzzzzzzzzzzzzzzzzzzzzzzzzzzzzzzzzzzzzzzzzzzzzzzzzzzzzzzzzzzzzzzzzzzzzzzzzzzzzzzzzzzzzzzzzzzzzzzzzzzzzzzzzzzzzzzzzzzzzzzzzzzzzzzzzzzzzzzzzzzzzzzzzddddddiiiiii111111112222333333333333555555555555666666fffsssccccccmmmmmmBBBBBBVNNNVVvvvvvvffffffffssss88666655555555555555555566666622111244<<<<zzzzzzzzzzzzzzzzzzzzzzzzzzzzzzzzzzzzzzzzzzzzzzzzzzzzzzzzzzzzzzzzzzzzzzzzzzzzzzzzzzzzzzzzzzzzzzzzzzzzzzzzzzzzzzzzzzzzzzzzzzzzzzzzzzzzzzzzzzzzzzzzzzzzzzzzzzzzzzzzzzzzzzzzzzzzzzzzzz",
"zzzzzzzzzzzzzzzzzzzzzzzzzzzzzzzzzzzzzzzzzzzzzzzzzzzzzzzzzzzzzzzzzzzzzzzzzzzzzzzzzzzzzzzzzzzzzzzzzzzzzzzzzzzzzzzzzzzzzzzzzzzzzzzzzzzzzzzzzzzzzzzzzzzzzzzzzzzzzzzzzzzzzzzzzzzzzzzzzzzzzzzzzzzzzzddddddiiiiii111111212222333333333333555555555555666666ffssssccccccmmmmmmBBBBBBNNNNVVvvvvvvfffffffffssf88866655555555555555555566666622111144<<<<zzzzzzzzzzzzzzzzzzzzzzzzzzzzzzzzzzzzzzzzzzzzzzzzzzzzzzzzzzzzzzzzzzzzzzzzzzzzzzzzzzzzzzzzzzzzzzzzzzzzzzzzzzzzzzzzzzzzzzzzzzzzzzzzzzzzzzzzzzzzzzzzzzzzzzzzzzzzzzzzzzzzzzzzzzzzzzzzzz",
"zzzzzzzzzzzzzzzzzzzzzzzzzzzzzzzzzzzzzzzzzzzzzzzzzzzzzzzzzzzzzzzzzzzzzzzzzzzzzzzzzzzzzzzzzzzzzzzzzzzzzzzzzzzzzzzzzzzzzzzzzzzzzzzzzzzzzzzzzzzzzzzzzzzzzzzzzzzzzzzzzzzzzzzzzzzzzzzzzzzzzzzzzzzzzzddddddiiiiii111111222222333333333333555555555555666666ffffssccccccmmmmmmBBVVBBVVVVVVvvvvkkffffffffffff66666655555555555555555566666622112244<<<4zzzzzzzzzzzzzzzzzzzzzzzzzzzzzzzzzzzzzzzzzzzzzzzzzzzzzzzzzzzzzzzzzzzzzzzzzzzzzzzzzzzzzzzzzzzzzzzzzzzzzzzzzzzzzzzzzzzzzzzzzzzzzzzzzzzzzzzzzzzzzzzzzzzzzzzzzzzzzzzzzzzzzzzzzzzzzzzzzz",
"zzzzzzzzzzzzzzzzzzzzzzzzzzzzzzzzzzzzzzzzzzzzzzzzzzzzzzzzzzzzzzzzzzzzzzzzzzzzzzzzzzzzzzzzzzzzzzzzzzzzzzzzzzzzzzzzzzzzzzzzzzzzzzzzzzzzzzzzzzzzzzzzzzzzzzzzzzzzzzzzzzzzzzzzzzzzzzzzzzzzzzzzzzzzzzddddddiiiiii111111222222333333333333555555555555666666ffffssccccccmmmmmmBBVBBBVVVVVVvvvvkkffffffffffsf666666555555555555555555666666211122<4<<44zzzzzzzzzzzzzzzzzzzzzzzzzzzzzzzzzzzzzzzzzzzzzzzzzzzzzzzzzzzzzzzzzzzzzzzzzzzzzzzzzzzzzzzzzzzzzzzzzzzzzzzzzzzzzzzzzzzzzzzzzzzzzzzzzzzzzzzzzzzzzzzzzzzzzzzzzzzzzzzzzzzzzzzzzzzzzzzzzz",
"zzzzzzzzzzzzzzzzzzzzzzzzzzzzzzzzzzzzzzzzzzzzzzzzzzzzzzzzzzzzzzzzzzzzzzzzzzzzzzzzzzzzzzzzzzzzzzzzzzzzzzzzzzzzzzzzzzzzzzzzzzzzzzzzzzzzzzzzzzzzzzzzzzzzzzzzzzzzzzzzzzzzzzzzzzzzzzzzzzzzzzzzzzzzzzddddddiiiiii111111122222334433333333555555555555666866fsffffccccccmmmmmmBBVVBBVVVVVVvvvvkkffffffffssss666666555555555555555555666666111122<<<<<4zzzzzzzzzzzzzzzzzzzzzzzzzzzzzzzzzzzzzzzzzzzzzzzzzzzzzzzzzzzzzzzzzzzzzzzzzzzzzzzzzzzzzzzzzzzzzzzzzzzzzzzzzzzzzzzzzzzzzzzzzzzzzzzzzzzzzzzzzzzzzzzzzzzzzzzzzzzzzzzzzzzzzzzzzzzzzzzzzz",
"zzzzzzzzzzzzzzzzzzzzzzzzzzzzzzzzzzzzzzzzzzzzzzzzzzzzzzzzzzzzzzzzzzzzzzzzzzzzzzzzzzzzzzzzzzzzzzzzzzzzzzzzzzzzzzzzzzzzzzzzzzzzzzzzzzzzzzzzzzzzzzzzzzzzzzzzzzzzzzzzzzzzzzzzzzzzzzzzzzzzzzzzzzzzzzddddddiiiiii111111122222334433333333555555555555666866ssffffccccccmmmmmmBBVVBBVVVVVVvvvkkkffffffffssss666666555555555555555555666666111122<<<<<4zzzzzzzzzzzzzzzzzzzzzzzzzzzzzzzzzzzzzzzzzzzzzzzzzzzzzzzzzzzzzzzzzzzzzzzzzzzzzzzzzzzzzzzzzzzzzzzzzzzzzzzzzzzzzzzzzzzzzzzzzzzzzzzzzzzzzzzzzzzzzzzzzzzzzzzzzzzzzzzzzzzzzzzzzzzzzzzzzz",
"zzzzzzzzzzzzzzzzzzzzzzzzzzzzzzzzzzzzzzzzzzzzzzzzzzzzzzzzzzzzzzzzzzzzzzzzzzzzzzzzzzzzzzzzzzzzzzzzzzzzzzzzzzzzzzzzzzzzzzzzzzzzzzzzzzzzzzzzzzzzzzzzzzzzzzzzzzzzzzzzzzzzzzzzzzzzzzzzzzzzzzzzzzzzzziiiiii111111333333553333555555555555775555555555666666ffffffvvvvvvNNNNNNBBBBBBBBBBBBmmmmmmcccvvvffffkf888888555555555555777777555555555555333333666666zzzzzzzzzzzzzzzzzzzzzzzzzzzzzzzzzzzzzzzzzzzzzzzzzzzzzzzzzzzzzzzzzzzzzzzzzzzzzzzzzzzzzzzzzzzzzzzzzzzzzzzzzzzzzzzzzzzzzzzzzzzzzzzzzzzzzzzzzzzzzzzzzzzzzzzzzzzzzzzzzzzzzzzzzzzz",
"zzzzzzzzzzzzzzzzzzzzzzzzzzzzzzzzzzzzzzzzzzzzzzzzzzzzzzzzzzzzzzzzzzzzzzzzzzzzzzzzzzzzzzzzzzzzzzzzzzzzzzzzzzzzzzzzzzzzzzzzzzzzzzzzzzzzzzzzzzzzzzzzzzzzzzzzzzzzzzzzzzzzzzzzzzzzzzzzzzzzzzzzzzzzzziiiiii111111333333555533555555555555775555555555666686ffffffvvvvvvNNNNNNBZBBBBBBBBBBmmmmmmcccvvvffffcc888888555555555555777777555555555555333333666666zzzzzzzzzzzzzzzzzzzzzzzzzzzzzzzzzzzzzzzzzzzzzzzzzzzzzzzzzzzzzzzzzzzzzzzzzzzzzzzzzzzzzzzzzzzzzzzzzzzzzzzzzzzzzzzzzzzzzzzzzzzzzzzzzzzzzzzzzzzzzzzzzzzzzzzzzzzzzzzzzzzzzzzzzzzz",
"zzzzzzzzzzzzzzzzzzzzzzzzzzzzzzzzzzzzzzzzzzzzzzzzzzzzzzzzzzzzzzzzzzzzzzzzzzzzzzzzzzzzzzzzzzzzzzzzzzzzzzzzzzzzzzzzzzzzzzzzzzzzzzzzzzzzzzzzzzzzzzzzzzzzzzzzzzzzzzzzzzzzzzzzzzzzzzzzzzzzzzzzzzzzzziiiiii111111333333555535555555555555775555555555888688ffffffvvvvvvNNNNNNZZZZBZBBBBBBmmmmmmvvvvvvfffccc866888555555555555777777555555555555333333666666zzzzzzzzzzzzzzzzzzzzzzzzzzzzzzzzzzzzzzzzzzzzzzzzzzzzzzzzzzzzzzzzzzzzzzzzzzzzzzzzzzzzzzzzzzzzzzzzzzzzzzzzzzzzzzzzzzzzzzzzzzzzzzzzzzzzzzzzzzzzzzzzzzzzzzzzzzzzzzzzzzzzzzzzzzzz",
"zzzzzzzzzzzzzzzzzzzzzzzzzzzzzzzzzzzzzzzzzzzzzzzzzzzzzzzzzzzzzzzzzzzzzzzzzzzzzzzzzzzzzzzzzzzzzzzzzzzzzzzzzzzzzzzzzzzzzzzzzzzzzzzzzzzzzzzzzzzzzzzzzzzzzzzzzzzzzzzzzzzzzzzzzzzzzzzzzzzzzzzzzzzzzziiiiii111111333333555533555555555555777555555555888888ffffffvvvvvvNNNNNNZZZZZZBBBBBBmmmmmmvvvvvvfffccc868888555555555555777777555555555555333333666666zzzzzzzzzzzzzzzzzzzzzzzzzzzzzzzzzzzzzzzzzzzzzzzzzzzzzzzzzzzzzzzzzzzzzzzzzzzzzzzzzzzzzzzzzzzzzzzzzzzzzzzzzzzzzzzzzzzzzzzzzzzzzzzzzzzzzzzzzzzzzzzzzzzzzzzzzzzzzzzzzzzzzzzzzzzz",
"zzzzzzzzzzzzzzzzzzzzzzzzzzzzzzzzzzzzzzzzzzzzzzzzzzzzzzzzzzzzzzzzzzzzzzzzzzzzzzzzzzzzzzzzzzzzzzzzzzzzzzzzzzzzzzzzzzzzzzzzzzzzzzzzzzzzzzzzzzzzzzzzzzzzzzzzzzzzzzzzzzzzzzzzzzzzzzzzzzzzzzzzzzzzzziiiiii111111333333555533555555555555555555555555888886ffffffvvvvvvNNNNNNBBBBBBBBBBBBmmmmmmcccvvvffffff888888555555555555777777555555555555333333666668zzzzzzzzzzzzzzzzzzzzzzzzzzzzzzzzzzzzzzzzzzzzzzzzzzzzzzzzzzzzzzzzzzzzzzzzzzzzzzzzzzzzzzzzzzzzzzzzzzzzzzzzzzzzzzzzzzzzzzzzzzzzzzzzzzzzzzzzzzzzzzzzzzzzzzzzzzzzzzzzzzzzzzzzzzzz",
"zzzzzzzzzzzzzzzzzzzzzzzzzzzzzzzzzzzzzzzzzzzzzzzzzzzzzzzzzzzzzzzzzzzzzzzzzzzzzzzzzzzzzzzzzzzzzzzzzzzzzzzzzzzzzzzzzzzzzzzzzzzzzzzzzzzzzzzzzzzzzzzzzzzzzzzzzzzzzzzzzzzzzzzzzzzzzzzzzzzzzzzzzzzzzziiiiii111111333333555533555555555555555575555555888866ffffffvvvvvvNNNNNNBBBBZZBBBBBBmmmmmmccvvvvffffff888888555555555555777777555555555555333333666688zzzzzzzzzzzzzzzzzzzzzzzzzzzzzzzzzzzzzzzzzzzzzzzzzzzzzzzzzzzzzzzzzzzzzzzzzzzzzzzzzzzzzzzzzzzzzzzzzzzzzzzzzzzzzzzzzzzzzzzzzzzzzzzzzzzzzzzzzzzzzzzzzzzzzzzzzzzzzzzzzzzzzzzzzzzz",
"zzzzzzzzzzzzzzzzzzzzzzzzzzzzzzzzzzzzzzzzzzzzzzzzzzzzzzzzzzzzzzzzzzzzzzzzzzzzzzzzzzzzzzzzzzzzzzzzzzzzzzzzzzzzzzzzzzzzzzzzzzzzzzzzzzzzzzzzzzzzzzzzzzzzzzzzzzzzzzzzzzzzzzzzzzzzzzzzzzzzzzzzzzzzzziiiiii111111333333555555777777777777777777ss9999999900ffccccvvvvvvmmmmNmZZCCZZBBBBBBmmmmmmvvvvvvccccccssssssssssss777777555555555555777777555555111111zzzzzzzzzzzzzzzzzzzzzzzzzzzzzzzzzzzzzzzzzzzzzzzzzzzzzzzzzzzzzzzzzzzzzzzzzzzzzzzzzzzzzzzzzzzzzzzzzzzzzzzzzzzzzzzzzzzzzzzzzzzzzzzzzzzzzzzzzzzzzzzzzzzzzzzzzzzzzzzzzzzzzzzzzzzz",
"zzzzzzzzzzzzzzzzzzzzzzzzzzzzzzzzzzzzzzzzzzzzzzzzzzzzzzzzzzzzzzzzzzzzzzzzzzzzzzzzzzzzzzzzzzzzzzzzzzzzzzzzzzzzzzzzzzzzzzzzzzzzzzzzzzzzzzzzzzzzzzzzzzzzzzzzzzzzzzzzzzzzzzzzzzzzzzzzzzzzzzzzzzzzzziiiiii111111333333555555777777777777777777sh9999999900fcccccvvvvvvmmmmNNZZZCCCBBBBBBmmmmmmvvvvvvccccccssssssssssss777777555555555555777777555555111111zzzzzzzzzzzzzzzzzzzzzzzzzzzzzzzzzzzzzzzzzzzzzzzzzzzzzzzzzzzzzzzzzzzzzzzzzzzzzzzzzzzzzzzzzzzzzzzzzzzzzzzzzzzzzzzzzzzzzzzzzzzzzzzzzzzzzzzzzzzzzzzzzzzzzzzzzzzzzzzzzzzzzzzzzzzz",
"zzzzzzzzzzzzzzzzzzzzzzzzzzzzzzzzzzzzzzzzzzzzzzzzzzzzzzzzzzzzzzzzzzzzzzzzzzzzzzzzzzzzzzzzzzzzzzzzzzzzzzzzzzzzzzzzzzzzzzzzzzzzzzzzzzzzzzzzzzzzzzzzzzzzzzzzzzzzzzzzzzzzzzzzzzzzzzzzzzzzzzzzzzzzzziiiiii111111333333555555777777777777777777999999009900ffccffvvvvvvNNNmmmZZZZZZBBBBBBmmmmmmvvvvvvccccccssssssssssss777777555555555555777777555533111111zzzzzzzzzzzzzzzzzzzzzzzzzzzzzzzzzzzzzzzzzzzzzzzzzzzzzzzzzzzzzzzzzzzzzzzzzzzzzzzzzzzzzzzzzzzzzzzzzzzzzzzzzzzzzzzzzzzzzzzzzzzzzzzzzzzzzzzzzzzzzzzzzzzzzzzzzzzzzzzzzzzzzzzzzzzz",
"zzzzzzzzzzzzzzzzzzzzzzzzzzzzzzzzzzzzzzzzzzzzzzzzzzzzzzzzzzzzzzzzzzzzzzzzzzzzzzzzzzzzzzzzzzzzzzzzzzzzzzzzzzzzzzzzzzzzzzzzzzzzzzzzzzzzzzzzzzzzzzzzzzzzzzzzzzzzzzzzzzzzzzzzzzzzzzzzzzzzzzzzzzzzzziiiiii1111113333335555557777777777777777779999h9009900ffccffvvvvvvNNmmmmZZZZZZBBBBBBmmmmmmvvvvvvccccccssssssssssss777777555555555555777777555533111111zzzzzzzzzzzzzzzzzzzzzzzzzzzzzzzzzzzzzzzzzzzzzzzzzzzzzzzzzzzzzzzzzzzzzzzzzzzzzzzzzzzzzzzzzzzzzzzzzzzzzzzzzzzzzzzzzzzzzzzzzzzzzzzzzzzzzzzzzzzzzzzzzzzzzzzzzzzzzzzzzzzzzzzzzzzz",
"zzzzzzzzzzzzzzzzzzzzzzzzzzzzzzzzzzzzzzzzzzzzzzzzzzzzzzzzzzzzzzzzzzzzzzzzzzzzzzzzzzzzzzzzzzzzzzzzzzzzzzzzzzzzzzzzzzzzzzzzzzzzzzzzzzzzzzzzzzzzzzzzzzzzzzzzzzzzzzzzzzzzzzzzzzzzzzzzzzzzzzzzzzzzzziiiiii111111333333555555777777777777777777h9ssss009990ffccffvvvvvvNNNNmmZZZZZZBBBBBBmmmmmmvvvvvvccccccssssssssssss777777555555555555777777555533111111zzzzzzzzzzzzzzzzzzzzzzzzzzzzzzzzzzzzzzzzzzzzzzzzzzzzzzzzzzzzzzzzzzzzzzzzzzzzzzzzzzzzzzzzzzzzzzzzzzzzzzzzzzzzzzzzzzzzzzzzzzzzzzzzzzzzzzzzzzzzzzzzzzzzzzzzzzzzzzzzzzzzzzzzzzzz",
"zzzzzzzzzzzzzzzzzzzzzzzzzzzzzzzzzzzzzzzzzzzzzzzzzzzzzzzzzzzzzzzzzzzzzzzzzzzzzzzzzzzzzzzzzzzzzzzzzzzzzzzzzzzzzzzzzzzzzzzzzzzzzzzzzzzzzzzzzzzzzzzzzzzzzzzzzzzzzzzzzzzzzzzzzzzzzzzzzzzzzzzzzzzzzziiiiii111111333333555555777777777777777777hsshhh999999ffccffvvvvvvNNNNNmZZZZZZBBBBBBmmmmmmvvvvvvccccccssssssssssss777777555555555555777777555533111111zzzzzzzzzzzzzzzzzzzzzzzzzzzzzzzzzzzzzzzzzzzzzzzzzzzzzzzzzzzzzzzzzzzzzzzzzzzzzzzzzzzzzzzzzzzzzzzzzzzzzzzzzzzzzzzzzzzzzzzzzzzzzzzzzzzzzzzzzzzzzzzzzzzzzzzzzzzzzzzzzzzzzzzzzzzz",
"zzzzzzzzzzzzzzzzzzzzzzzzzzzzzzzzzzzzzzzzzzzzzzzzzzzzzzzzzzzzzzzzzzzzzzzzzzzzzzzzzzzzzzzzzzzzzzzzzzzzzzzzzzzzzzzzzzzzzzzzzzzzzzzzzzzzzzzzzzzzzzzzzzzzzzzzzzzzzzzzzzzzzzzzzzzzzzzzzzzzzzzzddddddpppppp555555555555333333777777667766777777666666ffffffvvccccbvvvvvVVNNNNCCCCCCZZZZBBmmmmmNbbbbbbbbbbbbvvvvvvssssss777777888888775577555555555555111112zzzzzzzzzzzzzzzzzzzzzzzzzzzzzzzzzzzzzzzzzzzzzzzzzzzzzzzzzzzzzzzzzzzzzzzzzzzzzzzzzzzzzzzzzzzzzzzzzzzzzzzzzzzzzzzzzzzzzzzzzzzzzzzzzzzzzzzzzzzzzzzzzzzzzzzzzzzzzzzzzzzzzzzzzzzz",
"zzzzzzzzzzzzzzzzzzzzzzzzzzzzzzzzzzzzzzzzzzzzzzzzzzzzzzzzzzzzzzzzzzzzzzzzzzzzzzzzzzzzzzzzzzzzzzzzzzzzzzzzzzzzzzzzzzzzzzzzzzzzzzzzzzzzzzzzzzzzzzzzzzzzzzzzzzzzzzzzzzzzzzzzzzzzzzzzzzzzzzzzddddddpppppp555555555555333333777777667766775577666666ffffffvvvcccbbvvvvVVNNNNCCCCCCZZZBBBmmmmmNbbbbbbbbbbbbvvvvvvssssss777777888888775577555555555555111112zzzzzzzzzzzzzzzzzzzzzzzzzzzzzzzzzzzzzzzzzzzzzzzzzzzzzzzzzzzzzzzzzzzzzzzzzzzzzzzzzzzzzzzzzzzzzzzzzzzzzzzzzzzzzzzzzzzzzzzzzzzzzzzzzzzzzzzzzzzzzzzzzzzzzzzzzzzzzzzzzzzzzzzzzzzz",
"zzzzzzzzzzzzzzzzzzzzzzzzzzzzzzzzzzzzzzzzzzzzzzzzzzzzzzzzzzzzzzzzzzzzzzzzzzzzzzzzzzzzzzzzzzzzzzzzzzzzzzzzzzzzzzzzzzzzzzzzzzzzzzzzzzzzzzzzzzzzzzzzzzzzzzzzzzzzzzzzzzzzzzzzzzzzzzzzzzzzzzzzddddddpppppp555555555555333333777777677777775775666666ffffffvvcccvbbvvvvNNNNNNCCCCCCZZBBZZmmmmmmbbbbbbbbbbbbvvvvvvssssss777777888886777577555555555555221122zzzzzzzzzzzzzzzzzzzzzzzzzzzzzzzzzzzzzzzzzzzzzzzzzzzzzzzzzzzzzzzzzzzzzzzzzzzzzzzzzzzzzzzzzzzzzzzzzzzzzzzzzzzzzzzzzzzzzzzzzzzzzzzzzzzzzzzzzzzzzzzzzzzzzzzzzzzzzzzzzzzzzzzzzzzz",
"zzzzzzzzzzzzzzzzzzzzzzzzzzzzzzzzzzzzzzzzzzzzzzzzzzzzzzzzzzzzzzzzzzzzzzzzzzzzzzzzzzzzzzzzzzzzzzzzzzzzzzzzzzzzzzzzzzzzzzzzzzzzzzzzzzzzzzzzzzzzzzzzzzzzzzzzzzzzzzzzzzzzzzzzzzzzzzzzzzzzzzzzddddddpppppp555555555555333333777777667777775575666666ffffffccccccbbvvvvNNNNNNCCZCCCZZBBZZmmmmmmbbbbbbbbbbbbvvvvvvssssss777777888886777777555555555555121122zzzzzzzzzzzzzzzzzzzzzzzzzzzzzzzzzzzzzzzzzzzzzzzzzzzzzzzzzzzzzzzzzzzzzzzzzzzzzzzzzzzzzzzzzzzzzzzzzzzzzzzzzzzzzzzzzzzzzzzzzzzzzzzzzzzzzzzzzzzzzzzzzzzzzzzzzzzzzzzzzzzzzzzzzzzz",
"zzzzzzzzzzzzzzzzzzzzzzzzzzzzzzzzzzzzzzzzzzzzzzzzzzzzzzzzzzzzzzzzzzzzzzzzzzzzzzzzzzzzzzzzzzzzzzzzzzzzzzzzzzzzzzzzzzzzzzzzzzzzzzzzzzzzzzzzzzzzzzzzzzzzzzzzzzzzzzzzzzzzzzzzzzzzzzzzzzzzzzzzddddddpppppp555555555555333333777777776677777755666666ffffffccccvvvvvvvvNNNNNNCCZZZZBBBBZZmmmmNmbbbbbbbbbbbbvvvvvvssssss777777888886777777555555553335221122zzzzzzzzzzzzzzzzzzzzzzzzzzzzzzzzzzzzzzzzzzzzzzzzzzzzzzzzzzzzzzzzzzzzzzzzzzzzzzzzzzzzzzzzzzzzzzzzzzzzzzzzzzzzzzzzzzzzzzzzzzzzzzzzzzzzzzzzzzzzzzzzzzzzzzzzzzzzzzzzzzzzzzzzzzzz",
"zzzzzzzzzzzzzzzzzzzzzzzzzzzzzzzzzzzzzzzzzzzzzzzzzzzzzzzzzzzzzzzzzzzzzzzzzzzzzzzzzzzzzzzzzzzzzzzzzzzzzzzzzzzzzzzzzzzzzzzzzzzzzzzzzzzzzzzzzzzzzzzzzzzzzzzzzzzzzzzzzzzzzzzzzzzzzzzzzzzzzzzzddddddpppppp555555555555333333777777777677775555666666ffffffccccvvbvvvvvNNNNNNCCZZZZBBBBZZmmmmNNbbbbbbbbbbbbvvvvvvssssss777777888886777777555555553555221122zzzzzzzzzzzzzzzzzzzzzzzzzzzzzzzzzzzzzzzzzzzzzzzzzzzzzzzzzzzzzzzzzzzzzzzzzzzzzzzzzzzzzzzzzzzzzzzzzzzzzzzzzzzzzzzzzzzzzzzzzzzzzzzzzzzzzzzzzzzzzzzzzzzzzzzzzzzzzzzzzzzzzzzzzzzz",
"zzzzzzzzzzzzzzzzzzzzzzzzzzzzzzzzzzzzzzzzzzzzzzzzzzzzzzzzzzzzzzzzzzzzzzzzzzzzzzzzzzzzzzzzzzzzzzzzzzzzzzzzzzzzzzzzzzzzzzzzzzzzzzzzzzzzzzzzzzzzzzzzzzzzzzzzzzzzzzzzzzzzzzzzzzzzzzzzzzzzzzzzzzzzzziiiiii553355333333333333775755666666888668999999ccccccbbbbbbbbbbbbVVVVVVCCCCCCZZZZZZVVVVVVNNNNmmNNNNNNmmmmmmcccccc9999sssshhss000000777777555555553333ppppppzzzzzzzzzzzzzzzzzzzzzzzzzzzzzzzzzzzzzzzzzzzzzzzzzzzzzzzzzzzzzzzzzzzzzzzzzzzzzzzzzzzzzzzzzzzzzzzzzzzzzzzzzzzzzzzzzzzzzzzzzzzzzzzzzzzzzzzzzzzzzzzzzzzzzzzzzzzzzzzzzzzzzz",
"zzzzzzzzzzzzzzzzzzzzzzzzzzzzzzzzzzzzzzzzzzzzzzzzzzzzzzzzzzzzzzzzzzzzzzzzzzzzzzzzzzzzzzzzzzzzzzzzzzzzzzzzzzzzzzzzzzzzzzzzzzzzzzzzzzzzzzzzzzzzzzzzzzzzzzzzzzzzzzzzzzzzzzzzzzzzzzzzzzzzzzzzzzzzzziiiiii553555333333333333775555666666888866999999ccccccbbbbbbbbbbbbVVVVVVCCCCCCZZZZZZVVVVVVNNNNmmNNNNNNmNNNmmcccccc99hhsssshhhs000000777777555555553333ppppppzzzzzzzzzzzzzzzzzzzzzzzzzzzzzzzzzzzzzzzzzzzzzzzzzzzzzzzzzzzzzzzzzzzzzzzzzzzzzzzzzzzzzzzzzzzzzzzzzzzzzzzzzzzzzzzzzzzzzzzzzzzzzzzzzzzzzzzzzzzzzzzzzzzzzzzzzzzzzzzzzzzzzz",
"zzzzzzzzzzzzzzzzzzzzzzzzzzzzzzzzzzzzzzzzzzzzzzzzzzzzzzzzzzzzzzzzzzzzzzzzzzzzzzzzzzzzzzzzzzzzzzzzzzzzzzzzzzzzzzzzzzzzzzzzzzzzzzzzzzzzzzzzzzzzzzzzzzzzzzzzzzzzzzzzzzzzzzzzzzzzzzzzzzzzzzzzzzzzzziiiiii555555333333333333555555666666668888999999ccccccbbbbbbbbbbbbVVVVVVCCCCCCZZZZZZVVVVVVNmmmNNNNNNNNmmmmmmcccccchhhh99ssshh9000000777777533355553555ppppppzzzzzzzzzzzzzzzzzzzzzzzzzzzzzzzzzzzzzzzzzzzzzzzzzzzzzzzzzzzzzzzzzzzzzzzzzzzzzzzzzzzzzzzzzzzzzzzzzzzzzzzzzzzzzzzzzzzzzzzzzzzzzzzzzzzzzzzzzzzzzzzzzzzzzzzzzzzzzzzzzzzzzz",
"zzzzzzzzzzzzzzzzzzzzzzzzzzzzzzzzzzzzzzzzzzzzzzzzzzzzzzzzzzzzzzzzzzzzzzzzzzzzzzzzzzzzzzzzzzzzzzzzzzzzzzzzzzzzzzzzzzzzzzzzzzzzzzzzzzzzzzzzzzzzzzzzzzzzzzzzzzzzzzzzzzzzzzzzzzzzzzzzzzzzzzzzzzzzzziiiiii555555333333333333555555666666668888999999ccccccbbbbbbbbbbbbVVVVVVCCCCCCZZZZZZVVVVVVNmmmNNNNNNNNmNmmmmcccccc9hhh99shss99000000777777553555555555ppppppzzzzzzzzzzzzzzzzzzzzzzzzzzzzzzzzzzzzzzzzzzzzzzzzzzzzzzzzzzzzzzzzzzzzzzzzzzzzzzzzzzzzzzzzzzzzzzzzzzzzzzzzzzzzzzzzzzzzzzzzzzzzzzzzzzzzzzzzzzzzzzzzzzzzzzzzzzzzzzzzzzzzzz",
"zzzzzzzzzzzzzzzzzzzzzzzzzzzzzzzzzzzzzzzzzzzzzzzzzzzzzzzzzzzzzzzzzzzzzzzzzzzzzzzzzzzzzzzzzzzzzzzzzzzzzzzzzzzzzzzzzzzzzzzzzzzzzzzzzzzzzzzzzzzzzzzzzzzzzzzzzzzzzzzzzzzzzzzzzzzzzzzzzzzzzzzzzzzzzziiiiii555555333333333333555555666866668888999999ccckkkbbbbbbbbbbmmVVVVVVCCCCCCZZZZZZVVVVVVNNmmNNNNNNNNNNNNmmcccccchhhh99hh9999000000777777555555555555ppppppzzzzzzzzzzzzzzzzzzzzzzzzzzzzzzzzzzzzzzzzzzzzzzzzzzzzzzzzzzzzzzzzzzzzzzzzzzzzzzzzzzzzzzzzzzzzzzzzzzzzzzzzzzzzzzzzzzzzzzzzzzzzzzzzzzzzzzzzzzzzzzzzzzzzzzzzzzzzzzzzzzzzzz",
"zzzzzzzzzzzzzzzzzzzzzzzzzzzzzzzzzzzzzzzzzzzzzzzzzzzzzzzzzzzzzzzzzzzzzzzzzzzzzzzzzzzzzzzzzzzzzzzzzzzzzzzzzzzzzzzzzzzzzzzzzzzzzzzzzzzzzzzzzzzzzzzzzzzzzzzzzzzzzzzzzzzzzzzzzzzzzzzzzzzzzzzzzzzzzziiiiii555555333333333333555555666866666688999999ccckkkbbbbbbbbbmmmVVVVVVCCCCCCZZZZZZVVVVVVNNmmmNNNNNNNNNNNmmcccccchhhh99hh9999000000777777555555555555ppppppzzzzzzzzzzzzzzzzzzzzzzzzzzzzzzzzzzzzzzzzzzzzzzzzzzzzzzzzzzzzzzzzzzzzzzzzzzzzzzzzzzzzzzzzzzzzzzzzzzzzzzzzzzzzzzzzzzzzzzzzzzzzzzzzzzzzzzzzzzzzzzzzzzzzzzzzzzzzzzzzzzzzzz",
"zzzzzzzzzzzzzzzzzzzzzzzzzzzzzzzzzzzzzzzzzzzzzzzzzzzzzzzzzzzzzzzzzzzzzzzzzzzzzzzzzzzzzzzzzzzzzzzzzzzzzzzzzzzzzzzzzzzzzzzzzzzzzzzzzzzzzzzzzzzzzzzzzzzzzzzzzzzzzzzzzzzzzzzzzzzzzzzzzzzzzzzzzzzzzzzzzzzzpppppp33333366666655555599ss99999999ssssssccccccNNNNNNNNNNNNZZZVVVCCCCCCCCCCCCVVVVVVNNNNNNVVNNVVNNNNNNbbbbbbckkkffccccccssssss888888666688111111ppppppzzzzzzzzzzzzzzzzzzzzzzzzzzzzzzzzzzzzzzzzzzzzzzzzzzzzzzzzzzzzzzzzzzzzzzzzzzzzzzzzzzzzzzzzzzzzzzzzzzzzzzzzzzzzzzzzzzzzzzzzzzzzzzzzzzzzzzzzzzzzzzzzzzzzzzzzzzzzzzzzzzzzzz",
"zzzzzzzzzzzzzzzzzzzzzzzzzzzzzzzzzzzzzzzzzzzzzzzzzzzzzzzzzzzzzzzzzzzzzzzzzzzzzzzzzzzzzzzzzzzzzzzzzzzzzzzzzzzzzzzzzzzzzzzzzzzzzzzzzzzzzzzzzzzzzzzzzzzzzzzzzzzzzzzzzzzzzzzzzzzzzzzzzzzzzzzzzzzzzzzzzzzzpppppp33333366666655555599ss99hh9999ssssssccccccNNNNNNNNNNNNZZVVVVCCCCCCCCCCCCVVVVVVNNNNNNVVNNVVNNNNNNbbbbbbckkkffccccccssssss888888666688111111ppppppzzzzzzzzzzzzzzzzzzzzzzzzzzzzzzzzzzzzzzzzzzzzzzzzzzzzzzzzzzzzzzzzzzzzzzzzzzzzzzzzzzzzzzzzzzzzzzzzzzzzzzzzzzzzzzzzzzzzzzzzzzzzzzzzzzzzzzzzzzzzzzzzzzzzzzzzzzzzzzzzzzzzzz",
"zzzzzzzzzzzzzzzzzzzzzzzzzzzzzzzzzzzzzzzzzzzzzzzzzzzzzzzzzzzzzzzzzzzzzzzzzzzzzzzzzzzzzzzzzzzzzzzzzzzzzzzzzzzzzzzzzzzzzzzzzzzzzzzzzzzzzzzzzzzzzzzzzzzzzzzzzzzzzzzzzzzzzzzzzzzzzzzzzzzzzzzzzzzzzzzzzzzzpppppp333333666666555555999shshh9999ssssssccccccNNNNNNNNNNNNVVVVVVCCCCCCCCCCCCVVVVVVNNNNNNVVNNNVNNNNNNbbbbbbkkffffccccccssssss888888666688111111ppppppzzzzzzzzzzzzzzzzzzzzzzzzzzzzzzzzzzzzzzzzzzzzzzzzzzzzzzzzzzzzzzzzzzzzzzzzzzzzzzzzzzzzzzzzzzzzzzzzzzzzzzzzzzzzzzzzzzzzzzzzzzzzzzzzzzzzzzzzzzzzzzzzzzzzzzzzzzzzzzzzzzzzzz",
"zzzzzzzzzzzzzzzzzzzzzzzzzzzzzzzzzzzzzzzzzzzzzzzzzzzzzzzzzzzzzzzzzzzzzzzzzzzzzzzzzzzzzzzzzzzzzzzzzzzzzzzzzzzzzzzzzzzzzzzzzzzzzzzzzzzzzzzzzzzzzzzzzzzzzzzzzzzzzzzzzzzzzzzzzzzzzzzzzzzzzzzzzzzzzzzzzzzzpppppp3333336666665555559999hsss9999ssssssccccccNNNNNNNNNNNNVVVVVVCCCCCCCCCCCCVVVVVVNNNNNNVVNNVVNNNNNNbbbbbbkfffffccccccssssss888888666688111111ppppppzzzzzzzzzzzzzzzzzzzzzzzzzzzzzzzzzzzzzzzzzzzzzzzzzzzzzzzzzzzzzzzzzzzzzzzzzzzzzzzzzzzzzzzzzzzzzzzzzzzzzzzzzzzzzzzzzzzzzzzzzzzzzzzzzzzzzzzzzzzzzzzzzzzzzzzzzzzzzzzzzzzzzz",
"zzzzzzzzzzzzzzzzzzzzzzzzzzzzzzzzzzzzzzzzzzzzzzzzzzzzzzzzzzzzzzzzzzzzzzzzzzzzzzzzzzzzzzzzzzzzzzzzzzzzzzzzzzzzzzzzzzzzzzzzzzzzzzzzzzzzzzzzzzzzzzzzzzzzzzzzzzzzzzzzzzzzzzzzzzzzzzzzzzzzzzzzzzzzzzzzzzzzpppppp333333666668555555ss99hhssssssssssssccccccNNNNNNNNNNNNVVVVVVCCCCCCCCCCCCVVVVVVNNNNNNVVVVVVNNNNNNbbbbbbkkkfffccccccssssss888888666666111111ppppppzzzzzzzzzzzzzzzzzzzzzzzzzzzzzzzzzzzzzzzzzzzzzzzzzzzzzzzzzzzzzzzzzzzzzzzzzzzzzzzzzzzzzzzzzzzzzzzzzzzzzzzzzzzzzzzzzzzzzzzzzzzzzzzzzzzzzzzzzzzzzzzzzzzzzzzzzzzzzzzzzzzzzz",
"zzzzzzzzzzzzzzzzzzzzzzzzzzzzzzzzzzzzzzzzzzzzzzzzzzzzzzzzzzzzzzzzzzzzzzzzzzzzzzzzzzzzzzzzzzzzzzzzzzzzzzzzzzzzzzzzzzzzzzzzzzzzzzzzzzzzzzzzzzzzzzzzzzzzzzzzzzzzzzzzzzzzzzzzzzzzzzzzzzzzzzzzzzzzzzzzzzzzpppppp333333666688555555hss99999ssssssssssccccccNNNNNNNNNNNNVVVVVVCCCCCCCCCCCCVVVVVVNNNNNNVVVVVVNNNNNNbbbbbbkkffffccccccssssss888888666666111111ppppppzzzzzzzzzzzzzzzzzzzzzzzzzzzzzzzzzzzzzzzzzzzzzzzzzzzzzzzzzzzzzzzzzzzzzzzzzzzzzzzzzzzzzzzzzzzzzzzzzzzzzzzzzzzzzzzzzzzzzzzzzzzzzzzzzzzzzzzzzzzzzzzzzzzzzzzzzzzzzzzzzzzzzz",
"zzzzzzzzzzzzzzzzzzzzzzzzzzzzzzzzzzzzzzzzzzzzzzzzzzzzzzzzzzzzzzzzzzzzzzzzzzzzzzzzzzzzzzzzzzzzzzzzzzzzzzzzzzzzzzzzzzzzzzzzzzzzzzzzzzzzzzzzzzzzzzzzzzzzzzzzzzzzzzzzzzzzzzzzzzzziiiiiiiiiiiipppppp111111555555777777ssfsfs666666hh9999ssssfsffffsfccccccNNNNNNVVVVVVZZZZZZCCCCCCCCCCCCZZZZZZVVVVVVZZVVZZVVVVVVmmmmmmbbbbbbbbvvvbffffffsssshs335555666666<<4<<<ppppppzzzzzzzzzzzzzzzzzzzzzzzzzzzzzzzzzzzzzzzzzzzzzzzzzzzzzzzzzzzzzzzzzzzzzzzzzzzzzzzzzzzzzzzzzzzzzzzzzzzzzzzzzzzzzzzzzzzzzzzzzzzzzzzzzzzzzzzzzzzzzzzzzzzzzzzzzzzzzzzz",
"zzzzzzzzzzzzzzzzzzzzzzzzzzzzzzzzzzzzzzzzzzzzzzzzzzzzzzzzzzzzzzzzzzzzzzzzzzzzzzzzzzzzzzzzzzzzzzzzzzzzzzzzzzzzzzzzzzzzzzzzzzzzzzzzzzzzzzzzzzzzzzzzzzzzzzzzzzzzzzzzzzzzzzzzzzzziiiiiiiiiiiipppppp111111555555777777sssfff666666999999ssssssfffssfccccccNNNNNNVVVVVVZZZZZZCCCCCCCCCCCCZZZZZZVVVVVVZZVVZZVVVVVVmmmmmmbbbbbbbbvvvvffffffssssss335555666666<<44<<ppppppzzzzzzzzzzzzzzzzzzzzzzzzzzzzzzzzzzzzzzzzzzzzzzzzzzzzzzzzzzzzzzzzzzzzzzzzzzzzzzzzzzzzzzzzzzzzzzzzzzzzzzzzzzzzzzzzzzzzzzzzzzzzzzzzzzzzzzzzzzzzzzzzzzzzzzzzzzzzzzzz",
"zzzzzzzzzzzzzzzzzzzzzzzzzzzzzzzzzzzzzzzzzzzzzzzzzzzzzzzzzzzzzzzzzzzzzzzzzzzzzzzzzzzzzzzzzzzzzzzzzzzzzzzzzzzzzzzzzzzzzzzzzzzzzzzzzzzzzzzzzzzzzzzzzzzzzzzzzzzzzzzzzzzzzzzzzzzziiiiiiiiiiiipppppp111111555555777777ffffff666666999999ssssssssssffccccccNNNNNNVVVVVVZZZZZZCCCCCCCCCCCCZZZZZZVVVVVVVVVVVVVVVVVVNNmmmmbbbbbbvvvvvvffffffsssshh5555556668884444<<ppppppzzzzzzzzzzzzzzzzzzzzzzzzzzzzzzzzzzzzzzzzzzzzzzzzzzzzzzzzzzzzzzzzzzzzzzzzzzzzzzzzzzzzzzzzzzzzzzzzzzzzzzzzzzzzzzzzzzzzzzzzzzzzzzzzzzzzzzzzzzzzzzzzzzzzzzzzzzzzzzzz",
"zzzzzzzzzzzzzzzzzzzzzzzzzzzzzzzzzzzzzzzzzzzzzzzzzzzzzzzzzzzzzzzzzzzzzzzzzzzzzzzzzzzzzzzzzzzzzzzzzzzzzzzzzzzzzzzzzzzzzzzzzzzzzzzzzzzzzzzzzzzzzzzzzzzzzzzzzzzzzzzzzzzzzzzzzzzziiiiiiiiiiiipppppp111111555555777777ssffss666666999999ssssfsssssffccccccNNNNNNVVVVVVZZZZZZCCCCCCCCCCCCZZZZZZVVVVVVVVVVVVVVVVVVmNmmmmbbbbbbvvvvvvffffffssss995555556688884444<<ppppppzzzzzzzzzzzzzzzzzzzzzzzzzzzzzzzzzzzzzzzzzzzzzzzzzzzzzzzzzzzzzzzzzzzzzzzzzzzzzzzzzzzzzzzzzzzzzzzzzzzzzzzzzzzzzzzzzzzzzzzzzzzzzzzzzzzzzzzzzzzzzzzzzzzzzzzzzzzzzzzz",
"zzzzzzzzzzzzzzzzzzzzzzzzzzzzzzzzzzzzzzzzzzzzzzzzzzzzzzzzzzzzzzzzzzzzzzzzzzzzzzzzzzzzzzzzzzzzzzzzzzzzzzzzzzzzzzzzzzzzzzzzzzzzzzzzzzzzzzzzzzzzzzzzzzzzzzzzzzzzzzzzzzzzzzzzzzzziiiiiiiiiiiipppppp111111555555777777fssfsf666666shsh99fsffffssffffccccccNNNNNNVVVVVVZZZZZZCCCCCCCCCCCCZZZZZZVVVVVVZVZZVVVVVVVVmmmmmmbbbbbbbvbbvvffffffhs9999555555666686<4<<<<ppppppzzzzzzzzzzzzzzzzzzzzzzzzzzzzzzzzzzzzzzzzzzzzzzzzzzzzzzzzzzzzzzzzzzzzzzzzzzzzzzzzzzzzzzzzzzzzzzzzzzzzzzzzzzzzzzzzzzzzzzzzzzzzzzzzzzzzzzzzzzzzzzzzzzzzzzzzzzzzzzzz",
"zzzzzzzzzzzzzzzzzzzzzzzzzzzzzzzzzzzzzzzzzzzzzzzzzzzzzzzzzzzzzzzzzzzzzzzzzzzzzzzzzzzzzzzzzzzzzzzzzzzzzzzzzzzzzzzzzzzzzzzzzzzzzzzzzzzzzzzzzzzzzzzzzzzzzzzzzzzzzzzzzzzzzzzzzzzziiiiiiiiiiiipppppp111111555555777777sfssss666666sss999ffffffffffffccccccNNNNNNVVVVVVZZZZZZCCCCCCCCCCCCZZZZZZVVVVVVZVVZVVVVVVVVmmmmmmbbbbbbbbbbvvffffff999999555555666666<<<<<<ppppppzzzzzzzzzzzzzzzzzzzzzzzzzzzzzzzzzzzzzzzzzzzzzzzzzzzzzzzzzzzzzzzzzzzzzzzzzzzzzzzzzzzzzzzzzzzzzzzzzzzzzzzzzzzzzzzzzzzzzzzzzzzzzzzzzzzzzzzzzzzzzzzzzzzzzzzzzzzzzzzz",
"zzzzzzzzzzzzzzzzzzzzzzzzzzzzzzzzzzzzzzzzzzzzzzzzzzzzzzzzzzzzzzzzzzzzzzzzzzzzzzzzzzzzzzzzzzzzzzzzzzzzzzzzzzzzzzzzzzzzzzzzzzzzzzzzzzzzzzzzzzzzzzzzzzzzzzzzzzzzzzzzzzzzzzddddddpppppp222211pppppp444444333333555555sssfff666666sfffffffffffvvvvvvbbbbbbNNNNNNZZZZZZZZZZZZCCCCCCCCCCCCZZZZZVZZZZZZZZZZZZVVVVVVVVVNNNNNNNNNvvvvvvffffff888888666666555555444444<<<<<<111111zzzzzzzzzzzzzzzzzzzzzzzzzzzzzzzzzzzzzzzzzzzzzzzzzzzzzzzzzzzzzzzzzzzzzzzzzzzzzzzzzzzzzzzzzzzzzzzzzzzzzzzzzzzzzzzzzzzzzzzzzzzzzzzzzzzzzzzzzzzzzzzzzzzzzzzzzz",
"zzzzzzzzzzzzzzzzzzzzzzzzzzzzzzzzzzzzzzzzzzzzzzzzzzzzzzzzzzzzzzzzzzzzzzzzzzzzzzzzzzzzzzzzzzzzzzzzzzzzzzzzzzzzzzzzzzzzzzzzzzzzzzzzzzzzzzzzzzzzzzzzzzzzzzzzzzzzzzzzzzzzzzddddddpppppp222211pppppp444444333333555555sssfff666666ssffffffffffvvvvvvbbbbbbNNNNNNZZZZZZZZZZZZCCCCCCCCCCCCZZZZVVZZZZZZZZZZZZVVVVVVVVVNNNNNNNNNvvvvbbffffff888888666666555555444444<<<<<<111111zzzzzzzzzzzzzzzzzzzzzzzzzzzzzzzzzzzzzzzzzzzzzzzzzzzzzzzzzzzzzzzzzzzzzzzzzzzzzzzzzzzzzzzzzzzzzzzzzzzzzzzzzzzzzzzzzzzzzzzzzzzzzzzzzzzzzzzzzzzzzzzzzzzzzzzzzz",
"zzzzzzzzzzzzzzzzzzzzzzzzzzzzzzzzzzzzzzzzzzzzzzzzzzzzzzzzzzzzzzzzzzzzzzzzzzzzzzzzzzzzzzzzzzzzzzzzzzzzzzzzzzzzzzzzzzzzzzzzzzzzzzzzzzzzzzzzzzzzzzzzzzzzzzzzzzzzzzzzzzzzzzddddddpppppp221111pppppp444444333333555555ssssff866666ssssfsffffffbvbbvbbbbbbbNNNNNNZZZZZZZZZZZZCCCCCCCCCCCCZZVVVVZZZZZZZZZZZZVVVVVVVVNNNNNNNNNNvvbbbbffffff888888866668555555444444<<<<<<111111zzzzzzzzzzzzzzzzzzzzzzzzzzzzzzzzzzzzzzzzzzzzzzzzzzzzzzzzzzzzzzzzzzzzzzzzzzzzzzzzzzzzzzzzzzzzzzzzzzzzzzzzzzzzzzzzzzzzzzzzzzzzzzzzzzzzzzzzzzzzzzzzzzzzzzzzzz",
"zzzzzzzzzzzzzzzzzzzzzzzzzzzzzzzzzzzzzzzzzzzzzzzzzzzzzzzzzzzzzzzzzzzzzzzzzzzzzzzzzzzzzzzzzzzzzzzzzzzzzzzzzzzzzzzzzzzzzzzzzzzzzzzzzzzzzzzzzzzzzzzzzzzzzzzzzzzzzzzzzzzzzzddddddpppppp221111pppppp444444333333555555ssssff886666sssfffffffffbbbbbbbbbbbbNNNNNNZZZZZZZZZZZZCCCCCCCCCCCCZZZVVVZZZZZZZZZZZZVVVVVVVVNNNNNNNNNNvvbbbbffffff888888666666555555444444<<<<<<111111zzzzzzzzzzzzzzzzzzzzzzzzzzzzzzzzzzzzzzzzzzzzzzzzzzzzzzzzzzzzzzzzzzzzzzzzzzzzzzzzzzzzzzzzzzzzzzzzzzzzzzzzzzzzzzzzzzzzzzzzzzzzzzzzzzzzzzzzzzzzzzzzzzzzzzzzzz",
"zzzzzzzzzzzzzzzzzzzzzzzzzzzzzzzzzzzzzzzzzzzzzzzzzzzzzzzzzzzzzzzzzzzzzzzzzzzzzzzzzzzzzzzzzzzzzzzzzzzzzzzzzzzzzzzzzzzzzzzzzzzzzzzzzzzzzzzzzzzzzzzzzzzzzzzzzzzzzzzzzzzzzzddddddpppppp111222pppppp444444333333555555ffffss666666ssssssfffcccbbbbbbbbbbbbNNNNNNZZZZZZZZZZZZCCCCCCCCCCCCVVZZZZZZZZZZZZZZZZVVVVVVNNVVVVNNNNNNbbbbvvffffff888888666666555555444444<<<<<<111111zzzzzzzzzzzzzzzzzzzzzzzzzzzzzzzzzzzzzzzzzzzzzzzzzzzzzzzzzzzzzzzzzzzzzzzzzzzzzzzzzzzzzzzzzzzzzzzzzzzzzzzzzzzzzzzzzzzzzzzzzzzzzzzzzzzzzzzzzzzzzzzzzzzzzzzzzz",
"zzzzzzzzzzzzzzzzzzzzzzzzzzzzzzzzzzzzzzzzzzzzzzzzzzzzzzzzzzzzzzzzzzzzzzzzzzzzzzzzzzzzzzzzzzzzzzzzzzzzzzzzzzzzzzzzzzzzzzzzzzzzzzzzzzzzzzzzzzzzzzzzzzzzzzzzzzzzzzzzzzzzzzddddddpppppp212222pppppp444444333333555555ffffss666666ssssssffffccvvbbbbbbbbbbNNNNNNZZZZZZZZZZZZCCCCCCCCCCCCZVZZZZZZZZZZZZZZZZVVVVVVNNVVVVNNNNNNbbvvvvffffff888888666666555555444444<<<<<<111111zzzzzzzzzzzzzzzzzzzzzzzzzzzzzzzzzzzzzzzzzzzzzzzzzzzzzzzzzzzzzzzzzzzzzzzzzzzzzzzzzzzzzzzzzzzzzzzzzzzzzzzzzzzzzzzzzzzzzzzzzzzzzzzzzzzzzzzzzzzzzzzzzzzzzzzzzz",
"zzzzzzzzzzzzzzzzzzzzzzzzzzzzzzzzzzzzzzzzzzzzzzzzzzzzzzzzzzzzzzzzzzzzzzzzzzzzzzzzzzzzzzzzzzzzzzzzzzzzzzzzzzzzzzzzzzzzzzzzzzzzzzzzzzzzzzzzzzzzzzzzzzzzzzzzzzzzzzzzzzzzzzzzzzzziiiiii<<<<<<pppppp333333333333666666777777999999kkccffffccccbbbbbbVVVVVVVVVVVVZZZZZZZZZZZZCCCCCCCCCCCCZZZZZZZZZZZZZZZZZZVVVVVVVVVVVVbmmmmmccccccssssss888888666666553355444444<<<<<<111122iiiiiizzzzzzzzzzzzzzzzzzzzzzzzzzzzzzzzzzzzzzzzzzzzzzzzzzzzzzzzzzzzzzzzzzzzzzzzzzzzzzzzzzzzzzzzzzzzzzzzzzzzzzzzzzzzzzzzzzzzzzzzzzzzzzzzzzzzzzzzzzzzzzzzzzzz",
"zzzzzzzzzzzzzzzzzzzzzzzzzzzzzzzzzzzzzzzzzzzzzzzzzzzzzzzzzzzzzzzzzzzzzzzzzzzzzzzzzzzzzzzzzzzzzzzzzzzzzzzzzzzzzzzzzzzzzzzzzzzzzzzzzzzzzzzzzzzzzzzzzzzzzzzzzzzzzzzzzzzzzzzzzzzziiiiii<<<<<<pppppp333333333333666666777777999999kkccccffccccbbbbbbVVVVVVVVVVVVZZZZZZZZZZZZCCCCCCCCCCCCZZZZZZZZZZZZZZZZZZVVVVVVVVVVVVbbbmmmccccccssssss888888666666553355444444<<<<<<111111iiiiiizzzzzzzzzzzzzzzzzzzzzzzzzzzzzzzzzzzzzzzzzzzzzzzzzzzzzzzzzzzzzzzzzzzzzzzzzzzzzzzzzzzzzzzzzzzzzzzzzzzzzzzzzzzzzzzzzzzzzzzzzzzzzzzzzzzzzzzzzzzzzzzzzzzz",
"zzzzzzzzzzzzzzzzzzzzzzzzzzzzzzzzzzzzzzzzzzzzzzzzzzzzzzzzzzzzzzzzzzzzzzzzzzzzzzzzzzzzzzzzzzzzzzzzzzzzzzzzzzzzzzzzzzzzzzzzzzzzzzzzzzzzzzzzzzzzzzzzzzzzzzzzzzzzzzzzzzzzzzzzzzzziiiiii<<<<<4pppppp333333333333666666777777999999cfffccccccccbbbbbbVVVVVVVVVVVVZZZZZZZZZZZZCCCCCCCCCCCCZZZZZZZZZZZZZZZZZZVVVVVVVVVVVVmmmmNNccccccssssss886688666666555555444444<<<<<<221111iiiiiizzzzzzzzzzzzzzzzzzzzzzzzzzzzzzzzzzzzzzzzzzzzzzzzzzzzzzzzzzzzzzzzzzzzzzzzzzzzzzzzzzzzzzzzzzzzzzzzzzzzzzzzzzzzzzzzzzzzzzzzzzzzzzzzzzzzzzzzzzzzzzzzzzzz",
"zzzzzzzzzzzzzzzzzzzzzzzzzzzzzzzzzzzzzzzzzzzzzzzzzzzzzzzzzzzzzzzzzzzzzzzzzzzzzzzzzzzzzzzzzzzzzzzzzzzzzzzzzzzzzzzzzzzzzzzzzzzzzzzzzzzzzzzzzzzzzzzzzzzzzzzzzzzzzzzzzzzzzzzzzzzziiiiii<<<<<4pppppp333333333333666666777777999999cfffccccccccbbbbbbVVNVVVVVVVVVZZZZZZZZZZZZCCCCCCCCCCCCZZZZZZZZZZZZZZZZZZVVVVVVVVVVVVmbmmmNccccccssssss666688666666555555444444<<<<<<221111iiiiiizzzzzzzzzzzzzzzzzzzzzzzzzzzzzzzzzzzzzzzzzzzzzzzzzzzzzzzzzzzzzzzzzzzzzzzzzzzzzzzzzzzzzzzzzzzzzzzzzzzzzzzzzzzzzzzzzzzzzzzzzzzzzzzzzzzzzzzzzzzzzzzzzzzz",
"zzzzzzzzzzzzzzzzzzzzzzzzzzzzzzzzzzzzzzzzzzzzzzzzzzzzzzzzzzzzzzzzzzzzzzzzzzzzzzzzzzzzzzzzzzzzzzzzzzzzzzzzzzzzzzzzzzzzzzzzzzzzzzzzzzzzzzzzzzzzzzzzzzzzzzzzzzzzzzzzzzzzzzzzzzzziiiiii<<<<<<pppppp333333333333666666777777999999ccffffccccffbbbbbbNNNNVVVVVVVVZZZZZZZZZZZZCCCCCCCCCCCCZZZZZZZZZZZZZZZZZZVVVVVVVVVVVVbbbbmmccccccssssss666666666666555555444444<<<<<<222211iiiiiizzzzzzzzzzzzzzzzzzzzzzzzzzzzzzzzzzzzzzzzzzzzzzzzzzzzzzzzzzzzzzzzzzzzzzzzzzzzzzzzzzzzzzzzzzzzzzzzzzzzzzzzzzzzzzzzzzzzzzzzzzzzzzzzzzzzzzzzzzzzzzzzzzzz",
"zzzzzzzzzzzzzzzzzzzzzzzzzzzzzzzzzzzzzzzzzzzzzzzzzzzzzzzzzzzzzzzzzzzzzzzzzzzzzzzzzzzzzzzzzzzzzzzzzzzzzzzzzzzzzzzzzzzzzzzzzzzzzzzzzzzzzzzzzzzzzzzzzzzzzzzzzzzzzzzzzzzzzzzzzzzziiiiii<<<<<<pppppp333333333333666666777777999999ccfffffccfffbbbbbbNNNNVVVVVVVVZZZZZZZZZZZZCCCCCCCCCCCCZZZZZZZZZZZZZZZZZZVVVVVVVVVVVVbbbbmmccccccssssss666666666668555555444444<<<<<<222211iiiiiizzzzzzzzzzzzzzzzzzzzzzzzzzzzzzzzzzzzzzzzzzzzzzzzzzzzzzzzzzzzzzzzzzzzzzzzzzzzzzzzzzzzzzzzzzzzzzzzzzzzzzzzzzzzzzzzzzzzzzzzzzzzzzzzzzzzzzzzzzzzzzzzzzzz",
"zzzzzzzzzzzzzzzzzzzzzzzzzzzzzzzzzzzzzzzzzzzzzzzzzzzzzzzzzzzzzzzzzzzzzzzzzzzzzzzzzzzzzzzzzzzzzzzzzzzzzzzzzzzzzzzzzzzzzzzzzzzzzzzzzzzzzzzzzzzzzzzzzzzzzzzzzzzzzzzzddddddiiiiiipppppppppppp55555555555533333399ssssffffffcfccccvvccccbbbbbbVVVVVVZZZZZZZZZZZZZZVVVVCCCCCCCCCCCCCCCCCCCCCCCCZZCCCCBBBBBBVVVVVVVVVVVVNNNNNNccccccssssssssffss99sss9333333333333222222ppppppppppppiiiiiizzzzzzzzzzzzzzzzzzzzzzzzzzzzzzzzzzzzzzzzzzzzzzzzzzzzzzzzzzzzzzzzzzzzzzzzzzzzzzzzzzzzzzzzzzzzzzzzzzzzzzzzzzzzzzzzzzzzzzzzzzzzzzzzzzzzzzzzzzzzzz",
"zzzzzzzzzzzzzzzzzzzzzzzzzzzzzzzzzzzzzzzzzzzzzzzzzzzzzzzzzzzzzzzzzzzzzzzzzzzzzzzzzzzzzzzzzzzzzzzzzzzzzzzzzzzzzzzzzzzzzzzzzzzzzzzzzzzzzzzzzzzzzzzzzzzzzzzzzzzzzzzzddddddiiiiiipppppppppppp55555355555533333399ssssffffffcfccccvvccccbbbbbbVVVVVVZZZZZZZZZZZZZZVVVVCCCCCCCCCCCCCCCCCCCCCCCCZZCZCCBBBBBBVVVVVVVVVVVVNNNNNNccccccssssssssffsfh9hh99333333333333222222ppppppppppppiiiiiizzzzzzzzzzzzzzzzzzzzzzzzzzzzzzzzzzzzzzzzzzzzzzzzzzzzzzzzzzzzzzzzzzzzzzzzzzzzzzzzzzzzzzzzzzzzzzzzzzzzzzzzzzzzzzzzzzzzzzzzzzzzzzzzzzzzzzzzzzzzzz",
"zzzzzzzzzzzzzzzzzzzzzzzzzzzzzzzzzzzzzzzzzzzzzzzzzzzzzzzzzzzzzzzzzzzzzzzzzzzzzzzzzzzzzzzzzzzzzzzzzzzzzzzzzzzzzzzzzzzzzzzzzzzzzzzzzzzzzzzzzzzzzzzzzzzzzzzzzzzzzzzzddddddiiiiiipppppppppppp55555555555533333399ssssffffffkfkkccvvvvccbbbbbbVVVVVVZZZZZZZZZZZZZZBVVVCCCCCCCCCCCCCCCCCCCCCCCCZZZZCZBBBBBBVVVVVVVVVVVVNNNNNNccccccssssssssffffhhhh99333333333333222222ppppppppppppiiiiiizzzzzzzzzzzzzzzzzzzzzzzzzzzzzzzzzzzzzzzzzzzzzzzzzzzzzzzzzzzzzzzzzzzzzzzzzzzzzzzzzzzzzzzzzzzzzzzzzzzzzzzzzzzzzzzzzzzzzzzzzzzzzzzzzzzzzzzzzzzzzz",
"zzzzzzzzzzzzzzzzzzzzzzzzzzzzzzzzzzzzzzzzzzzzzzzzzzzzzzzzzzzzzzzzzzzzzzzzzzzzzzzzzzzzzzzzzzzzzzzzzzzzzzzzzzzzzzzzzzzzzzzzzzzzzzzzzzzzzzzzzzzzzzzzzzzzzzzzzzzzzzzzddddddiiiiiipppppppppppp555535555555333333999sssfffffffkkcccvvvvccbbbbbbVVVVVVZZZZZZZZZZZZZZBVVVCCCCCCCCCCCCCCCCCCCCCCCCZZZZCZBBBBBBVVVVVVVVVVVVNNNNNNccccccssssssssffffhhhh99333333333333222222ppppppppppppiiiiiizzzzzzzzzzzzzzzzzzzzzzzzzzzzzzzzzzzzzzzzzzzzzzzzzzzzzzzzzzzzzzzzzzzzzzzzzzzzzzzzzzzzzzzzzzzzzzzzzzzzzzzzzzzzzzzzzzzzzzzzzzzzzzzzzzzzzzzzzzzzzz",
"zzzzzzzzzzzzzzzzzzzzzzzzzzzzzzzzzzzzzzzzzzzzzzzzzzzzzzzzzzzzzzzzzzzzzzzzzzzzzzzzzzzzzzzzzzzzzzzzzzzzzzzzzzzzzzzzzzzzzzzzzzzzzzzzzzzzzzzzzzzzzzzzzzzzzzzzzzzzzzzzddddddiiiiiipppppppppppp555555555555333333ssssssffffffckccccvvccccbbbbbbVVVVVVZZZZZZZZZZZZBBBBBBCCCCCCCCCCCCCCCCCCCCCCCCZZZZCCBBBBBBVVVVVVVVVVVVNNNNNNccccccssssssffssss999999333333333333222222ppppppppppppiiiiiizzzzzzzzzzzzzzzzzzzzzzzzzzzzzzzzzzzzzzzzzzzzzzzzzzzzzzzzzzzzzzzzzzzzzzzzzzzzzzzzzzzzzzzzzzzzzzzzzzzzzzzzzzzzzzzzzzzzzzzzzzzzzzzzzzzzzzzzzzzzzz",
"zzzzzzzzzzzzzzzzzzzzzzzzzzzzzzzzzzzzzzzzzzzzzzzzzzzzzzzzzzzzzzzzzzzzzzzzzzzzzzzzzzzzzzzzzzzzzzzzzzzzzzzzzzzzzzzzzzzzzzzzzzzzzzzzzzzzzzzzzzzzzzzzzzzzzzzzzzzzzzzzddddddiiiiiipppppppppppp555555555555333333ssssssffffffkkccccccccccbbbbbbVVVVVVZZZZZZZZZZZZBBBBVBCCCCCCCCCCCCCCCCCCCCCCCCCZZZCCBBBBBBVVVVVVVVVVVVNNNNNNccccccssssssffssss999999333333333333222222ppppppppppppiiiiiizzzzzzzzzzzzzzzzzzzzzzzzzzzzzzzzzzzzzzzzzzzzzzzzzzzzzzzzzzzzzzzzzzzzzzzzzzzzzzzzzzzzzzzzzzzzzzzzzzzzzzzzzzzzzzzzzzzzzzzzzzzzzzzzzzzzzzzzzzzzzz",
"zzzzzzzzzzzzzzzzzzzzzzzzzzzzzzzzzzzzzzzzzzzzzzzzzzzzzzzzzzzzzzzzzzzzzzzzzzzzzzzzzzzzzzzzzzzzzzzzzzzzzzzzzzzzzzzzzzzzzzzzzzzzzzzzzzzzzzzzzzzzzzzzzzzzzzzzzzzzzzzziiiiii1111pp333333555555ss99h9666666888888777777ffffffvvvvvvbbbbbbNNNNNNVVVVVVCZZZZZZZZZZZBBBBBBCCCCCCCCCCCCCCCCCCCCCCCCZZBBBBBBBBBBZZZZZZZZZZZZVVVNNNbbmmmmccccccssssss77777766666688666699hhss55555533333311ppppiiiiiizzzzzzzzzzzzzzzzzzzzzzzzzzzzzzzzzzzzzzzzzzzzzzzzzzzzzzzzzzzzzzzzzzzzzzzzzzzzzzzzzzzzzzzzzzzzzzzzzzzzzzzzzzzzzzzzzzzzzzzzzzzzzzzzzzzzzzzz",
"zzzzzzzzzzzzzzzzzzzzzzzzzzzzzzzzzzzzzzzzzzzzzzzzzzzzzzzzzzzzzzzzzzzzzzzzzzzzzzzzzzzzzzzzzzzzzzzzzzzzzzzzzzzzzzzzzzzzzzzzzzzzzzzzzzzzzzzzzzzzzzzzzzzzzzzzzzzzzzzziiiiii1111pp333333555555ss9999666666888886777777ffffffvvvvvvbbbbbbNNNNNNVVVVVVCCZZZZZZZZZZBBBBBBCCCCCCCCCCCCCCCCCCCCCCCCZZBBBBBBBBBBZZZZZZZZZZZZVVVVNNbbmmmmccccccssssss77777766666666666699hhhs55555533333311ppppiiiiiizzzzzzzzzzzzzzzzzzzzzzzzzzzzzzzzzzzzzzzzzzzzzzzzzzzzzzzzzzzzzzzzzzzzzzzzzzzzzzzzzzzzzzzzzzzzzzzzzzzzzzzzzzzzzzzzzzzzzzzzzzzzzzzzzzzzzzzz",
"zzzzzzzzzzzzzzzzzzzzzzzzzzzzzzzzzzzzzzzzzzzzzzzzzzzzzzzzzzzzzzzzzzzzzzzzzzzzzzzzzzzzzzzzzzzzzzzzzzzzzzzzzzzzzzzzzzzzzzzzzzzzzzzzzzzzzzzzzzzzzzzzzzzzzzzzzzzzzzzziiiiii1111pp333333555555h99999666666866688777777ffffffbbbbbvbbbbbbNNNNNNVVVVVVZZZZCCZZZZZZBBBBBBCCCCCCCCCCCCCCCCCCCCCCCCZBBBBBBBBBBBZZZZZZZZZZZZNNNNNVbmbbbmccccccssssss77777766666666666699h99955555533333311pp11iiiiiizzzzzzzzzzzzzzzzzzzzzzzzzzzzzzzzzzzzzzzzzzzzzzzzzzzzzzzzzzzzzzzzzzzzzzzzzzzzzzzzzzzzzzzzzzzzzzzzzzzzzzzzzzzzzzzzzzzzzzzzzzzzzzzzzzzzzzzz",
"zzzzzzzzzzzzzzzzzzzzzzzzzzzzzzzzzzzzzzzzzzzzzzzzzzzzzzzzzzzzzzzzzzzzzzzzzzzzzzzzzzzzzzzzzzzzzzzzzzzzzzzzzzzzzzzzzzzzzzzzzzzzzzzzzzzzzzzzzzzzzzzzzzzzzzzzzzzzzzzziiiiii1111pp3333335555559999hh666666886688777777ffffffbbbbbbbbbbbbNNNNNNVVVVVVZZZZCCZZZZZZBBBBBBCCCCCCCCCCCCCCCCCCCCCCCCZBBBBBBBBBBBZZZZZZZZZZZZNNNNNNmmbbmmccccccssssss7777776666666666669h999955555533333311pp11iiiiiizzzzzzzzzzzzzzzzzzzzzzzzzzzzzzzzzzzzzzzzzzzzzzzzzzzzzzzzzzzzzzzzzzzzzzzzzzzzzzzzzzzzzzzzzzzzzzzzzzzzzzzzzzzzzzzzzzzzzzzzzzzzzzzzzzzzzzzz",
"zzzzzzzzzzzzzzzzzzzzzzzzzzzzzzzzzzzzzzzzzzzzzzzzzzzzzzzzzzzzzzzzzzzzzzzzzzzzzzzzzzzzzzzzzzzzzzzzzzzzzzzzzzzzzzzzzzzzzzzzzzzzzzzzzzzzzzzzzzzzzzzzzzzzzzzzzzzzzzzziiiiii11111p3333335555559999hh666666666688667777ffffffbbbbbbbbbbbbNNNNNNVVVVVVZZZCCCZZZZZZBBBBBBCCCCCCCCCCCCCCCCCCCCCCCCBBBBBBBBBBBBZZZZZZZZZZZZNNNNVVmmbbbbccccccssssss777777666666666666hhsh9955555533333311pp11iiiiiizzzzzzzzzzzzzzzzzzzzzzzzzzzzzzzzzzzzzzzzzzzzzzzzzzzzzzzzzzzzzzzzzzzzzzzzzzzzzzzzzzzzzzzzzzzzzzzzzzzzzzzzzzzzzzzzzzzzzzzzzzzzzzzzzzzzzzzz",
"zzzzzzzzzzzzzzzzzzzzzzzzzzzzzzzzzzzzzzzzzzzzzzzzzzzzzzzzzzzzzzzzzzzzzzzzzzzzzzzzzzzzzzzzzzzzzzzzzzzzzzzzzzzzzzzzzzzzzzzzzzzzzzzzzzzzzzzzzzzzzzzzzzzzzzzzzzzzzzzziiiiii11111p3333335555559999hh666666666688667777ffffffvvbbbbbbbbbbNNNNNNVVVVVVZZZZCCZZZZZZBBBBBBCCCCCCCCCCCCCCCCCCCCCCCCBBBBBBBBBBBBZZZZZZZZZZZZVVNVVVmmbbbbccccccssssss777777666666866666sssh9955555533333311ppp1iiiiiizzzzzzzzzzzzzzzzzzzzzzzzzzzzzzzzzzzzzzzzzzzzzzzzzzzzzzzzzzzzzzzzzzzzzzzzzzzzzzzzzzzzzzzzzzzzzzzzzzzzzzzzzzzzzzzzzzzzzzzzzzzzzzzzzzzzzzzz",
"zzzzzzzzzzzzzzzzzzzzzzzzzzzzzzzzzzzzzzzzzzzzzzzzzzzzzzzzzzzzzzzzzzzzzzzzzzzzzzzzzzzzzzzzzzzzzzzzzzzzzzzzzzzzzzzzzzzzzzzzzzzzzzzzzzddddddiiiiiiiiiiiiiiiiiiiiiiiipppppp<<44<<333333555555686666666866888888ffffffccccccbbbbbbNNNNNNNNNNNNZZZZZZCCCCCCCCCCCCCCCCCCCCCCCCMMMMMMmmmmmmCCCCCCCCCCCCCCCCCCCCCCCCZZZZZZVVVVVVNNNNVVbbbbbbfffkkkssssss6688886666666666665555553333334444<<iiiiiizzzzzzzzzzzzzzzzzzzzzzzzzzzzzzzzzzzzzzzzzzzzzzzzzzzzzzzzzzzzzzzzzzzzzzzzzzzzzzzzzzzzzzzzzzzzzzzzzzzzzzzzzzzzzzzzzzzzzzzzzzzzzzzzzzzzzzzz",
"zzzzzzzzzzzzzzzzzzzzzzzzzzzzzzzzzzzzzzzzzzzzzzzzzzzzzzzzzzzzzzzzzzzzzzzzzzzzzzzzzzzzzzzzzzzzzzzzzzzzzzzzzzzzzzzzzzzzzzzzzzzzzzzzzzddddddiiiiiiiiiiiiiiiiiiiiiiiipppppp<<4<<<333333555555666666686666888888ffffffccccccbbbbbbNNNNNNNNNNNNZZZZZZCCCCCCCCCCCCCCCCCCCCCCCCMMMMMMmmmmmmCCCCCCCCCCCCCCCCCCCCCCCCZZZZZZVVVVVVNNNNVVbbbbbbffffkkssssss6688886666666666665555553333334444<<iiiiiizzzzzzzzzzzzzzzzzzzzzzzzzzzzzzzzzzzzzzzzzzzzzzzzzzzzzzzzzzzzzzzzzzzzzzzzzzzzzzzzzzzzzzzzzzzzzzzzzzzzzzzzzzzzzzzzzzzzzzzzzzzzzzzzzzzzzzzz",
"zzzzzzzzzzzzzzzzzzzzzzzzzzzzzzzzzzzzzzzzzzzzzzzzzzzzzzzzzzzzzzzzzzzzzzzzzzzzzzzzzzzzzzzzzzzzzzzzzzzzzzzzzzzzzzzzzzzzzzzzzzzzzzzzzzddddddiiiiiiiiiiiiiiiiiiiiiiiipppppp<<44<<333333555555666666666666888888fffffsccccccbbbbbbNNNNNNNNNNNNZZZZZZCCCCCCCCCCCCCCCCCCCCCCCCMMMMMMmmmmmmCCCCCCCCCCCCCCCCCCCCCCCCZZZZZZVVVVVVVVVVVVbbbbbbfffkkkssssss66888866666666666655555533333344<4<<iiiiiizzzzzzzzzzzzzzzzzzzzzzzzzzzzzzzzzzzzzzzzzzzzzzzzzzzzzzzzzzzzzzzzzzzzzzzzzzzzzzzzzzzzzzzzzzzzzzzzzzzzzzzzzzzzzzzzzzzzzzzzzzzzzzzzzzzzzzzz",
"zzzzzzzzzzzzzzzzzzzzzzzzzzzzzzzzzzzzzzzzzzzzzzzzzzzzzzzzzzzzzzzzzzzzzzzzzzzzzzzzzzzzzzzzzzzzzzzzzzzzzzzzzzzzzzzzzzzzzzzzzzzzzzzzzzddddddiiiiiiiiiiiiiiiiiiiiiiiipppppp<<44<<333333555555666666666666888888fffffsccccccbbbbbbNNNNNNNNNVVVZZZZZZCCCCCCCCCCCCCCCCCCCCCCCCMMMMMMmmmmmmCCCCCCCCCCCCCCCCCCCCCCCCZZZZZZVVVVVVVVVVVVbbbbbbfffkkkssssss668888666686666666555555333333<4<<<<iiiiiizzzzzzzzzzzzzzzzzzzzzzzzzzzzzzzzzzzzzzzzzzzzzzzzzzzzzzzzzzzzzzzzzzzzzzzzzzzzzzzzzzzzzzzzzzzzzzzzzzzzzzzzzzzzzzzzzzzzzzzzzzzzzzzzzzzzzzzz",
"zzzzzzzzzzzzzzzzzzzzzzzzzzzzzzzzzzzzzzzzzzzzzzzzzzzzzzzzzzzzzzzzzzzzzzzzzzzzzzzzzzzzzzzzzzzzzzzzzzzzzzzzzzzzzzzzzzzzzzzzzzzzzzzzzzddddddiiiiiiiiiiiiiiiiiiiiiiiipppppp44444<333333555555866666666666888888ffffssccccccbbbbbbNNNNNNNNNNNNZZZZZZCCCCCCCCCCCCCCCCCCCCCCCCMMMMMMmmmmmmCCCCCCCCCCCCCCCCCCCCCCCCZZZZZZVVVVVVVVNNNNbbbbbbffffffssssss888888666666666668555555333333<<<<<<iiiiiizzzzzzzzzzzzzzzzzzzzzzzzzzzzzzzzzzzzzzzzzzzzzzzzzzzzzzzzzzzzzzzzzzzzzzzzzzzzzzzzzzzzzzzzzzzzzzzzzzzzzzzzzzzzzzzzzzzzzzzzzzzzzzzzzzzzzzzz",
"zzzzzzzzzzzzzzzzzzzzzzzzzzzzzzzzzzzzzzzzzzzzzzzzzzzzzzzzzzzzzzzzzzzzzzzzzzzzzzzzzzzzzzzzzzzzzzzzzzzzzzzzzzzzzzzzzzzzzzzzzzzzzzzzzzddddddiiiiiiiiiiiiiiiiiiiiiiiipppppp<<44<<333333555555886666666688888888ffffssccccccbbbbbbNNNNNNNVNNNNZZZZZZCCCCCCCCCCCCCCCCCCCCCCCCMMMMMMmmmmmmCCCCCCCCCCCCCCCCCCCCCCCCZZZZZZVVVVVVVVNNNNbbbbbbffffffssssss888888666666666666555555333333<4<<<<iiiiiizzzzzzzzzzzzzzzzzzzzzzzzzzzzzzzzzzzzzzzzzzzzzzzzzzzzzzzzzzzzzzzzzzzzzzzzzzzzzzzzzzzzzzzzzzzzzzzzzzzzzzzzzzzzzzzzzzzzzzzzzzzzzzzzzzzzzzzz",
"zzzzzzzzzzzzzzzzzzzzzzzzzzzzzzzzzzzzzzzzzzzzzzzzzzzzzzzzzzzzzzzzzzzzzzzzzzzzzzzzzzzzzzzzzzzzzzzzzzzzzzzzzzzzzzzzzzzzzzzzzzzzzzzzzziiiiiipppppppppppppppppp11pppp222222333333555555555555555555555555000088ffffffbbbbbbNNNNNmVVVVVVVVVVVVVVZZZZCCCCCCBBBBBBCCCCCCCCCCCCmmMMMMnnnnnnZZCCCCCCCCCCBBBBBBCCCCCCBBBZZBBBBBVVVVVVVVNNNNNNbbbbbbffffff888888555555555555555555555555333333221111zzzzzziiiiiiiiiiiiiiiiiiddddddzzzzzzzzzzzzzzzzzzzzzzzzzzzzzzzzzzzzzzzzzzzzzzzzzzzzzzzzzzzzzzzzzzzzzzzzzzzzzzzzzzzzzzzzzzzzzzzzzzzzzzzzzz",
"zzzzzzzzzzzzzzzzzzzzzzzzzzzzzzzzzzzzzzzzzzzzzzzzzzzzzzzzzzzzzzzzzzzzzzzzzzzzzzzzzzzzzzzzzzzzzzzzzzzzzzzzzzzzzzzzzzzzzzzzzzzzzzzzzziiiiiipppppppppppppppppp1ppppp222222333333555555555555555555555555000088ffffffbbbbbbNNNNNNVVVVVVVVVVVVZZZZZZCCCCCCBBBBBBCCCCCCCCCCCCmmMMMMnnnnnnZCCCCCCCCCCCBBBBBBCCCCCCBBBBBBBBBBVVVVVVVVNNNNNNbbbbbbffffff888888555555555555555555555555333333222111zzzzzziiiiiiiiiiiiiiiiiiddddddzzzzzzzzzzzzzzzzzzzzzzzzzzzzzzzzzzzzzzzzzzzzzzzzzzzzzzzzzzzzzzzzzzzzzzzzzzzzzzzzzzzzzzzzzzzzzzzzzzzzzzzzzz",
"zzzzzzzzzzzzzzzzzzzzzzzzzzzzzzzzzzzzzzzzzzzzzzzzzzzzzzzzzzzzzzzzzzzzzzzzzzzzzzzzzzzzzzzzzzzzzzzzzzzzzzzzzzzzzzzzzzzzzzzzzzzzzzzzzziiiiiipppppppppppppppppp11111p222222333333555555555555555555555555000000ffffffbbbbbbNNmNNNVVVVVVVVVVVVBBVVVVCCCCCCBBBBBBCCCCCCCCCCCCmmmMMMnnnnnnCCCCCZCCCCCCBBBBBBCCCCCCZZBBBBVVVVBBVVVVVVNNNNNNbbbbbbffffff888888555555555555555555555555333333111121zzzzzziiiiiiiiiiiiiiiiiiddddddzzzzzzzzzzzzzzzzzzzzzzzzzzzzzzzzzzzzzzzzzzzzzzzzzzzzzzzzzzzzzzzzzzzzzzzzzzzzzzzzzzzzzzzzzzzzzzzzzzzzzzzzzz",
"zzzzzzzzzzzzzzzzzzzzzzzzzzzzzzzzzzzzzzzzzzzzzzzzzzzzzzzzzzzzzzzzzzzzzzzzzzzzzzzzzzzzzzzzzzzzzzzzzzzzzzzzzzzzzzzzzzzzzzzzzzzzzzzzzziiiiiipppppppppppppppppp11111p222222333333555555555555555555555555000000ffffffbbbbbbNNmNNNVVVVVVVVVVVVZZVVVVCCCCCCBBBBBBCCCCCCCCCCCCmmMMMMnnnnnnCCCCZZCCCCCCBBBBBBCCCCCCBZBBBBVVVVBBVVVVVVNNNNNNbbbbbbffffff888888555555555555555555555555333333112122zzzzzziiiiiiiiiiiiiiiiiiddddddzzzzzzzzzzzzzzzzzzzzzzzzzzzzzzzzzzzzzzzzzzzzzzzzzzzzzzzzzzzzzzzzzzzzzzzzzzzzzzzzzzzzzzzzzzzzzzzzzzzzzzzzzz",
"zzzzzzzzzzzzzzzzzzzzzzzzzzzzzzzzzzzzzzzzzzzzzzzzzzzzzzzzzzzzzzzzzzzzzzzzzzzzzzzzzzzzzzzzzzzzzzzzzzzzzzzzzzzzzzzzzzzzzzzzzzzzzzzzzziiiiiipppppppppppppppppp111111222222333333555555555555555555555555000000ffffffbbbbbbNNmmNNVVVVVVVVVVVVZZZZVZCCCCCCBBBBBBCCCCCCCCCCCCmmMMMMnnnnnnCCZZZZCCCCCCBBBBBBCCCCCCZZBBBBBBVVBBVVVVVVNNNNNNbbbbbbffffff888888555555555555555555555555333333222222zzzzzziiiiiiiiiiiiiiiiiiddddddzzzzzzzzzzzzzzzzzzzzzzzzzzzzzzzzzzzzzzzzzzzzzzzzzzzzzzzzzzzzzzzzzzzzzzzzzzzzzzzzzzzzzzzzzzzzzzzzzzzzzzzzzz",
"zzzzzzzzzzzzzzzzzzzzzzzzzzzzzzzzzzzzzzzzzzzzzzzzzzzzzzzzzzzzzzzzzzzzzzzzzzzzzzzzzzzzzzzzzzzzzzzzzzzzzzzzzzzzzzzzzzzzzzzzzzzzzzzzzziiiiiipppppppppppppppppp111111221222333333555555555555555555555555000000ffffffbbbbbbNNmmNNVVVVVVVVVVVVZZZZZZCCCCCCBBBBBBCCCCCCCCCCCCmmMMMMnnnnnnCCZZZZCCCCCCBBBBBBCCCCCCZZZZBBBBVVBBVVVVVVNNNNNNbbbbbbffffff888888555555555555555555555555333333222222zzzzzziiiiiiiiiiiiiiiiiiddddddzzzzzzzzzzzzzzzzzzzzzzzzzzzzzzzzzzzzzzzzzzzzzzzzzzzzzzzzzzzzzzzzzzzzzzzzzzzzzzzzzzzzzzzzzzzzzzzzzzzzzzzzzz",
"zzzzzzzzzzzzzzzzzzzzzzzzzzzzzzzzzzzzzzzzzzzzzzzzzzzzzzzzzzzzzzzzzzzzzzzzzzzzzzzzzzzzzzzzzzzzzzzzzzzzzzzzzzzzzzzzzzzzzzzzzzzzzzzzzzzzzzzz221122222222222222222222444444555555888866666666ssssss666666ffffffvvccccbbbbbbNNNNNNZZZZZZZZZZZZBBBBBBBBBBBBCCCCCCCCCCCCCCCCCCnnMMnnnnnnnnZZZZZZCCCCCCCCCCCCBBBBBBZZZZZZZZZZZZZZZZZZVVVVNNNNNNmmccccccffffff777777sssshh555555666666555555<44444iiiiii111111111111ppppppiiiiiiddddddzzzzzzzzzzzzzzzzzzzzzzzzzzzzzzzzzzzzzzzzzzzzzzzzzzzzzzzzzzzzzzzzzzzzzzzzzzzzzzzzzzzzzzzzzzzzzzzzzzzz",
"zzzzzzzzzzzzzzzzzzzzzzzzzzzzzzzzzzzzzzzzzzzzzzzzzzzzzzzzzzzzzzzzzzzzzzzzzzzzzzzzzzzzzzzzzzzzzzzzzzzzzzzzzzzzzzzzzzzzzzzzzzzzzzzzzzzzzzzz211122221122222212222222444444555555888866666666ssssss666666ffffffvvccccbbbbbbNNNNNNZZZZZZZZZZZZBBBBBBBBBBBBCCCCCCCCCCCCCCCCCCnnMMnnnnnnnnZZZZZZCCCCCCCCCCCCBBBBBBZZZZZZZZZZZZZZZZZZVVVVNNmmNNmmccccccffffff777777sssshh555555666666555555<44444iiiiii111111111111ppppppiiiiiiddddddzzzzzzzzzzzzzzzzzzzzzzzzzzzzzzzzzzzzzzzzzzzzzzzzzzzzzzzzzzzzzzzzzzzzzzzzzzzzzzzzzzzzzzzzzzzzzzzzzzzz",
"zzzzzzzzzzzzzzzzzzzzzzzzzzzzzzzzzzzzzzzzzzzzzzzzzzzzzzzzzzzzzzzzzzzzzzzzzzzzzzzzzzzzzzzzzzzzzzzzzzzzzzzzzzzzzzzzzzzzzzzzzzzzzzzzzzzzzzzz221111221111212211222222444444555555888866666666ssssss666666ffffffvvccvvbbbbbbNNNNNNZZZZZZZZZZZZBBBBBBBBBBBBCCCCCCCCCCCCCCCCCCnnMMMnnnnnnnZZZZZZCCCCCCCCCCCCBBBBBBZZZZZZZZZZZZZZZZZZVVNNNNmmNNNmccccccffffff777777ssshhh555555666666555555<<44<4iiiiii111111111111ppppppiiiiiiddddddzzzzzzzzzzzzzzzzzzzzzzzzzzzzzzzzzzzzzzzzzzzzzzzzzzzzzzzzzzzzzzzzzzzzzzzzzzzzzzzzzzzzzzzzzzzzzzzzzzzz",
"zzzzzzzzzzzzzzzzzzzzzzzzzzzzzzzzzzzzzzzzzzzzzzzzzzzzzzzzzzzzzzzzzzzzzzzzzzzzzzzzzzzzzzzzzzzzzzzzzzzzzzzzzzzzzzzzzzzzzzzzzzzzzzzzzzzzzzzz221111221111112211222222444444555555888866666666ssssss666666ffffffvvcccvbbbbbbNNNNNNZZZZZZZZZZZZBBBBBBBBBBBBCCCCCCCCCCCCCCCCCCnnMMnnnnnnnnZZZZZZCCCCCCCCCCCCBBBBBBZZZZZZZZZZZZZZZZZZVVVNNNmmNNmmccccccffffff777777sssshh555555666666555555<<<4<<iiiiii111111111111ppppppiiiiiiddddddzzzzzzzzzzzzzzzzzzzzzzzzzzzzzzzzzzzzzzzzzzzzzzzzzzzzzzzzzzzzzzzzzzzzzzzzzzzzzzzzzzzzzzzzzzzzzzzzzzzz",
"zzzzzzzzzzzzzzzzzzzzzzzzzzzzzzzzzzzzzzzzzzzzzzzzzzzzzzzzzzzzzzzzzzzzzzzzzzzzzzzzzzzzzzzzzzzzzzzzzzzzzzzzzzzzzzzzzzzzzzzzzzzzzzzzzzzzzzzz221122222222221222222222444444555555888888666666ssssss666666ffffffccccvvbbbbbbNNNNNNVZZZZZZZZZZZBBBBBBBBBBBBCCCCCCCCCCCCCCCCCCnnnnnnnnnnnnZZZZZZCCCCCCCCCCCCBBBBBBZZZZZZZZZZZZZZZZZZVVNNNNNNmmmmccccccffffff777777hhssss5555556666665555554444<<iiiiii111111111111ppppppiiiiiiddddddzzzzzzzzzzzzzzzzzzzzzzzzzzzzzzzzzzzzzzzzzzzzzzzzzzzzzzzzzzzzzzzzzzzzzzzzzzzzzzzzzzzzzzzzzzzzzzzzzzzz",
"zzzzzzzzzzzzzzzzzzzzzzzzzzzzzzzzzzzzzzzzzzzzzzzzzzzzzzzzzzzzzzzzzzzzzzzzzzzzzzzzzzzzzzzzzzzzzzzzzzzzzzzzzzzzzzzzzzzzzzzzzzzzzzzzzzzzzzzz221122222222111122222222444444555555888888666666ssssss666666ffffffccccvvbbbbbbNNNNNNZZZZZZZZZZZZBBBBBBBBBBBBCCCCCCCCCCCCCCCCCCnnnnnnnnnnnnZZZZZZCCCCCCCCCCCCBBBBBBZZZZZZZZZZZZZZZZZZVVNNNNNNmmmmccccccffffff777777hhssss5555556666665555554444<<iiiiii111111111111ppppppiiiiiiddddddzzzzzzzzzzzzzzzzzzzzzzzzzzzzzzzzzzzzzzzzzzzzzzzzzzzzzzzzzzzzzzzzzzzzzzzzzzzzzzzzzzzzzzzzzzzzzzzzzzzz",
"zzzzzzzzzzzzzzzzzzzzzzzzzzzzzzzzzzzzzzzzzzzzzzzzzzzzzzzzzzzzzzzzzzzzzzzzzzzzzzzzzzzzzzzzzzzzzzzzzzzzzzzzzzzzzzzzzzzzzzzzzzzz11pp11<<<<<<<<<<<<<<<4<<444444555555555555555555777777ssssssssssssffffffccccccbbbbbbNNNNNNVVVVVVVVVVVVBBBBBBBBBBBBCCCCCCCCCCCCCCCCCCVVVVVVtttttttlttllBBZZVVCCCCCCCCCCCCCCCCCCBBBBBBBBBBBBBBVVZZVVVVVVNNmmmmvvvvvvccccccffffff900099ssssss5555555555555555555555553333334444<<ppppppiiiiiiiiiiiizzzzzzzzzzzzzzzzzzzzzzzzzzzzzzzzzzzzzzzzzzzzzzzzzzzzzzzzzzzzzzzzzzzzzzzzzzzzzzzzzzzzzzzzzzzzzzzzzzzz",
"zzzzzzzzzzzzzzzzzzzzzzzzzzzzzzzzzzzzzzzzzzzzzzzzzzzzzzzzzzzzzzzzzzzzzzzzzzzzzzzzzzzzzzzzzzzzzzzzzzzzzzzzzzzzzzzzzzzzzzzzzzzz11pp11<<<<<<<<<<<<<<<<<<444444555555555555555555777777ssssssssssssffffffccccccbbbbbbNNNNNNVVVVVVVVVVVVBBBBBBBBBBBBCCCCCCCCCCCCCCCCCCVVVVVVttlttttlttllBBVVVVCCCCCCCCCCCCCCCCCCBBBBBBBBBBBBBBZZZZVVVVVVNNNNmmvvvvvvccccccffffff900099ssssss5555555555555555555555553333334444<<ppppppiiiiiiiiiiiizzzzzzzzzzzzzzzzzzzzzzzzzzzzzzzzzzzzzzzzzzzzzzzzzzzzzzzzzzzzzzzzzzzzzzzzzzzzzzzzzzzzzzzzzzzzzzzzzzzz",
"zzzzzzzzzzzzzzzzzzzzzzzzzzzzzzzzzzzzzzzzzzzzzzzzzzzzzzzzzzzzzzzzzzzzzzzzzzzzzzzzzzzzzzzzzzzzzzzzzzzzzzzzzzzzzzzzzzzzzzzzzzzz11pp11<<<<<<<<<<<<<<<<<<444444555555555555555555777777ssssssssssssffffffccccccbbbbbbNNNNNNNNVVVVVVVVVVBBBBBBBBBBBBCCCCCCCCCCCCCCCCCCmmmVVVttllllllltttZBBBVVCCCCCCCCCCCZCCCCCCBBBBBBBBBBBBBBBVZZVVVVVVmmNNNmvvvvvvccccccffffff999999ssssss555555555555555555555555333333<<44<<ppppppiiiiiiiiiiiizzzzzzzzzzzzzzzzzzzzzzzzzzzzzzzzzzzzzzzzzzzzzzzzzzzzzzzzzzzzzzzzzzzzzzzzzzzzzzzzzzzzzzzzzzzzzzzzzzzz",
"zzzzzzzzzzzzzzzzzzzzzzzzzzzzzzzzzzzzzzzzzzzzzzzzzzzzzzzzzzzzzzzzzzzzzzzzzzzzzzzzzzzzzzzzzzzzzzzzzzzzzzzzzzzzzzzzzzzzzzzzzzzz11pp11<<<<<<<<<<<<<<<4<<444444555555555555555555777777ssssssssssssffffffccccccbbbbbbNNNNNNNNVVVVVVVVVVBBBBBBBBBBBBCCCCCCCCCCCCCCCCCCmmmmVVttllllllttttVVBBVVCCCCCCCCCCCZCCCCCCBBBBBBBBBBBBZBBBZZVVVVVVmmNNNmvvvvvvccccccffffff999999ssssss555555555555555555555555333333<<44<<ppppppiiiiiiiiiiiizzzzzzzzzzzzzzzzzzzzzzzzzzzzzzzzzzzzzzzzzzzzzzzzzzzzzzzzzzzzzzzzzzzzzzzzzzzzzzzzzzzzzzzzzzzzzzzzzzzz",
"zzzzzzzzzzzzzzzzzzzzzzzzzzzzzzzzzzzzzzzzzzzzzzzzzzzzzzzzzzzzzzzzzzzzzzzzzzzzzzzzzzzzzzzzzzzzzzzzzzzzzzzzzzzzzzzzzzzzzzzzzzzz11pppp<<<<<<<<<<<<<<4444444444555555555555555555777777ssssssssssssffffffccccccbbbbbbNNNNmmNNVVVVZZVVVVBBBBBBBBBBBBCCCCCCCCCCCCCCCCCCVVVVVVttttttllllttVVBZVVCCCCCCCCCCZZCCCCCCZZBZBBBBBBBBZZBBBBVVVVVVmmNNmmvvvvvvccccccffffff999999ssssss555555555555555555555555333333<<<<<<ppppppiiiiiiiiiiiizzzzzzzzzzzzzzzzzzzzzzzzzzzzzzzzzzzzzzzzzzzzzzzzzzzzzzzzzzzzzzzzzzzzzzzzzzzzzzzzzzzzzzzzzzzzzzzzzzzz",
"zzzzzzzzzzzzzzzzzzzzzzzzzzzzzzzzzzzzzzzzzzzzzzzzzzzzzzzzzzzzzzzzzzzzzzzzzzzzzzzzzzzzzzzzzzzzzzzzzzzzzzzzzzzzzzzzzzzzzzzzzzzz11pppp<<<<<<<<<<<<<<4444444444555555555555555555777777ssssssssssssffffffccccccbbbbbbmmNNNmNNVVVVZZVVVVBBBBBBBBBBBBCCCCCCCCCCCCCCCCCCVVVVVVttttttllllttVVZZVVCCCCCCCCCCZZCCCCCCZZZZBBBBBBBBBZBBBBVVVVVVmmmmmmvvvvvvccccccffffff999999ssssss555555555555555555555555333333<<<<<<ppppppiiiiiiiiiiiizzzzzzzzzzzzzzzzzzzzzzzzzzzzzzzzzzzzzzzzzzzzzzzzzzzzzzzzzzzzzzzzzzzzzzzzzzzzzzzzzzzzzzzzzzzzzzzzzzzz",
"zzzzzzzzzzzzzzzzzzzzzzzzzzzzzzzzzzzzzzzzzzzzzzzzzzzzzzzzzzzzzzzzzzzzzzzzzzzzzzzzzzzzzzzzzzzzzzzzzzzzzzzzzzzzzzzzzzzzzzzzzzzzzzzzzz221111444444333333555555553355666666777777999999ssssssffffffkkkkkkccccccvvvvvvNNNVVVVVVVVVBBBBBBCCCCCCCCCCCCCCCCCCmmmmmmVVVVVVAAAVVmllllllllllllZZZZZZZZZZZZmmNmmmZZZZZZCCCCCCCCCCCCBBBBBBVVVVVVNNNNNNbbbbbbvvvvvvccccccffffff000000888888557777666666555555555555333333<<444<222222ppppppzzzzzzzzzzzzzzzzzzzzzzzzzzzzzzzzzzzzzzzzzzzzzzzzzzzzzzzzzzzzzzzzzzzzzzzzzzzzzzzzzzzzzzzzzzzzzzzzzzzz",
"zzzzzzzzzzzzzzzzzzzzzzzzzzzzzzzzzzzzzzzzzzzzzzzzzzzzzzzzzzzzzzzzzzzzzzzzzzzzzzzzzzzzzzzzzzzzzzzzzzzzzzzzzzzzzzzzzzzzzzzzzzzzzzzzzz2211114444<<333333555555553355666666777777999999ssssssffffffkkkkkkccccccvvvvvvNNNNNNVVVVVVBBBBBBCCCCCCCCCCCCCCCCCCmVmmVVVVVVVVAAVVmmllllllllllllZZZZZZZVZZZZmmNNmmZZZZZZCCCCCCCCCCCCBBBBBBVVVVVVNNNNNNbbbbbbvvvvvvccccccffffff000000888888557755666666555555555555333333<<444<222222ppppppzzzzzzzzzzzzzzzzzzzzzzzzzzzzzzzzzzzzzzzzzzzzzzzzzzzzzzzzzzzzzzzzzzzzzzzzzzzzzzzzzzzzzzzzzzzzzzzzzzzz",
"zzzzzzzzzzzzzzzzzzzzzzzzzzzzzzzzzzzzzzzzzzzzzzzzzzzzzzzzzzzzzzzzzzzzzzzzzzzzzzzzzzzzzzzzzzzzzzzzzzzzzzzzzzzzzzzzzzzzzzzzzzzzzzzzzz22221144<<<<333333555555553555666688777777999999ssssssffffffkkffkkccccccvvvvvvNNNNNNVVVVVVBBBBBBCCCCCCCCCCCCCCCCCCVVVVVVVVVVVVAAmmmmllllllllllllZZZZZZZVZZZZmmmmmmZZZZZZCCCCCCCCCCCCBBBBBBVVVVVVNNNNNNbbbbbbvvvvvvccccccffffff000000888888557755666666555555355555333333<<44<<112222ppppppzzzzzzzzzzzzzzzzzzzzzzzzzzzzzzzzzzzzzzzzzzzzzzzzzzzzzzzzzzzzzzzzzzzzzzzzzzzzzzzzzzzzzzzzzzzzzzzzzzzz",
"zzzzzzzzzzzzzzzzzzzzzzzzzzzzzzzzzzzzzzzzzzzzzzzzzzzzzzzzzzzzzzzzzzzzzzzzzzzzzzzzzzzzzzzzzzzzzzzzzzzzzzzzzzzzzzzzzzzzzzzzzzzzzzzzzz222111<<<<<<333333555555555555666688777777999999ssssssffffffkkffkkccccccvvvvvvNNNNNNVVVVVVBBBBBBCCCCCCCCCCCCCCCCCCVVVVVVVVVVVVmmmmmmllllllllllllZZZZZZVVZZZZmmmmmmZZZZZZCCCCCCCCCCCCBBBBBBVVVVVVNNNNNNbbbbbbvvvvvvccccccffffff0000008888885577556666665555553355553333334444<<111222ppppppzzzzzzzzzzzzzzzzzzzzzzzzzzzzzzzzzzzzzzzzzzzzzzzzzzzzzzzzzzzzzzzzzzzzzzzzzzzzzzzzzzzzzzzzzzzzzzzzzzzz",
"zzzzzzzzzzzzzzzzzzzzzzzzzzzzzzzzzzzzzzzzzzzzzzzzzzzzzzzzzzzzzzzzzzzzzzzzzzzzzzzzzzzzzzzzzzzzzzzzzzzzzzzzzzzzzzzzzzzzzzzzzzzzzzzzzz222222<<<<<<333333555555555555668888777777999999ssssssffffffkkffkkccccccvvvvvvNNNNNNVVVVVVBBBBBBCCCCCCCCCCCCCCCCCCVVVVVVVVVVVVmmmmmmllllllllllllZZZZZZVVVVZZmmmVmmZZZZZZCCCCCCCCCCCCBBBBBBVVVVVVNNNNNNbbbbbbvvvvvvccccccffffff00000088888855555566666655555555555533333344<<<<112222ppppppzzzzzzzzzzzzzzzzzzzzzzzzzzzzzzzzzzzzzzzzzzzzzzzzzzzzzzzzzzzzzzzzzzzzzzzzzzzzzzzzzzzzzzzzzzzzzzzzzzzz",
"zzzzzzzzzzzzzzzzzzzzzzzzzzzzzzzzzzzzzzzzzzzzzzzzzzzzzzzzzzzzzzzzzzzzzzzzzzzzzzzzzzzzzzzzzzzzzzzzzzzzzzzzzzzzzzzzzzzzzzzzzzzzzzzzzz222222<<<<<<333333555555555555666888777777999999ssssssffffffkkffkkccccccvvvvvvNNNNNNVVVVVVBBBBBBCCCCCCCCCCCCCCCCCCNNVVVVVVVVVVmmmmmmllllllllllllZZZZZZVVZZZZmmVVVVZZZZZZCCCCCCCCCCCCBBBBBBVVVVVVNNNNNNbbbbbbvvvvvvccccccffffff000000888888555555666666555555555535333333<<<<<<112212ppppppzzzzzzzzzzzzzzzzzzzzzzzzzzzzzzzzzzzzzzzzzzzzzzzzzzzzzzzzzzzzzzzzzzzzzzzzzzzzzzzzzzzzzzzzzzzzzzzzzzzz",
"zzzzzzzzzzzzzzzzzzzzzzzzzzzzzzzzzzzzzzzzzzzzzzzzzzzzzzzzzzzzzzzzzzzzzzzzzzzzzzzzzzzzzzzzzzzzzzzzzzzzzzzzzzzzzzzzzzzzzziiiiiiiiiiiiyyyyyy<<<<<<uuuuuu355555555555999999009999ssssssffffffffffffkcccccbbbbbbmmmmmmNNNNNNZZZZVVBBBBBBZZZZBBCCCCCCZZZZZZMmmmmmmmmmmmMMMMMMknnnnnnnnnnnMMMMMMMMMMMMmmmmmmmmmmmmCCCCCCBBBBBBBBBBBBBBBBBBNNVVVVNNNNNNmmmmmmvvvvvvkkkkccffffffssssss999999666666777777555555uuuuuu<<<<<<555555uuuuuuiiiiiizzzzzzzzzzzzzzzzzzzzzzzzzzzzzzzzzzzzzzzzzzzzzzzzzzzzzzzzzzzzzzzzzzzzzzzzzzzzzzzzzzzzzzzzzzzzzz",
"zzzzzzzzzzzzzzzzzzzzzzzzzzzzzzzzzzzzzzzzzzzzzzzzzzzzzzzzzzzzzzzzzzzzzzzzzzzzzzzzzzzzzzzzzzzzzzzzzzzzzzzzzzzzzzzzzzzzzziiiiiiiiiiiiyyyyyy<<<<<<uuuuuu533355555555999999000099ssssssffffffffffffkkccccbbbbbbmmmmmmNNNNNNZZZZVVBBBBBBZZZZZBCCCCCCZZZZZZMMmmmmmmmmmmMMMMMMkknnnnnnnnnnMMMMMMMMMMMMmmmmmmmmmmmmCCCCCCBBBBBBBBBBBBBBBBBBVVVVVVmmmNNNmmmmmmvvvvvvkkkkccffffffssssss999999666666777777555555uuuuuu<<<<<<555555uuuuuuiiiiiizzzzzzzzzzzzzzzzzzzzzzzzzzzzzzzzzzzzzzzzzzzzzzzzzzzzzzzzzzzzzzzzzzzzzzzzzzzzzzzzzzzzzzzzzzzzzz",
"zzzzzzzzzzzzzzzzzzzzzzzzzzzzzzzzzzzzzzzzzzzzzzzzzzzzzzzzzzzzzzzzzzzzzzzzzzzzzzzzzzzzzzzzzzzzzzzzzzzzzzzzzzzzzzzzzzzzzziiiiiiiiiiiiyyyyyy<<<<<<uuuuuu555555555555999999000000ssssssffffffffffffckccccbbbbbbmmmmmmNNNNNNZZZZZBBBBBBBZZZZZZCCCCCCZZZZZZmmmmmMmmVVVmMMMMMMkknnnnnnnnnnMMMMMMMMMMMMmmmmmmmmmmmmCCCCCCZZZZZZBBBBBBBBBBBBVVVNNVNNNNNNmmmmmmvvvvvvkkkkkcffffffssshhh999999666666777777555555uuuuuu<<<<<<555555uuuuuuppppiizzzzzzzzzzzzzzzzzzzzzzzzzzzzzzzzzzzzzzzzzzzzzzzzzzzzzzzzzzzzzzzzzzzzzzzzzzzzzzzzzzzzzzzzzzzzzz",
"zzzzzzzzzzzzzzzzzzzzzzzzzzzzzzzzzzzzzzzzzzzzzzzzzzzzzzzzzzzzzzzzzzzzzzzzzzzzzzzzzzzzzzzzzzzzzzzzzzzzzzzzzzzzzzzzzzzzzziiiiiiiiiiiiyyyyyy<<<<<<uuuuuu555555555555999999000000ssssssffffffffffffckccccbbbbbbmmmmmmNNNNNNVVZZZVBBBBBBZZZZZZCCCCCCZZZZZZmmmmMMmmVVmmMMMMMMkknnnnnnnnkkMMMMMMMMMMMMmmmmmmmmmmmmCCCCCCZZZZZZBBBBBBBBBBBBVVVNNNNNmmNNmmmmmmvvvvvvkkkkkkffffffssshsh999999666666777777555555uuuuuu<<<<<<555555uuuuuuppppiizzzzzzzzzzzzzzzzzzzzzzzzzzzzzzzzzzzzzzzzzzzzzzzzzzzzzzzzzzzzzzzzzzzzzzzzzzzzzzzzzzzzzzzzzzzzzz",
"zzzzzzzzzzzzzzzzzzzzzzzzzzzzzzzzzzzzzzzzzzzzzzzzzzzzzzzzzzzzzzzzzzzzzzzzzzzzzzzzzzzzzzzzzzzzzzzzzzzzzzzzzzzzzzzzzzzzzziiiiiiiiiiiiyyyyyy<<<<<<uuuuuu555555555555999999000000ssssssffffffffffffcckkccbbbbbbmmmmmmNNNNNNVVZZVVBBBBBBZZZZZZCCCCCCZZZZZZmmmmMMmmmmmmMMMMMMkknnnnnnnnknMMMMMMMMMMMMmmmmmmmmmmmmCCCCCCBZBBBBBBBBBBBBBBBBVVNNNNmmmmNNmmmmmmvvvvvvkkkkkkssffffssssss999999666666777777555555uuuuuu<<<<<<555555uuuuuuiippiizzzzzzzzzzzzzzzzzzzzzzzzzzzzzzzzzzzzzzzzzzzzzzzzzzzzzzzzzzzzzzzzzzzzzzzzzzzzzzzzzzzzzzzzzzzzzz",
"zzzzzzzzzzzzzzzzzzzzzzzzzzzzzzzzzzzzzzzzzzzzzzzzzzzzzzzzzzzzzzzzzzzzzzzzzzzzzzzzzzzzzzzzzzzzzzzzzzzzzzzzzzzzzzzzzzzzzziiiiiiiiiiiiyyyyyy<<<<<<uuuuuu555555555555999999000000ssssssffffffffffffcckkccbbbbbbmmmmmmNNNNNNVVZZVVBBBBBBZZZZZZCCCCCCZZVZZZmmmmMMmmmmmmMMMMMMkknnnnnnnnknMMMMMMMMMMMMmmmmmmmmmmmmCCCCCCBBBBBBBBBBBBBBBBBBVVNNNNmmNmNNmmmmmmvvvvvvkkkkkksssfffssssss999999666666777777555555uuuuuu<<<<<<555555uuuuuuiippiizzzzzzzzzzzzzzzzzzzzzzzzzzzzzzzzzzzzzzzzzzzzzzzzzzzzzzzzzzzzzzzzzzzzzzzzzzzzzzzzzzzzzzzzzzzzzz",
"zzzzzzzzzzzzzzzzzzzzzzzzzzzzzzzzzzzzzzzzzzzzzzzzzzzzzzzzzzzzzzzzzzzzzzzzzzzzzzzzzzzzzzzzzzzzzzzzzzzzzzzzzzzzzzzziiiiiiiippiiuuuuuu333333555555666666666666888888888888000000sssssskkkkffvvvvvvbbbbbbmmmmmmNNVVVVVVVVVVVVVVVVBBBBBBZZBBBBVVVVVVmmMMMMmmmMmmmmMMmmmmmmMMnnnlnnnnnnkkVVVVVVmmmmmmmmMMMMmmmmMMmmmmmmBBBBBBBBBBBBBBBBBBBBBBBBVVVVVVmmNNNmbbbbbbccccvvkkccccffffffssffssssssss999999888888666666555555uuuuuuuuuuuuppppppiiiiiizzzzzzzzzzzzzzzzzzzzzzzzzzzzzzzzzzzzzzzzzzzzzzzzzzzzzzzzzzzzzzzzzzzzzzzzzzzzzzzzzzzzzzzz",
"zzzzzzzzzzzzzzzzzzzzzzzzzzzzzzzzzzzzzzzzzzzzzzzzzzzzzzzzzzzzzzzzzzzzzzzzzzzzzzzzzzzzzzzzzzzzzzzzzzzzzzzzzzzzzzzziiiiiiiippiiuuuuuu333333555555666666666666888888888888000000sssssskkkkffvvvvvvbbbbbbmmmmmmNNVVVVVVVVVVVVVVVVBBBBBBZZBBBBVVVVVVmmMMMMmmmmmmmmMMmmmmmmMMnlnnnnnnnnkkVVVVVVmmmmmmmmMMMMmmmmMMmmmmmmBBBBBBBBBBBBBBBBBBBBBBBVVVVVVVmmNNNNbbbbbbccccvvckccccffffffssffssssssss999999888888666666555555uuuuuuuuuuuuppppppiiiiiizzzzzzzzzzzzzzzzzzzzzzzzzzzzzzzzzzzzzzzzzzzzzzzzzzzzzzzzzzzzzzzzzzzzzzzzzzzzzzzzzzzzzzzz",
"zzzzzzzzzzzzzzzzzzzzzzzzzzzzzzzzzzzzzzzzzzzzzzzzzzzzzzzzzzzzzzzzzzzzzzzzzzzzzzzzzzzzzzzzzzzzzzzzzzzzzzzzzzzzzzzziiiiiiiippppuuuuuu333333555553666666666666888888888888000000sssssskkkfffvvvvvvbbbbbbmmmmmmNNVVVVVVVVVVVVVVVVBBBBBBZZZZBBVVVVVVmmmmMMmmmmmmmmmmmmmmmmMMnnnnnnnnkkkkVVVVVVmmmmmmmmmMMMmmMMMMmmmmmmBBBBBBBBBBBBBBBBBBVBBBBVVVVVVVmmNNNNbbbbbbcccvvvccccccffffffsfffssssssss999999888888666666555555uuuuuuuuuuuuppppppiiiiiizzzzzzzzzzzzzzzzzzzzzzzzzzzzzzzzzzzzzzzzzzzzzzzzzzzzzzzzzzzzzzzzzzzzzzzzzzzzzzzzzzzzzzzz",
"zzzzzzzzzzzzzzzzzzzzzzzzzzzzzzzzzzzzzzzzzzzzzzzzzzzzzzzzzzzzzzzzzzzzzzzzzzzzzzzzzzzzzzzzzzzzzzzzzzzzzzzzzzzzzzzziiiiiiiippppuuuuuu333333555535666666666666888888888888000000sssssskkkfffvvvvvvbbbbbbmmmmmmNNNVVVVVVVVVVVVVVVBBBBBBZZZZBBVVVVVVmmmmMMmmmmmmmmmmmmmmmMMMnnnnnnnnkkkkVVVVVVmmmmmmmmmMMMmmmMMMmmmmmmBBBBBBBBBBBBBBBBBBBBBBVVVVVVVVmmNNNNbbbbbbcccvvvccccccffffffssffssssssss999999888888666666555555uuuuuuuuuuuuppppppiiiiiizzzzzzzzzzzzzzzzzzzzzzzzzzzzzzzzzzzzzzzzzzzzzzzzzzzzzzzzzzzzzzzzzzzzzzzzzzzzzzzzzzzzzzzz",
"zzzzzzzzzzzzzzzzzzzzzzzzzzzzzzzzzzzzzzzzzzzzzzzzzzzzzzzzzzzzzzzzzzzzzzzzzzzzzzzzzzzzzzzzzzzzzzzzzzzzzzzzzzzzzzzziiiiiiiiiiiiuuuuuu333333555555666666688866888888888888000009ssssssffkkkkvvvvvvbbbbbbmmmmmmVVVVVVVVVVVVVVVVVVBBBBBBBBBBBBZZZVVZmmmmmmMMMMMMmmMMMMmmmmmmnnnnnnnnnnnnmmmVVVMMMMMMmmMmmmMMMMMMmmmmmmBBBBBBBBBBBBBBBBBBBBBBBBVVVVVVmmNNNNbbbbbbvvccccccccccffffffssssffssssss999999888888666666555555uuuuuuuuuuuuppppppiiiiiizzzzzzzzzzzzzzzzzzzzzzzzzzzzzzzzzzzzzzzzzzzzzzzzzzzzzzzzzzzzzzzzzzzzzzzzzzzzzzzzzzzzzzzz",
"zzzzzzzzzzzzzzzzzzzzzzzzzzzzzzzzzzzzzzzzzzzzzzzzzzzzzzzzzzzzzzzzzzzzzzzzzzzzzzzzzzzzzzzzzzzzzzzzzzzzzzzzzzzzzzzziiiiiiiiiiiiuuuuuu333333555555666666688866888888888888000009ssssssffkkkkvvvvvvbbbbbbmmmmmmVVVVVVVVVVVVVVVVVVBBBBBBBBBBBBZZZVVVmMmmMmMMMMMMmmMMMMmmmmmmnnnnnnnnnnnnmmVVVVMMMMMMmmMmMmMMMMMMmmmmmmBBBBBBBBBBBBBBBBBBBBBBBBVVVVVVNmNNNmbbbbbbvvccccccccccffffffssssffssssss999999888888666666555555uuuuuuuuuuuuppppppiiiiiizzzzzzzzzzzzzzzzzzzzzzzzzzzzzzzzzzzzzzzzzzzzzzzzzzzzzzzzzzzzzzzzzzzzzzzzzzzzzzzzzzzzzzzz",
"zzzzzzzzzzzzzzzzzzzzzzzzzzzzzzzzzzzzzzzzzzzzzzzzzzzzzzzzzzzzzzzzzzzzzzzzzzzzzzzzzzzzzzzzzzzzzzzzzzzzzzzzzzddddddiiiiiiuuuuqq555555555555555555888888880088999999ssssssffffffccccccccvvccbbvvvvbbbbbbmmmmmmVVVVVVBBBBBBBBBBBBBBBBBBBBBBBBMMMMMMMMMMMMMMMMMMMMMMMMMmmMMMnnnnnnnnnnnnMMMMmmMMMMMMMMMMMMMMMMMMmmmmmmBBBBBBBBBBBBBBBBBBBBBBBBVVVVVVmmmmmmbbbbbbvvccvccccccccfffccffffffssssffhhssss888888888868uuuuuu555555uuuuuuuuuuuuiiiiiiddddddzzzzzzzzzzzzzzzzzzzzzzzzzzzzzzzzzzzzzzzzzzzzzzzzzzzzzzzzzzzzzzzzzzzzzzzzzzzzzzzzzz",
"zzzzzzzzzzzzzzzzzzzzzzzzzzzzzzzzzzzzzzzzzzzzzzzzzzzzzzzzzzzzzzzzzzzzzzzzzzzzzzzzzzzzzzzzzzzzzzzzzzzzzzzzzzddddddiiiiiiuuquqq555555555555555555888888880088999999ssssssffffffkfccccccccccbbvvvvbbbbbbmmmmmmVVVVVVBBBBBBBBBBBBBBBBBBBBBBBBMMMmMMMMMMMMMMMMMMMMMMMMmmmmMMnnnnnnnnnnnnMMMMMmMMMMMMMMMMMMMMMMMMmmmmmmBBBBBBBBBBBBBBBBBBBBBBBBVVVVVVmmmmmmbbbbbbccccvvccccccccffccffffffssssffshssss888888888868uuuuuu555555uuuuuuuuuuuuiiiiiiddddddzzzzzzzzzzzzzzzzzzzzzzzzzzzzzzzzzzzzzzzzzzzzzzzzzzzzzzzzzzzzzzzzzzzzzzzzzzzzzzzzzz",
"zzzzzzzzzzzzzzzzzzzzzzzzzzzzzzzzzzzzzzzzzzzzzzzzzzzzzzzzzzzzzzzzzzzzzzzzzzzzzzzzzzzzzzzzzzzzzzzzzzzzzzzzzzddddddiiiiiiuuuuqq335555555555555555668888888088999999ssssssffffffffccccvvccccvvvvvvbbbbbbmmmmmmVVVVVVBBBBBBBBBBBBBBBBBBBBBBBBMMMmMMMMMMMMMMMMMMMMMMMMMMMMMMnnnnnnnnnnnnMmMMMMMMMMMMMMMMMMnnMMnnmmmmmmBBBBBBBBBBBBBBBBBBBBBBBBVVVVVVmmmmmmbbbbbbccvvvvccccccfcfcccffffffsssfffssssss888800886688uuuuuu555555uuuuuuuuuuuuiiiiiiddddddzzzzzzzzzzzzzzzzzzzzzzzzzzzzzzzzzzzzzzzzzzzzzzzzzzzzzzzzzzzzzzzzzzzzzzzzzzzzzzzzzz",
"zzzzzzzzzzzzzzzzzzzzzzzzzzzzzzzzzzzzzzzzzzzzzzzzzzzzzzzzzzzzzzzzzzzzzzzzzzzzzzzzzzzzzzzzzzzzzzzzzzzzzzzzzzddddddiiiiiiuuuuqq333355555555555555668888888088999999ssssssffffffcffcccvvvvccvvvvbbbbbbbbmmmmmmVVVVVVBBBBBBBBBBBBBBBBBBBBBBBBMMMMMMMMMMMMMMMMMMMMMMMMMMMMMMnknnnnnnnnnnMmMMMMMMMMMMMMMMMMnnnnnnmmmmmmBBBBBBBBBBBBBBBBBBBBBBBBVVVVVVmmmmmmbbbbbbccvvvvccccccffffccffffffssssffssssss880800666688uuuuuu555555uuuuuuuuuuuuiiiiiiddddddzzzzzzzzzzzzzzzzzzzzzzzzzzzzzzzzzzzzzzzzzzzzzzzzzzzzzzzzzzzzzzzzzzzzzzzzzzzzzzzzzz",
"zzzzzzzzzzzzzzzzzzzzzzzzzzzzzzzzzzzzzzzzzzzzzzzzzzzzzzzzzzzzzzzzzzzzzzzzzzzzzzzzzzzzzzzzzzzzzzzzzzzzzzzzzzddddddiiiiiiuuuuuq3333335555555555558888888888809h9999ssssssffffffffccffccvvvvvvvvbbbbbbbbmmmmmmVVVVVVBBBBBBBBBBBBBBBBBBBBBBBBMMMMMMMMMMMMMMMMMMMMMMMMmmMmmmkknnnnnnnnnnmmmmMMMMMMMMMMMMMMnnnnnnmmmmmmBBBBBBBBBBBBBBBBBBBBBBBBVVVVVVmmmmmmbbbbbbccccccccccccffccccffffffsssssshhssss000000666688uuuuuu555555uuuuuuuuuuuuiiiiiiddddddzzzzzzzzzzzzzzzzzzzzzzzzzzzzzzzzzzzzzzzzzzzzzzzzzzzzzzzzzzzzzzzzzzzzzzzzzzzzzzzzzz",
"zzzzzzzzzzzzzzzzzzzzzzzzzzzzzzzzzzzzzzzzzzzzzzzzzzzzzzzzzzzzzzzzzzzzzzzzzzzzzzzzzzzzzzzzzzzzzzzzzzzzzzzzzzddddddiiiiiiuuuuuq333333555555555555686888888880sh9999ssssssfffffffccccfccvvvvvvvvbbbbbbbmmmmmmmVVVVVVBBBBBBBBBBBBBBBBBBBBBBBBMMMMMMMMMMMMMMMMMMMMMMMMMMMMmmkknnnnnnnnnnmmmmmmMMMMMMMMMMMMnnnnMMmmmmmmBBBBBBBBBBBBBBBBBBBBBBBBVVVVVVmmmmmmbbbbbbccccccccccccffccccffffffsssssshsssss000000666688uuuuuu555555uuuuuuuuuuuuiiiiiiddddddzzzzzzzzzzzzzzzzzzzzzzzzzzzzzzzzzzzzzzzzzzzzzzzzzzzzzzzzzzzzzzzzzzzzzzzzzzzzzzzzzz",
"zzzzzzzzzzzzzzzzzzzzzzzzzzzzzzzzzzzzzzzzzzzzzzzzzzzzzzzzzzzzzzzzzzzzzzzzzzzzzzzzzzzzzzzzzzzzzzzzzzzzzzzzzzddddddiiiiiiyyyyyyqqqqqq555555577777ss99ss999999sssfffkkffffccccccvvvvvvvvvvvvbbbbbbmmmmmmNNVVVVBBBBBBBBBBBBBBBBBBBBBBBBmmmmmmnnnnnnnkkkkkMMnnnnMMMMMMMMMMMMkknnnnkkkkkkMMMMMMMMMMMMnnnnnnnnnnnnnnnnnnmmmmmmBBBBBBBBBBBBBBBBBBBBBBBBNNNNNNmmmmmmbbbbbbvvvvvvccccccccccccfffffffffffs9999999999hh666666uuuuuuuuuuuuddddddiiiiiiddddddzzzzzzzzzzzzzzzzzzzzzzzzzzzzzzzzzzzzzzzzzzzzzzzzzzzzzzzzzzzzzzzzzzzzzzzzzzzzzzzzzz",
"zzzzzzzzzzzzzzzzzzzzzzzzzzzzzzzzzzzzzzzzzzzzzzzzzzzzzzzzzzzzzzzzzzzzzzzzzzzzzzzzzzzzzzzzzzzzzzzzzzzzzzzzzzddddddiiiiiiyyyyyyqqqqqq555555557777ss99ss999999ssffffkkffffccccccvvvvvvvvvvvvbbbbbbmmmmmmNVVVVVBBBBBBBBBBBBBBBBBBBBBBBBmmmmmmnnnnnnkkkkkkMMMnnnMMMMMMMMMMMMkkknnnkkkkkkMMMMMMMMMMMMnnnnnnnnnnnnnnnnnnmmmmmmBBBBBBBBBBBBBBBBBBBBBBBBNNNNNVmmmmmmbbbbbbvvvvvvccccccccccccffffffffffss9999999999hh666666uuuuuuuuuuuuddddddiiiiiiddddddzzzzzzzzzzzzzzzzzzzzzzzzzzzzzzzzzzzzzzzzzzzzzzzzzzzzzzzzzzzzzzzzzzzzzzzzzzzzzzzzzz",
"zzzzzzzzzzzzzzzzzzzzzzzzzzzzzzzzzzzzzzzzzzzzzzzzzzzzzzzzzzzzzzzzzzzzzzzzzzzzzzzzzzzzzzzzzzzzzzzzzzzzzzzzzzddddddiiiiiipyyyyyqqqqqq555555777777ss9hhh999999ffffffkfffffccccccvvvvvvvvvvvvbbbbbbmmmmmmNNVVVVBBBBBBBBBBBBBBBBBBBBBBBBmmmmmmnnnnnnkkkkkkMMnnnnMMMMMMMMMMMMkkkkkkkkkkkkMMMMMMMMMMMMnnnnnnnnnnnnnnnnnnmmMMMMBBBBBBBBBBBBBBBBBBBBBBBBVVNNNVmmmmmmbbbbbbvvvvvvccccccccccccffffffsfssss999999999hhh666666uuuuuuuuuuuuddddddiiiiiiddddddzzzzzzzzzzzzzzzzzzzzzzzzzzzzzzzzzzzzzzzzzzzzzzzzzzzzzzzzzzzzzzzzzzzzzzzzzzzzzzzzzz",
"zzzzzzzzzzzzzzzzzzzzzzzzzzzzzzzzzzzzzzzzzzzzzzzzzzzzzzzzzzzzzzzzzzzzzzzzzzzzzzzzzzzzzzzzzzzzzzzzzzzzzzzzzzddddddiiiiiipyyyyyqqqqqq555555777777ss9hhh999999ffffffkkffffccccccvvvvvvvvvvvvbbbbbbmmmmmmVVVVVVBBBBBBBBBBBBBBBBBBBBBBBBmmmmmmnnnnnnnkkkkkMMnnnnMMMMMMMMMMMMkkkkkkkkkkkkMMMMMMMMMMMMnnnnnnnnnnnnnnnnnnmMMMMMBBBBBBBBBBBBBBBBBBBBBBBBVVNNVVmmmmmmbbbbbbvvvvvvccccccccccccffffffssssss9999999999hh666666uuuuuuuuuuuuddddddiiiiiiddddddzzzzzzzzzzzzzzzzzzzzzzzzzzzzzzzzzzzzzzzzzzzzzzzzzzzzzzzzzzzzzzzzzzzzzzzzzzzzzzzzzz",
"zzzzzzzzzzzzzzzzzzzzzzzzzzzzzzzzzzzzzzzzzzzzzzzzzzzzzzzzzzzzzzzzzzzzzzzzzzzzzzzzzzzzzzzzzzzzzzzzzzzzzzzzzzddddddiiiiiiypypppqqqqqq555555777777sh999s99999hffffffffffffccccccvvvvccvvvvvvbbbbbbmmmmmmVVVVVVBBBBBBBBBBBBBBBBBBBBBBBBmmmmmmnnnnnnkkkkkknnnnnnMMMMMMMMMMMMkkkkkkkkkkkkMMMMMMMMMMMMnnnnnnnnnnnnnnnnnnMMMMmmBBBBBBBBBBBBBBBBBBBBBBBBNNVVVVmmmmmmbbbbbbvvvvvvccccccccccccffffffssssss9999999999hh666666uuuuuuuuuuuuddddddiiiiiiddddddzzzzzzzzzzzzzzzzzzzzzzzzzzzzzzzzzzzzzzzzzzzzzzzzzzzzzzzzzzzzzzzzzzzzzzzzzzzzzzzzzz",
"zzzzzzzzzzzzzzzzzzzzzzzzzzzzzzzzzzzzzzzzzzzzzzzzzzzzzzzzzzzzzzzzzzzzzzzzzzzzzzzzzzzzzzzzzzzzzzzzzzzzzzzzzzddddddiiiiiiypyyppqqqqqq555555777777s9999s999999ffffffkfffffccccccvvvvccvvvvvvbbbbbbmmmmmmVNVVVVBBBBBBBBBBBBBBBBBBBBBBBBmmmmmmnnnnnnkkkkkknnnnnnMMMMMMMMMMMMkkkkkkkkkkkkMMMMMMMMMMMMnnnnnnnnnnnnnnnnnnMMMMmmBBBBBBBBBBBBBBBBBBBBBBBBNNVVVNmmmmmmbbbbbbvvvvvvccccccccccccffffffssssss9999999999hh666666uuuuuuuuuuuuddddddiiiiiiddddddzzzzzzzzzzzzzzzzzzzzzzzzzzzzzzzzzzzzzzzzzzzzzzzzzzzzzzzzzzzzzzzzzzzzzzzzzzzzzzzzzz",
"zzzzzzzzzzzzzzzzzzzzzzzzzzzzzzzzzzzzzzzzzzzzzzzzzzzzzzzzzzzzzzzzzzzzzzzzzzzzzzzzzzzzzzzzzzzzzzzzzzzzzzzzzzzzzzzzddddddiiiiiiiippiiuuuuuu666666888888999999ssssssffffffccccccvvvvvvmmmmmmmmmmmmNNNNNNVVVVVVBBBBBBBBBBBBBBBBBBmmmmmmnnnnnnjjjjjjkkkkkkkkkkkknnkkkknnnnnnllllllllllllnnnnnnkkkknnkjkkkkjjjjjjddddddjjkkkkmmmmmmBBBBBBBBBBBBBBBBBBVVBVVVmmmmmmbbbbmmvvvvvvccccccffffffffffffssssss888888880000uuuuuuuuuuuuiiiiiiiiiiiizzzzzzzzzzzzzzzzzzzzzzzzzzzzzzzzzzzzzzzzzzzzzzzzzzzzzzzzzzzzzzzzzzzzzzzzzzzzzzzzzzzzzzzzzzzzzz",
"zzzzzzzzzzzzzzzzzzzzzzzzzzzzzzzzzzzzzzzzzzzzzzzzzzzzzzzzzzzzzzzzzzzzzzzzzzzzzzzzzzzzzzzzzzzzzzzzzzzzzzzzzzzzzzzzddddddiiiiiiiiipiiuuuuuu666666888888999999ssssssffffffccccccvvvvvvmmmmmmmmmmmmNNNNNNVVVVVVBBBBBBBBBBBBBBBBBBmmmmmmnnnnnnjjjjjjkkkkkkkkkkkknnkkkknnnnnnllllllllllllnnnnnnkkkknnkjkkkkjjjjjjddddddkkkkkkmmmmmmBBBBBBBBBBBBBBBBBBVVVVVVmmmmmmmbbbmmvvvvvvccccccffffffffffffssssss888888888000uuuuuuuuuuuuiiiiiiiiiiiizzzzzzzzzzzzzzzzzzzzzzzzzzzzzzzzzzzzzzzzzzzzzzzzzzzzzzzzzzzzzzzzzzzzzzzzzzzzzzzzzzzzzzzzzzzzzz",
"zzzzzzzzzzzzzzzzzzzzzzzzzzzzzzzzzzzzzzzzzzzzzzzzzzzzzzzzzzzzzzzzzzzzzzzzzzzzzzzzzzzzzzzzzzzzzzzzzzzzzzzzzzzzzzzzddddddiiiiiiiippipuuuuuu666666888888999999ssssssffffffcccckkvvvvvvmmbmbbmmmmmmNNNNNNVVVVVVBBBBBBBBBBBBBBBBBBmmmmmmnnnnnnjjjjjjjjkkkkkkkkkknnnnnknnnnnnjjjkkkkkkljjnnnnnnnnnnnnkkkkkkjjjjjjddddddjjkkkkNNmmmmBBBBBBBBBBBBBBBBBBVVVVVBmmmmmmmmbbmmvvvvvvccccccffffffffffffssssss008800888888uuuuuuuuuuuuiiiiiiiiiiiizzzzzzzzzzzzzzzzzzzzzzzzzzzzzzzzzzzzzzzzzzzzzzzzzzzzzzzzzzzzzzzzzzzzzzzzzzzzzzzzzzzzzzzzzzzzzz",
"zzzzzzzzzzzzzzzzzzzzzzzzzzzzzzzzzzzzzzzzzzzzzzzzzzzzzzzzzzzzzzzzzzzzzzzzzzzzzzzzzzzzzzzzzzzzzzzzzzzzzzzzzzzzzzzzddddddiiiiiiiippiiuuuuuu666666888888999999ssssssffffffcccckkvvvvvvmmmmbbmmmmmmNNNNNNVVVVVVBBBBBBBBBBBBBBBBBBmmmmmmnnnnnnjjjjjjjjkkjkkkkkkknnnnkknnnnnnjjjjkkkklljjnnnnnnnnnnknkkkkjjjjjjjjddddddjjkkkkmNmmmmBBBBBBBBBBBBBBBBBBVVVVVVmmmmmmmmbbmmvvvvvvccccccffffffffffffssssss000000888888uuuuuuuuuuuuiiiiiiiiiiiizzzzzzzzzzzzzzzzzzzzzzzzzzzzzzzzzzzzzzzzzzzzzzzzzzzzzzzzzzzzzzzzzzzzzzzzzzzzzzzzzzzzzzzzzzzzzz",
"zzzzzzzzzzzzzzzzzzzzzzzzzzzzzzzzzzzzzzzzzzzzzzzzzzzzzzzzzzzzzzzzzzzzzzzzzzzzzzzzzzzzzzzzzzzzzzzzzzzzzzzzzzzzzzzzddddddiiiiiiiiipipuuuuuu666688888888999999ssssssffffffkkccccvvvvvvmmmmmbmmmmmmNNNNNNVVVVVVBBBBBBBBBBBBBBBBBBmmmmmmnnnnnnjjjjjjkjjjjjkkkkkknnnnkknnnnnnjjkkllkkkkjjnnnnnnnnnnkkkkkjjjjjjjjjdgddddjjjkjjmmmmmmBBBBBBBBBBBBBBBBBBVVVVVVmmmmmmmmbbbbvvvvvvcccccckkfkffffffffhhssss880000888888uuuuuuuuuuuuiiiiiiiiiiiizzzzzzzzzzzzzzzzzzzzzzzzzzzzzzzzzzzzzzzzzzzzzzzzzzzzzzzzzzzzzzzzzzzzzzzzzzzzzzzzzzzzzzzzzzzzzz",
"zzzzzzzzzzzzzzzzzzzzzzzzzzzzzzzzzzzzzzzzzzzzzzzzzzzzzzzzzzzzzzzzzzzzzzzzzzzzzzzzzzzzzzzzzzzzzzzzzzzzzzzzzzzzzzzzddddddiiiiiiiiipipuuuuuu666688888888999999ssssssffffffckccccvvvvvvmmmmmbmmmmmmNNNNNNVVVVVVBBBBBBBBBBBBBBBBBBmmmmmmnnnnnnjjjjjjkkjjjjkkkkkknnnkkknnnnnnjjkkllkkkkjjnnnnnnknnnnkkkkjjjjjjjjjdgddddjjjkjjmmmmmmBBBBBBBBBBBBBBBBBBVVVVVVmmmmmmmmbbbbvvvvvvcccccckkkkffffffffhhhsss880000888888uuuuuuuuuuuuiiiiiiiiiiiizzzzzzzzzzzzzzzzzzzzzzzzzzzzzzzzzzzzzzzzzzzzzzzzzzzzzzzzzzzzzzzzzzzzzzzzzzzzzzzzzzzzzzzzzzzzzz",
"zzzzzzzzzzzzzzzzzzzzzzzzzzzzzzzzzzzzzzzzzzzzzzzzzzzzzzzzzzzzzzzzzzzzzzzzzzzzzzzzzzzzzzzzzzzzzzzzzzzzzzzzzzzzzzzzzzzzzzzzzzzziiiiiiggggppuuuuuu888888000000sssshhffffffkkkkkkvvvvvvbbmbbbmmmmmmNNNNNNVVVVVVBBBBBBVVVVBBVVVVVVnnnnnnddddddiiiigaddaadddddddddjddddjjjkkkjjjjjjjjjjjjkkkkkkddddjjddddddiiiiggiiiiiiggdddgkkkkkkVVVVBBVVVVVVVVVVNVNNNNNNmmmmmmmmmmmmbbvvvvccccccffffffssssss009999888888888888u00000uuuuuuiiiiiizzzzzzzzzzzzzzzzzzzzzzzzzzzzzzzzzzzzzzzzzzzzzzzzzzzzzzzzzzzzzzzzzzzzzzzzzzzzzzzzzzzzzzzzzzzzzzzzzzzz",
"zzzzzzzzzzzzzzzzzzzzzzzzzzzzzzzzzzzzzzzzzzzzzzzzzzzzzzzzzzzzzzzzzzzzzzzzzzzzzzzzzzzzzzzzzzzzzzzzzzzzzzzzzzzzzzzzzzzzzzzzzzzziiiiiiggggppuuuuuu888888000000sssshhffffffkkkkkkvvvvvvbbmbbbmmmmmmNNNNNNVVVVVVBBBBBBVVVVBBVVVVVVnnnnnnddddddiiiiggddaadddddddddjddddjjjjkkjjjjjjjjjjjjkkkkkkddddjjddddddiiiiggiiipiigdddddkkkkkkVVVVBBVVVVVVVVVVNVNNNNNNmmmmmmmmmmmmbbbbvvccccccffffffssssss909999888888888888uu0000uuuuuuiiiiiizzzzzzzzzzzzzzzzzzzzzzzzzzzzzzzzzzzzzzzzzzzzzzzzzzzzzzzzzzzzzzzzzzzzzzzzzzzzzzzzzzzzzzzzzzzzzzzzzzzz",
"zzzzzzzzzzzzzzzzzzzzzzzzzzzzzzzzzzzzzzzzzzzzzzzzzzzzzzzzzzzzzzzzzzzzzzzzzzzzzzzzzzzzzzzzzzzzzzzzzzzzzzzzzzzzzzzzzzzzzzzzzzzziiiiiigggpppuuuuuu888888000000ssshhhffffffkkcckkvvvvvvbbbbbbmmmmmmNNNNNNBBVVVVBBBBBBBBVVVVVVVVVVnnnnnnddddddddiiggggaaddddddddjjddddkkkkkkjjjjjjjjjjjjkkkkkkjjddjjddddddgiiiggiiiiiigggdddkkkkkkVVVVBVVVVVVVVVVVVVNmNNNNmmmmmmmmmmmmbbbbvvccccccffffffssssss999999888888888888u000u0yuyyyuiiiiiizzzzzzzzzzzzzzzzzzzzzzzzzzzzzzzzzzzzzzzzzzzzzzzzzzzzzzzzzzzzzzzzzzzzzzzzzzzzzzzzzzzzzzzzzzzzzzzzzzzz",
"zzzzzzzzzzzzzzzzzzzzzzzzzzzzzzzzzzzzzzzzzzzzzzzzzzzzzzzzzzzzzzzzzzzzzzzzzzzzzzzzzzzzzzzzzzzzzzzzzzzzzzzzzzzzzzzzzzzzzzzzzzzziiiiiigggpppuuuuuu888888000000sssshhffffffkkcckkvvvvvvbbbbbbmmmmmmNNNNNNBBBVVVBBBBBBBBVVVVVVVVVVnnnnnnddddddgdddggggaaddddddddjjddddkkkkkkjjjjjjjjjjjjkkkkkkjjjdjjddddddgiiiggiiiiiigggggdkkkkkkVVVBBBVVVVVVVVVVVVmmNNNNmmmmmmmmmmmmbbbbvvccccccffffffssssss999999888888888888u000uuuuyyyuiiiiiizzzzzzzzzzzzzzzzzzzzzzzzzzzzzzzzzzzzzzzzzzzzzzzzzzzzzzzzzzzzzzzzzzzzzzzzzzzzzzzzzzzzzzzzzzzzzzzzzzzz",
"zzzzzzzzzzzzzzzzzzzzzzzzzzzzzzzzzzzzzzzzzzzzzzzzzzzzzzzzzzzzzzzzzzzzzzzzzzzzzzzzzzzzzzzzzzzzzzzzzzzzzzzzzzzzzzzzzzzzzzzzzzzziiiiiiggiiiiuuuuuu888888000000ssssssffffffcccckkcvvvvvbbbbbbmmmmmmNNNNNNVVVVVVBBBBBBBBVVBBVVVVVVnnnnnnddddddggggggggggddggggddddddddkkkkkkjjjjjjjjjjjjkkkkkkjjjjjjddddddggggggiiiiiiggggggkkkkkkBBBBBVVVVVVVVVVVVNmmNNNmmmmmmmmmmmmmbvvvbbccccccffffffssssss99999988888888888800uuuuyyyyuuiiiiiizzzzzzzzzzzzzzzzzzzzzzzzzzzzzzzzzzzzzzzzzzzzzzzzzzzzzzzzzzzzzzzzzzzzzzzzzzzzzzzzzzzzzzzzzzzzzzzzzzzz",
"zzzzzzzzzzzzzzzzzzzzzzzzzzzzzzzzzzzzzzzzzzzzzzzzzzzzzzzzzzzzzzzzzzzzzzzzzzzzzzzzzzzzzzzzzzzzzzzzzzzzzzzzzzzzzzzzzzzzzzzzzzzziiiiiiggiiiiuuuuuu888888000000shssssffffffkccckkvvvvvvbbbbbbmmmmmmNNNNNNVVVVVVBBBBBBBBVVBBVVVVVVnnnnnnddddddggggggggggddggggddddddddkkkkkkjjjjjjjjjjjjkkkkkkjjjjjjddddddggggggiiiiiiggggggkkkkkkBBBBBVVVVVVVVVVVNNmmNNNNmmmmmmmmmmmmbvvvbbccccccffffffssssss99999988888888888800uuuuyyyyuuiiiiiizzzzzzzzzzzzzzzzzzzzzzzzzzzzzzzzzzzzzzzzzzzzzzzzzzzzzzzzzzzzzzzzzzzzzzzzzzzzzzzzzzzzzzzzzzzzzzzzzzzz",
"zzzzzzzzzzzzzzzzzzzzzzzzzzzzzzzzzzzzzzzzzzzzzzzzzzzzzzzzzzzzzzzzzzzzzzzzzzzzzzzzzzzzzzzzzzzzzzzzzzzzzzzzzzzzzzzzzzzzzzzzzzzziiiiiiqqqqqq888888888888888888000000ssssssccccccvvvvvvbbbbbbmmmmmmNNNNNNVVVVVVVVVVVVVVVVVVmmmmmmkkddkkgdggggppiiiiiiiiiiiiiiiiiigaggddddddiiggiigaddiiddddddggigiiiiiiiippppppppppppppppppddddddVNVNVVNNmmNNmmmmmmmmmmmmvvvvvvccccccvvvvvvccccccffffff999999888888888888888888000880qqyyqqiiiiiizzzzzzzzzzzzzzzzzzzzzzzzzzzzzzzzzzzzzzzzzzzzzzzzzzzzzzzzzzzzzzzzzzzzzzzzzzzzzzzzzzzzzzzzzzzzzzzzzzzz",
"zzzzzzzzzzzzzzzzzzzzzzzzzzzzzzzzzzzzzzzzzzzzzzzzzzzzzzzzzzzzzzzzzzzzzzzzzzzzzzzzzzzzzzzzzzzzzzzzzzzzzzzzzzzzzzzzzzzzzzzzzzzziiiiiiqqqqqq888888888888888888000000ssssssccccccvvvvvvbbbbbbmmmmmmNNNNNNVVVVVVVVVVVVVVVVVVmmmmmmkkddkkggggggppiiiiiiiiiiiiiiiiiigaggddddddiiggiigaddiiddddddgiiiiiiiiiiippppppppppppppppppddddddVVVNNVNNmmNNmmmmmmmmmmmmvvvvvvccccccvvvvvvccccccffffff999999888888888888888888000008qqqyqqiiiiiizzzzzzzzzzzzzzzzzzzzzzzzzzzzzzzzzzzzzzzzzzzzzzzzzzzzzzzzzzzzzzzzzzzzzzzzzzzzzzzzzzzzzzzzzzzzzzzzzzzz",
"zzzzzzzzzzzzzzzzzzzzzzzzzzzzzzzzzzzzzzzzzzzzzzzzzzzzzzzzzzzzzzzzzzzzzzzzzzzzzzzzzzzzzzzzzzzzzzzzzzzzzzzzzzzzzzzzzzzzzzzzzzzziiiiiiqqqqqq000080888888888888000000ssssssccccccvvvvvvbbbbbbmmmmmmNNNNNNVVVVVVVVVVVVVVVVVVmmmmmmkkkkkkggggggiiiippiiiiiiiiiiiiggiiiiddddddgggiiiaaagggddddddiiiiggiiiiiippppppppppppppppppddddddNNNNNNNNNNNNmmmmmmmmmmmmvvvvvvccccccvvvvvvccccccffffff999999888888888888888888000888qqyyyyiiiiiizzzzzzzzzzzzzzzzzzzzzzzzzzzzzzzzzzzzzzzzzzzzzzzzzzzzzzzzzzzzzzzzzzzzzzzzzzzzzzzzzzzzzzzzzzzzzzzzzzzz",
"zzzzzzzzzzzzzzzzzzzzzzzzzzzzzzzzzzzzzzzzzzzzzzzzzzzzzzzzzzzzzzzzzzzzzzzzzzzzzzzzzzzzzzzzzzzzzzzzzzzzzzzzzzzzzzzzzzzzzzzzzzzziiiiiiqqqqqq000080888888888888000000ssssssccccccvvvvvvbbbbbbmmmmmmNNNNNNVVVVVVVVVVVVVVVVVVmmmmmmkkkkkkggggggiiiippiiiiiiiiiiiiigiiiiddddddgggiiiaaggggddddddiiiiggiiiiiippppppppppppppppppddddddNNNNNNNNNNNNmmmmmmmmmmmmvvvvvvccccccvvvvvvccccccffffff999999888888888888888866008088qqyyyyiiiiiizzzzzzzzzzzzzzzzzzzzzzzzzzzzzzzzzzzzzzzzzzzzzzzzzzzzzzzzzzzzzzzzzzzzzzzzzzzzzzzzzzzzzzzzzzzzzzzzzzzz",
"zzzzzzzzzzzzzzzzzzzzzzzzzzzzzzzzzzzzzzzzzzzzzzzzzzzzzzzzzzzzzzzzzzzzzzzzzzzzzzzzzzzzzzzzzzzzzzzzzzzzzzzzzzzzzzzzzzzzzzzzzzzziiiiiiqqqqqq000000888888888888009999ffsssskkccccvvvvvvbbbbbbmmmmmmNNNNNNVVVVVVVVVVVVVVVVVVmmmmmmkkkkkkggggggiippppiiiiiiiiiiiigggiiiddddddggiiiiggggggddddddiiiiggggiiiippppppppppppppppppddddddNNNNNNNNNNNNmmmmmmmmmmmmvvvvbbvcccccvvvvvvccccccffffff999999888888888888888866808888qqyyyqiiiiiizzzzzzzzzzzzzzzzzzzzzzzzzzzzzzzzzzzzzzzzzzzzzzzzzzzzzzzzzzzzzzzzzzzzzzzzzzzzzzzzzzzzzzzzzzzzzzzzzzzz",
"zzzzzzzzzzzzzzzzzzzzzzzzzzzzzzzzzzzzzzzzzzzzzzzzzzzzzzzzzzzzzzzzzzzzzzzzzzzzzzzzzzzzzzzzzzzzzzzzzzzzzzzzzzzzzzzzzzzzzzzzzzzziiiiiiqqqqqq000000888888888888009999fffssskccckkvvvvvvbbbbbbmmmmmmNNNNNNVVVVVVVVVVVVVVVVVVmmmmmmkkkkkkggggggppppppiiiiiiiiiiiigggiiiddddddgggiiiggggggddddddgggggggiiiiippppppppppppppppppddddddNNNNNNNNNNNNmmmmmmmmmmmmvvvvbbccccccvvvvvvccccccffffff999999888888888888888866888888qqyyqqiiiiiizzzzzzzzzzzzzzzzzzzzzzzzzzzzzzzzzzzzzzzzzzzzzzzzzzzzzzzzzzzzzzzzzzzzzzzzzzzzzzzzzzzzzzzzzzzzzzzzzzzz",
"zzzzzzzzzzzzzzzzzzzzzzzzzzzzzzzzzzzzzzzzzzzzzzzzzzzzzzzzzzzzzzzzzzzzzzzzzzzzzzzzzzzzzzzzzzzzzzzzzzzzzzzzzzzzzzzzzzzzzzzzzzzziiiiii11111144444455555555777799hhhh666666sssssskkkcccvvvvvvmmmmmmmmmmmmNNmmmmmmmmmmVVVVVVnnnnnnggddddppppppppppppppppppppppppppppppiiiiiiiiiiiiiiiiiiiiiiiiiiiiipppppppppyypp111111111111yy1111vvvvvvmmmmmmmmbmmbmbbbbmvvvvvvkkkkkfkfffffkkkkffssssss777777shhh99555555555555qq<<11ppppppiiiiiiiiiiiizzzzzzzzzzzzzzzzzzzzzzzzzzzzzzzzzzzzzzzzzzzzzzzzzzzzzzzzzzzzzzzzzzzzzzzzzzzzzzzzzzzzzzzzzzzzzz",
"zzzzzzzzzzzzzzzzzzzzzzzzzzzzzzzzzzzzzzzzzzzzzzzzzzzzzzzzzzzzzzzzzzzzzzzzzzzzzzzzzzzzzzzzzzzzzzzzzzzzzzzzzzzzzzzzzzzzzzzzzzzziiiiii11111144444455555555777799hhhh666666sssssskkccccvvvvvvmmmmmmmmmmmmNNNmmmmmmmmmVVVVVVnnnnnnggdgddppppppppppppppppppppppppppppppiiiippiiiiiiiiiiiiiiiiiiiiiipppppppppppypp111111111111yy1111vvvvvvmmmmmmmmmbmmmmmbmmvvvvvvkkkkffkkffffkkkkffssssss777777sshh99555555555555qq<<11ppppppiiiiiiiiiiiizzzzzzzzzzzzzzzzzzzzzzzzzzzzzzzzzzzzzzzzzzzzzzzzzzzzzzzzzzzzzzzzzzzzzzzzzzzzzzzzzzzzzzzzzzzzzz",
"zzzzzzzzzzzzzzzzzzzzzzzzzzzzzzzzzzzzzzzzzzzzzzzzzzzzzzzzzzzzzzzzzzzzzzzzzzzzzzzzzzzzzzzzzzzzzzzzzzzzzzzzzzzzzzzzzzzzzzzzzzzziiiiii111111444444555555555575shhhhh666666sssssskkccccbbbbvbmmmmmmmmmmmmNNmmmmmmmmmmVVVVVVnnnnnnggggdipppppppppppppppppppppppppppppppipppppippiiiiiiiiiiiiiiiippppppppppppyypp111111111111yyyy11vvvvvvmmVVVVmmmmmmbmmmmmvvvvvvkkcffffkfffffkffffssssss7777779h9999555555555555qq4411ppppppiiiiiiiiiiiizzzzzzzzzzzzzzzzzzzzzzzzzzzzzzzzzzzzzzzzzzzzzzzzzzzzzzzzzzzzzzzzzzzzzzzzzzzzzzzzzzzzzzzzzzzzzz",
"zzzzzzzzzzzzzzzzzzzzzzzzzzzzzzzzzzzzzzzzzzzzzzzzzzzzzzzzzzzzzzzzzzzzzzzzzzzzzzzzzzzzzzzzzzzzzzzzzzzzzzzzzzzzzzzzzzzzzzzzzzzziiiiii111111444444555555555555hhhssh666666sssssskkkcccbbbbbbmmmmmmmmmmmmmmmmmmmmmmmmVVVVVVnnnnnnggggiippppppppppppppppppppppppppppppppppppppppppiiiiiiiiiiiiiiipppppppppppyypp111111111111yyyy11vvvvvvmmmVVVmmmmmmbmmmmbvvvvvvkkcffffffffffkffffssssss777777999999555555555555qqqq11ypppppiiiiiiiiiiiizzzzzzzzzzzzzzzzzzzzzzzzzzzzzzzzzzzzzzzzzzzzzzzzzzzzzzzzzzzzzzzzzzzzzzzzzzzzzzzzzzzzzzzzzzzzzz",
"zzzzzzzzzzzzzzzzzzzzzzzzzzzzzzzzzzzzzzzzzzzzzzzzzzzzzzzzzzzzzzzzzzzzzzzzzzzzzzzzzzzzzzzzzzzzzzzzzzzzzzzzzzzzzzzzzzzzzzzzzzzziiiiii1111114444445555555555559hhhh9666666sssssskkcckkbbbbbbmmmmmmmmmmmmmmmmmNmmmmmmVVVVVVnnnnnnggggggppppppppppppppppppppppppppppppppppppiippiiiiiiiiiiiiiippppiippppppyyyypy111111111111yyyyyyvvvvvvmmmmmmmmmmmmmmmmbmvvvvvvkkcckkfffffffkffkkssssss77767699999955555555555511qqqqppppppiiiiiiiiiiiizzzzzzzzzzzzzzzzzzzzzzzzzzzzzzzzzzzzzzzzzzzzzzzzzzzzzzzzzzzzzzzzzzzzzzzzzzzzzzzzzzzzzzzzzzzzzz",
"zzzzzzzzzzzzzzzzzzzzzzzzzzzzzzzzzzzzzzzzzzzzzzzzzzzzzzzzzzzzzzzzzzzzzzzzzzzzzzzzzzzzzzzzzzzzzzzzzzzzzzzzzzzzzzzzzzzzzzzzzzzziiiiii1111114444445555555557559hhh99666666sssssskkcckkbbbbbbmmmmmmmmmmmmmmmmmNmmmmmmVVVVVVnnnnnnggggdgppppppppppppppppppppppppppppppppppppiiiiiiiiiiiiiiiiiippppiippppppyyyyyy111111111111yyyyyyvvvvvvmmmmmmmmmmmmmmmmbbvvvvvvkkcckkfffffffkkfkkssssss777677999999555555555555q1qqqqypppppiiiiiiiiiiiizzzzzzzzzzzzzzzzzzzzzzzzzzzzzzzzzzzzzzzzzzzzzzzzzzzzzzzzzzzzzzzzzzzzzzzzzzzzzzzzzzzzzzzzzzzzzz",
"zzzzzzzzzzzzzzzzzzzzzzzzzzzzzzzzzzzzzzzzzzzzzzzzzzzzzzzzzzzzzzzzzzzzzzzzzzzzzzzzzzzzzzzzzzzzzzzzzzzzzzzzzzzzzzzzzzzzzzppppppiiiiii111111<<4444668886666866777777555555666666ffffffbbbbbbbbbbbbbbbbbbbbbbbbbbbbbbmmmmmmddddddiiiiiippppppppppppyypppppppppppppppppppppppppppppppppppppppppppppp111111111111221112222222111111ppppppmmmmmmmmmmmmbbbbbbbbbbbbccccccffffffssssss8886885577777777776688886666664<4444111111ppppppppppppzzzzzzzzzzzzzzzzzzzzzzzzzzzzzzzzzzzzzzzzzzzzzzzzzzzzzzzzzzzzzzzzzzzzzzzzzzzzzzzzzzzzzzzzzzzzzz",
"zzzzzzzzzzzzzzzzzzzzzzzzzzzzzzzzzzzzzzzzzzzzzzzzzzzzzzzzzzzzzzzzzzzzzzzzzzzzzzzzzzzzzzzzzzzzzzzzzzzzzzzzzzzzzzzzzzzzzzppppppiiiiii111111444444668886666866777777555555666666ffffffbbbbbbbbbbbbbbbbbbbbbbbbbbbbbbmmmmmmddddddiiiiiippppppppppppyypppppppppppppppppppppppppppppppppppppppppppppp111111111111111112222222111111ppppppmmmmmmmmmmmmbbbbbbbbbbbbccccccffffffssssss888888555777777777668888666666<<4444111111ppppppppppppzzzzzzzzzzzzzzzzzzzzzzzzzzzzzzzzzzzzzzzzzzzzzzzzzzzzzzzzzzzzzzzzzzzzzzzzzzzzzzzzzzzzzzzzzzzzzz",
"zzzzzzzzzzzzzzzzzzzzzzzzzzzzzzzzzzzzzzzzzzzzzzzzzzzzzzzzzzzzzzzzzzzzzzzzzzzzzzzzzzzzzzzzzzzzzzzzzzzzzzzzzzzzzzzzzzzzzzppppppiiiiii111111<<<<44666666666666777777555577666666ffffffbbbbbbbbbbbbbbbbbbbbbbbbbbbbbbmmmmmmddddddiiiiiipppppppppppppyppppppppppppppppppppppppppppppppppppppppppppyp111111111111111122222222qq1111yyppppmmmmmmmmmmmmbbbbbbbbbbbbccccccffffffssssss888888555557777777666666666666444444111111ppppppppppppzzzzzzzzzzzzzzzzzzzzzzzzzzzzzzzzzzzzzzzzzzzzzzzzzzzzzzzzzzzzzzzzzzzzzzzzzzzzzzzzzzzzzzzzzzzzzz",
"zzzzzzzzzzzzzzzzzzzzzzzzzzzzzzzzzzzzzzzzzzzzzzzzzzzzzzzzzzzzzzzzzzzzzzzzzzzzzzzzzzzzzzzzzzzzzzzzzzzzzzzzzzzzzzzzzzzzzzppppppiiiiii111111<<<<44666666666666777777555557666666ffffffbbbbbbbbbbbbbbbbbbbbbbbbbbbbbbmmmmmmddddddiiiiiippppppppppppppypppppppppppppppppppppppppppppppppppppppppppyy11y11y111111111122222222qq1111qqppppmmmmmmmmmmmmbbbbbbbbbbbbccccccffffffssssss8888885555557777776666666666664444<<111111ppppppppppppzzzzzzzzzzzzzzzzzzzzzzzzzzzzzzzzzzzzzzzzzzzzzzzzzzzzzzzzzzzzzzzzzzzzzzzzzzzzzzzzzzzzzzzzzzzzzz",
"zzzzzzzzzzzzzzzzzzzzzzzzzzzzzzzzzzzzzzzzzzzzzzzzzzzzzzzzzzzzzzzzzzzzzzzzzzzzzzzzzzzzzzzzzzzzzzzzzzzzzzzzzzzzzzzzzzzzzzppppppiiiiii1111114<<<44666666666666777777555575666666ffffffbbbbbbbbbbbbbbbbbbbbbbbbbbbbbbmmmmmmddddddiiiiiippppppyyppppppyyppppppppppppppppppppppppppppppppppppppppppyy11yyyy111111111122222222qq11qqqyuuuummmmmmmmmmmmbbbbbbbbbbbbccccccffffffssssss888888555555777777666666666666444444111111ppppppppppppzzzzzzzzzzzzzzzzzzzzzzzzzzzzzzzzzzzzzzzzzzzzzzzzzzzzzzzzzzzzzzzzzzzzzzzzzzzzzzzzzzzzzzzzzzzzzz",
"zzzzzzzzzzzzzzzzzzzzzzzzzzzzzzzzzzzzzzzzzzzzzzzzzzzzzzzzzzzzzzzzzzzzzzzzzzzzzzzzzzzzzzzzzzzzzzzzzzzzzzzzzzzzzzzzzzzzzzppppppiiiiii1111114<<<44668666666666777777555577666666ffffffbbbbbbbbbbbbbbbbbbbbbbbbbbbbbbmmmmmmddddddiiiiiippppppyyppppppyyppppppppppppppppppppppppppppppppppppppppppyy11yyyy1111111111222222221q111qqquuuummmmmmmmmmmmbbbbbbbbbbbbccccccffffffssssss888888555555777777666666666666444444111111ppppppppppppzzzzzzzzzzzzzzzzzzzzzzzzzzzzzzzzzzzzzzzzzzzzzzzzzzzzzzzzzzzzzzzzzzzzzzzzzzzzzzzzzzzzzzzzzzzzzz",
"zzzzzzzzzzzzzzzzzzzzzzzzzzzzzzzzzzzzzzzzzzzzzzzzzzzzzzzzzzzzzzzzzzzzzzzzzzzzzzzzzzzzzzzzzzzzzzzzzzzzzzzzzzzzzzzzddddddiiiiiippppppppppppzzzzzz333333555555hh9999888888990000fffckkccccccccccccvvvvvvvvvvcccccccciiggggggggggyyypyy11111111111111111111111111111111111111111111111111111111111111111122222222222222222222222<qqqqqqppppggvvnnnnvvvvvvccccvvffffffssffff0000007777778888669999ss555555333333zzzzzzppppppiiiiiiiiiiiizzzzzzzzzzzzzzzzzzzzzzzzzzzzzzzzzzzzzzzzzzzzzzzzzzzzzzzzzzzzzzzzzzzzzzzzzzzzzzzzzzzzzzzzzzzzzz",
"zzzzzzzzzzzzzzzzzzzzzzzzzzzzzzzzzzzzzzzzzzzzzzzzzzzzzzzzzzzzzzzzzzzzzzzzzzzzzzzzzzzzzzzzzzzzzzzzzzzzzzzzzzzzzzzzddddddiiiiiippppppppppppzzzzzz333333555555hh9999888888990000fffckkccccccccccccvvvvvvvvvvccccncccigggggggggggyyypyy1111111111111111111111111111111111111y111111111111111111111111111122222222222222222222222<qqqqqqiippggvvvvnnvvvvvvccccvvffffffssffff0000007777776688669999hs555555333333zzzzzzppppppiiiiiiiiiiiizzzzzzzzzzzzzzzzzzzzzzzzzzzzzzzzzzzzzzzzzzzzzzzzzzzzzzzzzzzzzzzzzzzzzzzzzzzzzzzzzzzzzzzzzzzzzz",
"zzzzzzzzzzzzzzzzzzzzzzzzzzzzzzzzzzzzzzzzzzzzzzzzzzzzzzzzzzzzzzzzzzzzzzzzzzzzzzzzzzzzzzzzzzzzzzzzzzzzzzzzzzzzzzzzddddddiiiiiippppppppppppzzzzzz333333555555hh9999886666999900kkkkkkccccvcccccccvvvvvvvvvvvcnnnncnggigggggggggyyppyy111111111111111111111111111111111111yy1111111y11111111111111111111222222222222222222<<2222qqqqqqiippppvvvvnnvvvvvvccvvvvffffffssssff0000007777776686669999hh555555333333zzzzzzppppppiiiiiiiiiiiizzzzzzzzzzzzzzzzzzzzzzzzzzzzzzzzzzzzzzzzzzzzzzzzzzzzzzzzzzzzzzzzzzzzzzzzzzzzzzzzzzzzzzzzzzzzzz",
"zzzzzzzzzzzzzzzzzzzzzzzzzzzzzzzzzzzzzzzzzzzzzzzzzzzzzzzzzzzzzzzzzzzzzzzzzzzzzzzzzzzzzzzzzzzzzzzzzzzzzzzzzzzzzzzzddddddiiiiiippppppppppppzzzzzz333333555555ss9999888666999000kkkkkkccccvvccccccvvvvvvcvvvvvnnnnccggiiigggggggyyppyy111111111111111111111111111111111111yy1111111y11111111111111111111222222222222222222<<2222qqqqqqiippppvvvvnnvvvvvvvvvvvvffffffsssssf0000007777776688669999hh555555333333zzzzzzppppppiiiiiiiiiiiizzzzzzzzzzzzzzzzzzzzzzzzzzzzzzzzzzzzzzzzzzzzzzzzzzzzzzzzzzzzzzzzzzzzzzzzzzzzzzzzzzzzzzzzzzzzzz",
"zzzzzzzzzzzzzzzzzzzzzzzzzzzzzzzzzzzzzzzzzzzzzzzzzzzzzzzzzzzzzzzzzzzzzzzzzzzzzzzzzzzzzzzzzzzzzzzzzzzzzzzzzzzzzzzzddddddiiiiiippppppppppppzzzzzz333333555555999999888888999990kkkkkkccccccccccccvvvvvvcccvvvccccccggiiiiggggggpppppp111111111111111111111111111111111111111111111y11111111111111111111222222222222222222<<<<<<qqqqqqppggppvvvvvvvvvvvvccccccffffffssssff0000007777776666669hh999555555333333zzzzzzppppppiiiiiiiiiiiizzzzzzzzzzzzzzzzzzzzzzzzzzzzzzzzzzzzzzzzzzzzzzzzzzzzzzzzzzzzzzzzzzzzzzzzzzzzzzzzzzzzzzzzzzzzzz",
"zzzzzzzzzzzzzzzzzzzzzzzzzzzzzzzzzzzzzzzzzzzzzzzzzzzzzzzzzzzzzzzzzzzzzzzzzzzzzzzzzzzzzzzzzzzzzzzzzzzzzzzzzzzzzzzzddddddiiiiiippppppppppppzzzzzz333333555555999999888888999900kkkkkkccccccccccccvvvvvvcccvvvccccvcggiiiiggggggpppppp111111111111111111111111111111111111111111111111111111111111111111222222222222222222<<<<2<qqqqqqppgggpvvvvvvvvvvvvccccccffffffssssff0000007777776666669ss999555555333333zzzzzzppppppiiiiiiiiiiiizzzzzzzzzzzzzzzzzzzzzzzzzzzzzzzzzzzzzzzzzzzzzzzzzzzzzzzzzzzzzzzzzzzzzzzzzzzzzzzzzzzzzzzzzzzzzz",
"zzzzzzzzzzzzzzzzzzzzzzzzzzzzzzzzzzzzzzzzzzzzzzzzzzzzzzzzzzzzzzzzzzzzzzzzzzzzzzzzzzzzzzzzzzzzzzzzzzzzzzzzzzzzzzzziiiiiiiiiiiizzzzzzzzzzzzzzzzzz333333555555555555555577999999sssssssssssssssssskkkkkkffffckssssssuuuuppyyyyyy2222222222222222222222222222222222122222111111222222112222222222222222222222<2222222222222222222111qqq11yy11ffggggckccccffffff999999999999888888666666555555555555555555333333zzzzzzzzzzzzzzzzzzddddddzzzzzzzzzzzzzzzzzzzzzzzzzzzzzzzzzzzzzzzzzzzzzzzzzzzzzzzzzzzzzzzzzzzzzzzzzzzzzzzzzzzzzzzzzzzzzz",
"zzzzzzzzzzzzzzzzzzzzzzzzzzzzzzzzzzzzzzzzzzzzzzzzzzzzzzzzzzzzzzzzzzzzzzzzzzzzzzzzzzzzzzzzzzzzzzzzzzzzzzzzzzzzzzzziiiiiiiiiiiizzzzzzzzzzzzzzzzzz333333555555555555555577999999sssssssssssssssssskkkkkkfffkccssssssuuuuppyyyyyy2222222222222222222222222222222222222222111111112222112222222222222222222222<<222222222222222222111qqq11yy11ffgggfccccccffsfff999999999999888888666666555555555555555555333333zzzzzzzzzzzzzzzzzzddddddzzzzzzzzzzzzzzzzzzzzzzzzzzzzzzzzzzzzzzzzzzzzzzzzzzzzzzzzzzzzzzzzzzzzzzzzzzzzzzzzzzzzzzzzzzzzzz",
"zzzzzzzzzzzzzzzzzzzzzzzzzzzzzzzzzzzzzzzzzzzzzzzzzzzzzzzzzzzzzzzzzzzzzzzzzzzzzzzzzzzzzzzzzzzzzzzzzzzzzzzzzzzzzzzziiiiiiiiiiiizzzzzzzzzzzzzzzzzz333333555555555555777555999999sssssssssssssssssskkkkffffkkccssssssppuuuuyyyyqq222222222222222222222222222222222222112222221122221212222222222222222222<<22222222<<22222222222211<qq111yy11fgddggcccckkfffsff999999999999888888666668555555555555555555333333zzzzzzzzzzzzzzzzzzddddddzzzzzzzzzzzzzzzzzzzzzzzzzzzzzzzzzzzzzzzzzzzzzzzzzzzzzzzzzzzzzzzzzzzzzzzzzzzzzzzzzzzzzzzzzzzzzz",
"zzzzzzzzzzzzzzzzzzzzzzzzzzzzzzzzzzzzzzzzzzzzzzzzzzzzzzzzzzzzzzzzzzzzzzzzzzzzzzzzzzzzzzzzzzzzzzzzzzzzzzzzzzzzzzzziiiiiiiiiiiizzzzzzzzzzzzzzzzzz333333555555555555775555999999sssssssssssssssssskkkkffccccccssssssppuuuuyyyyqq222222222222222222222222222222222222112222221122221111222222222222222222<<22222222<<22222222222211<<qq11yy11ddddffcccckkffffff999999999999888888666668555555555555555555333333zzzzzzzzzzzzzzzzzzddddddzzzzzzzzzzzzzzzzzzzzzzzzzzzzzzzzzzzzzzzzzzzzzzzzzzzzzzzzzzzzzzzzzzzzzzzzzzzzzzzzzzzzzzzzzzzzzz",
"zzzzzzzzzzzzzzzzzzzzzzzzzzzzzzzzzzzzzzzzzzzzzzzzzzzzzzzzzzzzzzzzzzzzzzzzzzzzzzzzzzzzzzzzzzzzzzzzzzzzzzzzzzzzzzzziiiiiiiiiiiizzzzzzzzzzzzzzzzzz333333555555555555777755999999sssssssssssssssssskkkfffccccccssssssppppuuyyyqqq221122222222222222222222222222221121111122221222212222222222222222222222<<<22<2222<<222222222222<<1<1111yyyyfgddffkkckkkffffff999999999999888888666666555555555555555555333333zzzzzzzzzzzzzzzzzzddddddzzzzzzzzzzzzzzzzzzzzzzzzzzzzzzzzzzzzzzzzzzzzzzzzzzzzzzzzzzzzzzzzzzzzzzzzzzzzzzzzzzzzzzzzzzzzzz",
"zzzzzzzzzzzzzzzzzzzzzzzzzzzzzzzzzzzzzzzzzzzzzzzzzzzzzzzzzzzzzzzzzzzzzzzzzzzzzzzzzzzzzzzzzzzzzzzzzzzzzzzzzzzzzzzziiiiiiiiiiiizzzzzzzzzzzzzzzzzz333333555555555555777775999999sssssssssssssssssskkffffccccccssssssppppppyyyqqq221122222222222222222222222222222111111112222222112222222222222222222222<<<22<222<<<222222222222<<111111yyyyfgggffkkkkkkffffff999999999999888888666666555555555555555555333333zzzzzzzzzzzzzzzzzzddddddzzzzzzzzzzzzzzzzzzzzzzzzzzzzzzzzzzzzzzzzzzzzzzzzzzzzzzzzzzzzzzzzzzzzzzzzzzzzzzzzzzzzzzzzzzzzzz",
"zzzzzzzzzzzzzzzzzzzzzzzzzzzzzzzzzzzzzzzzzzzzzzzzzzzzzzzzzzzzzzzzzzzzzzzzzzzzzzzzzzzzzzzzzzzzzzzzzzzzzzzzzzzzzzzzddddddiiiiiiiiiiiipppppp444444444444333333555555666666777777888888688888888888ssssssffffffyyyqqq111qqq222222222222=====2222222==222===222222=======222222222222222222222222222222222222222222222222===22====222222111111111111ssssssh9ssss666666666666666666555555666666555555333333444444222222ppppppiiiiiizzzzzzzzzzzzzzzzzzzzzzzzzzzzzzzzzzzzzzzzzzzzzzzzzzzzzzzzzzzzzzzzzzzzzzzzzzzzzzzzzzzzzzzzzzzzzzzzzzzz",
"zzzzzzzzzzzzzzzzzzzzzzzzzzzzzzzzzzzzzzzzzzzzzzzzzzzzzzzzzzzzzzzzzzzzzzzzzzzzzzzzzzzzzzzzzzzzzzzzzzzzzzzzzzzzzzzzddddddiiiiiiiiiiiipppppp4444<<444444333333555555666666775777888888668888888888ssssssffffffyyyqqq1111qq222222222222====22==2222==222==2222222======2222222222222222222222222222<<2222<22222222222222===2=2===222222111111111111ssssssh9ssss666666666666666666555555666666555555333333444444222222ppppppiiiiiizzzzzzzzzzzzzzzzzzzzzzzzzzzzzzzzzzzzzzzzzzzzzzzzzzzzzzzzzzzzzzzzzzzzzzzzzzzzzzzzzzzzzzzzzzzzzzzzzzzz",
"zzzzzzzzzzzzzzzzzzzzzzzzzzzzzzzzzzzzzzzzzzzzzzzzzzzzzzzzzzzzzzzzzzzzzzzzzzzzzzzzzzzzzzzzzzzzzzzzzzzzzzzzzzzzzzzzddddddiiiiiiiiiiiipppppp44<<<<444444333333555555666666775577888866668888888888ssssssffffffyyqqqqq1qqqq222222222222==2222====2===22====22222222222=2222222222222222222222222222<<2222<<22222222222222=2==22==222222111111111111sssssshhsssh668866668888666666555555666666555555333333444444222222ppppppiiiiiizzzzzzzzzzzzzzzzzzzzzzzzzzzzzzzzzzzzzzzzzzzzzzzzzzzzzzzzzzzzzzzzzzzzzzzzzzzzzzzzzzzzzzzzzzzzzzzzzzzz",
"zzzzzzzzzzzzzzzzzzzzzzzzzzzzzzzzzzzzzzzzzzzzzzzzzzzzzzzzzzzzzzzzzzzzzzzzzzzzzzzzzzzzzzzzzzzzzzzzzzzzzzzzzzzzzzzzddddddiiiiiiiiiiiipppppp<<<<<<444444333333555555666686775577888866668888888888ssssssffffffyyyqqqqqqqqq222222222222==2222========22====2222222222222222222222222222222222222222<<2222<<22222222222222====22==222222111111111111sssssshhssss668886888888666666555555666666555555333333444444222222ppppppiiiiiizzzzzzzzzzzzzzzzzzzzzzzzzzzzzzzzzzzzzzzzzzzzzzzzzzzzzzzzzzzzzzzzzzzzzzzzzzzzzzzzzzzzzzzzzzzzzzzzzzzz",
"zzzzzzzzzzzzzzzzzzzzzzzzzzzzzzzzzzzzzzzzzzzzzzzzzzzzzzzzzzzzzzzzzzzzzzzzzzzzzzzzzzzzzzzzzzzzzzzzzzzzzzzzzzzzzzzzddddddiiiiiiiiiiiipppppp<<<<<<444444333333555555666666775555888888888888888888ssssssffffffqqyyyyqqqqqq222222222222==2===22====222====22222222222222222222222222222222222222222222222<22222222222===222==2222222222111111111111ssssssssssss868888888888666666555555666668555555333333444433222222ppppppiiiiiizzzzzzzzzzzzzzzzzzzzzzzzzzzzzzzzzzzzzzzzzzzzzzzzzzzzzzzzzzzzzzzzzzzzzzzzzzzzzzzzzzzzzzzzzzzzzzzzzzzz",
"zzzzzzzzzzzzzzzzzzzzzzzzzzzzzzzzzzzzzzzzzzzzzzzzzzzzzzzzzzzzzzzzzzzzzzzzzzzzzzzzzzzzzzzzzzzzzzzzzzzzzzzzzzzzzzzzddddddiiiiiiiiiiiipppppp<<<<<<444444333333555555666666775555888888888888888888ssssssffffffqqyyyyqqqqqq222222222222======22====2222====22222222=22222222222222222222222222222222<2222<<2222222222====22==22==222222111111111111ssssssssssss868888888888666666555555666686555555333333444433222222ppppppiiiiiizzzzzzzzzzzzzzzzzzzzzzzzzzzzzzzzzzzzzzzzzzzzzzzzzzzzzzzzzzzzzzzzzzzzzzzzzzzzzzzzzzzzzzzzzzzzzzzzzzzz",
"zzzzzzzzzzzzzzzzzzzzzzzzzzzzzzzzzzzzzzzzzzzzzzzzzzzzzzzzzzzzzzzzzzzzzzzzzzzzzzzzzzzzzzzzzzzzzzzzzzzzzzzzzzzzzzzzzzzzzziiiiiiiiiiii111111222222<<4444333333555555555555555555555555999999555555ssssssssssss<<<<22<<4444222222============================================================22====222222==2222========================222222222222sshhhh9999hh555555999999555555555555555555555555333333<<4444======111111iiiiiizzzzzzzzzzzzzzzzzzzzzzzzzzzzzzzzzzzzzzzzzzzzzzzzzzzzzzzzzzzzzzzzzzzzzzzzzzzzzzzzzzzzzzzzzzzzzzzzzzzz",
"zzzzzzzzzzzzzzzzzzzzzzzzzzzzzzzzzzzzzzzzzzzzzzzzzzzzzzzzzzzzzzzzzzzzzzzzzzzzzzzzzzzzzzzzzzzzzzzzzzzzzzzzzzzzzzzzzzzzzziiiiiiiiiiii111111222222<<4444333333555555555555555555555555999999555555ssssssssssss<<<222<44444222222============================================================22====222222===222========================222222222222shhhhh999999555555999999555555555555555555555555333333<<<444======111111iiiiiizzzzzzzzzzzzzzzzzzzzzzzzzzzzzzzzzzzzzzzzzzzzzzzzzzzzzzzzzzzzzzzzzzzzzzzzzzzzzzzzzzzzzzzzzzzzzzzzzzzz",
"zzzzzzzzzzzzzzzzzzzzzzzzzzzzzzzzzzzzzzzzzzzzzzzzzzzzzzzzzzzzzzzzzzzzzzzzzzzzzzzzzzzzzzzzzzzzzzzzzzzzzzzzzzzzzzzzzzzzzziiiiiiiiiiii1ppp112222224<<<443333335555555555555555555555559999sh555555ssssssssssss<<22<<4444<<222222============================================================2222==222222==2222========================22222222====sshhssss999s5555559h9999555555555555555555555555333333<<444422===211ppppiiiiiizzzzzzzzzzzzzzzzzzzzzzzzzzzzzzzzzzzzzzzzzzzzzzzzzzzzzzzzzzzzzzzzzzzzzzzzzzzzzzzzzzzzzzzzzzzzzzzzzzzz",
"zzzzzzzzzzzzzzzzzzzzzzzzzzzzzzzzzzzzzzzzzzzzzzzzzzzzzzzzzzzzzzzzzzzzzzzzzzzzzzzzzzzzzzzzzzzzzzzzzzzzzzzzzzzzzzzzzzzzzziiiiiiiiiiii1ppp1122222244<<4<3333335555335555555555555555559999ss555555ssssssssssss<<2<<24444<<222222======================================================2=====2222==222222==2222========================22222222====sshhsshh99hh555555h9hh99555555555555555555555555333333<<4444=====21111ppiiiiiizzzzzzzzzzzzzzzzzzzzzzzzzzzzzzzzzzzzzzzzzzzzzzzzzzzzzzzzzzzzzzzzzzzzzzzzzzzzzzzzzzzzzzzzzzzzzzzzzzzz",
"zzzzzzzzzzzzzzzzzzzzzzzzzzzzzzzzzzzzzzzzzzzzzzzzzzzzzzzzzzzzzzzzzzzzzzzzzzzzzzzzzzzzzzzzzzzzzzzzzzzzzzzzzzzzzzzzzzzzzziiiiiiiiiiii111111222222<<<<<<333333555555555555555555555555hh99hs555555ssssssssssss2<2<<2<<44<<222222=======================================================2====222222222222===2==========================222222222222ss9h99h999hh555555hhhhss555555555555555555555555333333<<<4<<======111111iiiiiizzzzzzzzzzzzzzzzzzzzzzzzzzzzzzzzzzzzzzzzzzzzzzzzzzzzzzzzzzzzzzzzzzzzzzzzzzzzzzzzzzzzzzzzzzzzzzzzzzzz",
"zzzzzzzzzzzzzzzzzzzzzzzzzzzzzzzzzzzzzzzzzzzzzzzzzzzzzzzzzzzzzzzzzzzzzzzzzzzzzzzzzzzzzzzzzzzzzzzzzzzzzzzzzzzzzzzzzzzzzziiiiiiiiiiii111111222222<<<<<<333333555555555555555555555555hs99ss555555ssssssssssss<<2222<444<<222222======================================================22====22222=222222====2=========================222222222222ss99999999hh555555hhhhss555555555555555555555555333333<<<4<<======111111iiiiiizzzzzzzzzzzzzzzzzzzzzzzzzzzzzzzzzzzzzzzzzzzzzzzzzzzzzzzzzzzzzzzzzzzzzzzzzzzzzzzzzzzzzzzzzzzzzzzzzzzz",
"zzzzzzzzzzzzzzzzzzzzzzzzzzzzzzzzzzzzzzzzzzzzzzzzzzzzzzzzzzzzzzzzzzzzzzzzzzzzzzzzzzzzzzzzzzzzzzzzzzzzzzzzzzzzzzzzzzzzzzzzzzzzzzzzzzpppppp221111<<4<<<333333555555555555555555666666555555555555667776<<<<<<222222<<<<<<222222$$$$$$========================**=*==*===****===****=================================OO==OO$$$$$$**====;;,,;=======111111668866555555555555666666555555555555555555333333<<<<<<222211ppppppzzzzzzzzzzzzzzzzzzzzzzzzzzzzzzzzzzzzzzzzzzzzzzzzzzzzzzzzzzzzzzzzzzzzzzzzzzzzzzzzzzzzzzzzzzzzzzzzzzzzzzzzzz",
"zzzzzzzzzzzzzzzzzzzzzzzzzzzzzzzzzzzzzzzzzzzzzzzzzzzzzzzzzzzzzzzzzzzzzzzzzzzzzzzzzzzzzzzzzzzzzzzzzzzzzzzzzzzzzzzzzzzzzzzzzzzzzzzzzzpppppp221122<<4<<<333333555555555555555555666666555555555555667776<<11<<222222<2<<<<222222$$$$$$========================**=*==*===****==*****=================================OOO=OO$$$$$$**====;;,,========111111666866555555555555666666555555555555555555333333<<<<<<221211ppppppzzzzzzzzzzzzzzzzzzzzzzzzzzzzzzzzzzzzzzzzzzzzzzzzzzzzzzzzzzzzzzzzzzzzzzzzzzzzzzzzzzzzzzzzzzzzzzzzzzzzzzzzzz",
"zzzzzzzzzzzzzzzzzzzzzzzzzzzzzzzzzzzzzzzzzzzzzzzzzzzzzzzzzzzzzzzzzzzzzzzzzzzzzzzzzzzzzzzzzzzzzzzzzzzzzzzzzzzzzzzzzzzzzzzzzzzzzzzzzzpppppp211122<<44<<3333333555555555555555556666665555555555556677661111<<<222222<<<<2222222$$$$$$==============================**===***==****==================================OO====$$$$$$**====;;,;========111111666666555555555555666666555555555555335555333333<<<<<<221111ppppppzzzzzzzzzzzzzzzzzzzzzzzzzzzzzzzzzzzzzzzzzzzzzzzzzzzzzzzzzzzzzzzzzzzzzzzzzzzzzzzzzzzzzzzzzzzzzzzzzzzzzzzzzz",
"zzzzzzzzzzzzzzzzzzzzzzzzzzzzzzzzzzzzzzzzzzzzzzzzzzzzzzzzzzzzzzzzzzzzzzzzzzzzzzzzzzzzzzzzzzzzzzzzzzzzzzzzzzzzzzzzzzzzzzzzzzzzzzzzzzpppppp211122<<44<<3333333555555555555555556666665555555555556667661111<<2222<<22<<<<222222$$$$$$==============================**===***=*****==================================OO====$$$$$$======;;,;========111111666666555555555555666666555555555555535555333333<<<<<<221111ppppppzzzzzzzzzzzzzzzzzzzzzzzzzzzzzzzzzzzzzzzzzzzzzzzzzzzzzzzzzzzzzzzzzzzzzzzzzzzzzzzzzzzzzzzzzzzzzzzzzzzzzzzzzz",
"zzzzzzzzzzzzzzzzzzzzzzzzzzzzzzzzzzzzzzzzzzzzzzzzzzzzzzzzzzzzzzzzzzzzzzzzzzzzzzzzzzzzzzzzzzzzzzzzzzzzzzzzzzzzzzzzzzzzzzzzzzzzzzzzzzpppppp111122<<4444333333555555555555555555666666555555555555666666<<<<<<22<<<<<<<<<<222222$$$$$$==============================****=*******====**==============================OOO===$$$$$$======;;==========111111886666555555555555666666555555555555555555333333<<<<<<112222ppppppzzzzzzzzzzzzzzzzzzzzzzzzzzzzzzzzzzzzzzzzzzzzzzzzzzzzzzzzzzzzzzzzzzzzzzzzzzzzzzzzzzzzzzzzzzzzzzzzzzzzzzzzzz",
"zzzzzzzzzzzzzzzzzzzzzzzzzzzzzzzzzzzzzzzzzzzzzzzzzzzzzzzzzzzzzzzzzzzzzzzzzzzzzzzzzzzzzzzzzzzzzzzzzzzzzzzzzzzzzzzzzzzzzzzzzzzzzzzzzzpppppp211122<<44<<333333555555555555555555666666555555555555666666<<<<<<22<<<<<<<<<<222222$$$$$$==============================****==******====**==============================OO====$$$$$$======;;==========111111886666555555555555666666555555555555555555333333<<<<<<112222ppppppzzzzzzzzzzzzzzzzzzzzzzzzzzzzzzzzzzzzzzzzzzzzzzzzzzzzzzzzzzzzzzzzzzzzzzzzzzzzzzzzzzzzzzzzzzzzzzzzzzzzzzzzzz",
"zzzzzzzzzzzzzzzzzzzzzzzzzzzzzzzzzzzzzzzzzzzzzzzzzzzzzzzzzzzzzzzzzzzzzzzzzzzzzzzzzzzzzzzzzzzzzzzzzzzzzzzzzzzzzzzzzzzzzzzzzzzzzzzzzziiiiiiiiiiiizzzzzz221122zzzzzz444444555555555555333333555555555555222222222222222222======++++++**OOO+****==******************************#*####************************************++OO++******,,,,,,,,,,,,**====777777555555333333555555555555444444<<<<<<111111ppppppiiiiiizzzzzzzzzzzzzzzzzzzzzzzzzzzzzzzzzzzzzzzzzzzzzzzzzzzzzzzzzzzzzzzzzzzzzzzzzzzzzzzzzzzzzzzzzzzzzzzzzzzzzzzzzzzzzzzz",
"zzzzzzzzzzzzzzzzzzzzzzzzzzzzzzzzzzzzzzzzzzzzzzzzzzzzzzzzzzzzzzzzzzzzzzzzzzzzzzzzzzzzzzzzzzzzzzzzzzzzzzzzzzzzzzzzzzzzzzzzzzzzzzzzzziiiiiiiiiiiizzzzzz221122zzzzzz444444555555555555333333555555555555222222222222222222======++++OO=*OOOO==**********************************######************************************++OOOO******,,,,,,,,,,,,**====777777555555333333555555555555444444<<<<<<111111ppppppiiiiiizzzzzzzzzzzzzzzzzzzzzzzzzzzzzzzzzzzzzzzzzzzzzzzzzzzzzzzzzzzzzzzzzzzzzzzzzzzzzzzzzzzzzzzzzzzzzzzzzzzzzzzzzzzzzzzz",
"zzzzzzzzzzzzzzzzzzzzzzzzzzzzzzzzzzzzzzzzzzzzzzzzzzzzzzzzzzzzzzzzzzzzzzzzzzzzzzzzzzzzzzzzzzzzzzzzzzzzzzzzzzzzzzzzzzzzzzzzzzzzzzzzzziiiiiiiiiiiizzzzzz221111zzzzzz444444555555555555333333555555555555222222222222222222======+OOO+O**OOOO=***==**********************##****##***##********************************OOOO*++OO++******,,,,,,-,,,,-*=****777777555555333333555555555555444444<<<<<<111111ppppppiiiiiizzzzzzzzzzzzzzzzzzzzzzzzzzzzzzzzzzzzzzzzzzzzzzzzzzzzzzzzzzzzzzzzzzzzzzzzzzzzzzzzzzzzzzzzzzzzzzzzzzzzzzzzzzzzzzzz",
"zzzzzzzzzzzzzzzzzzzzzzzzzzzzzzzzzzzzzzzzzzzzzzzzzzzzzzzzzzzzzzzzzzzzzzzzzzzzzzzzzzzzzzzzzzzzzzzzzzzzzzzzzzzzzzzzzzzzzzzzzzzzzzzzzziiiiiiiiiiiizzzzzz221111zzzzzz444444555555555555333333555555555555222222222222222222======++OO++**OOOO****==**********************##****##****#*******************************OOOO**++OO++******,,,,,,,,,,--==****777777555555333333555555555555444444<<<<<<111111ppppppiiiiiizzzzzzzzzzzzzzzzzzzzzzzzzzzzzzzzzzzzzzzzzzzzzzzzzzzzzzzzzzzzzzzzzzzzzzzzzzzzzzzzzzzzzzzzzzzzzzzzzzzzzzzzzzzzzzzz",
"zzzzzzzzzzzzzzzzzzzzzzzzzzzzzzzzzzzzzzzzzzzzzzzzzzzzzzzzzzzzzzzzzzzzzzzzzzzzzzzzzzzzzzzzzzzzzzzzzzzzzzzzzzzzzzzzzzzzzzzzzzzzzzzzzziiiiiiiiiiiizzzzzz211111zzzzzz444444555555555555333333555555555555222222222222222222======OOOO++OOOOOO****==**********************#*#**###************************************OOOOO*++OO++******,,,,,,,,,,--==****777777555555333333555555555555444444<<<<<<111111ppppppiiiiiizzzzzzzzzzzzzzzzzzzzzzzzzzzzzzzzzzzzzzzzzzzzzzzzzzzzzzzzzzzzzzzzzzzzzzzzzzzzzzzzzzzzzzzzzzzzzzzzzzzzzzzzzzzzzzzz",
"zzzzzzzzzzzzzzzzzzzzzzzzzzzzzzzzzzzzzzzzzzzzzzzzzzzzzzzzzzzzzzzzzzzzzzzzzzzzzzzzzzzzzzzzzzzzzzzzzzzzzzzzzzzzzzzzzzzzzzzzzzzzzzzzzziiiiiiiiiiiizzzzzz211111zzzzzz444444555555555555333333555555555555222222222222222222======OOOO++OOOOOO****==**********************####**##************************************OOOOO*++OO++******,,,,,,*,,---==****777777555555333333555555555555444444<<<<<<111111ppppppiiiiiizzzzzzzzzzzzzzzzzzzzzzzzzzzzzzzzzzzzzzzzzzzzzzzzzzzzzzzzzzzzzzzzzzzzzzzzzzzzzzzzzzzzzzzzzzzzzzzzzzzzzzzzzzzzzzzz",
"zzzzzzzzzzzzzzzzzzzzzzzzzzzzzzzzzzzzzzzzzzzzzzzzzzzzzzzzzzzzzzzzzzzzzzzzzzzzzzzzzzzzzzzzzzzzzzzzzzzzzzzzzzzzzzzzzzzzzzzzzzzzzzzzzzzzzzzzzzzzzzzzzzzzpppp11zzzzzz4<<<<<444444553555333333333333222222========;===,,,,,,******$$$$$$@@@@@@#########################################@##########################**##OO@@@@$$$$$$******,,,,,,************222222333333333333333333444<44<<<<<<ppppppppppppzzzzzzzzzzzzzzzzzzzzzzzzzzzzzzzzzzzzzzzzzzzzzzzzzzzzzzzzzzzzzzzzzzzzzzzzzzzzzzzzzzzzzzzzzzzzzzzzzzzzzzzzzzzzzzzzzzzzzzzzzzzz",
"zzzzzzzzzzzzzzzzzzzzzzzzzzzzzzzzzzzzzzzzzzzzzzzzzzzzzzzzzzzzzzzzzzzzzzzzzzzzzzzzzzzzzzzzzzzzzzzzzzzzzzzzzzzzzzzzzzzzzzzzzzzzzzzzzzzzzzzzzzzzzzzzzzzzpppp11zzzzzz<<<44<444444353355333333333333222222========;===,,,,,,******$$$$$$@@@@@@########################################@@##############**####**####**##OO@@@@$$$$$$******,,,,,,************222222333333333333333333444<44<<<<<<ppppppppppppzzzzzzzzzzzzzzzzzzzzzzzzzzzzzzzzzzzzzzzzzzzzzzzzzzzzzzzzzzzzzzzzzzzzzzzzzzzzzzzzzzzzzzzzzzzzzzzzzzzzzzzzzzzzzzzzzzzzzzzzzzzz",
"zzzzzzzzzzzzzzzzzzzzzzzzzzzzzzzzzzzzzzzzzzzzzzzzzzzzzzzzzzzzzzzzzzzzzzzzzzzzzzzzzzzzzzzzzzzzzzzzzzzzzzzzzzzzzzzzzzzzzzzzzzzzzzzzzzzzzzzzzzzzzzzzzzzz11pp11zzzzzz<444444444<<333355333333333333222222======;=;;==;;,,,,******$$$$$$@@@@@@###############################################################**###**##OO@@@@$$$$$$******,,,,,,****,,******22222233333333333333333344<<<4<<<<<<ppppppppppppzzzzzzzzzzzzzzzzzzzzzzzzzzzzzzzzzzzzzzzzzzzzzzzzzzzzzzzzzzzzzzzzzzzzzzzzzzzzzzzzzzzzzzzzzzzzzzzzzzzzzzzzzzzzzzzzzzzzzzzzzzzz",
"zzzzzzzzzzzzzzzzzzzzzzzzzzzzzzzzzzzzzzzzzzzzzzzzzzzzzzzzzzzzzzzzzzzzzzzzzzzzzzzzzzzzzzzzzzzzzzzzzzzzzzzzzzzzzzzzzzzzzzzzzzzzzzzzzzzzzzzzzzzzzzzzzzzz11pp11zzzzzz4444<44444<<333355333333333333222222======;;;;==e;;;,,******$$$$$$@@@@@@###############################@#######@#@#####################**###**##OO@@@@$$$$$$******,,,,,,****,,******22222233333333333333333344<<<4<<<<<<ppppppppppppzzzzzzzzzzzzzzzzzzzzzzzzzzzzzzzzzzzzzzzzzzzzzzzzzzzzzzzzzzzzzzzzzzzzzzzzzzzzzzzzzzzzzzzzzzzzzzzzzzzzzzzzzzzzzzzzzzzzzzzzzzzz",
"zzzzzzzzzzzzzzzzzzzzzzzzzzzzzzzzzzzzzzzzzzzzzzzzzzzzzzzzzzzzzzzzzzzzzzzzzzzzzzzzzzzzzzzzzzzzzzzzzzzzzzzzzzzzzzzzzzzzzzzzzzzzzzzzzzzzzzzzzzzzzzzzzzzz1111ppzzzzzz<<<<<<444444555533333333333333222222======;=;===ee,,,,******$$$$$$@@@@@@############################@@@@####@@@@########################*####*##O@@@@@$$$$$$******,,,,,,************222222333333333333333333<<<<<<<<<<<<ppppppppppppzzzzzzzzzzzzzzzzzzzzzzzzzzzzzzzzzzzzzzzzzzzzzzzzzzzzzzzzzzzzzzzzzzzzzzzzzzzzzzzzzzzzzzzzzzzzzzzzzzzzzzzzzzzzzzzzzzzzzzzzzzzz",
"zzzzzzzzzzzzzzzzzzzzzzzzzzzzzzzzzzzzzzzzzzzzzzzzzzzzzzzzzzzzzzzzzzzzzzzzzzzzzzzzzzzzzzzzzzzzzzzzzzzzzzzzzzzzzzzzzzzzzzzzzzzzzzzzzzzzzzzzzzzzzzzzzzzz1111ppzzzzzz<<<<<<444444555533333333333333222222========;;==ee,,,,******$$$$$$@@@@@@############################@@@@####@@@@############################**##O@@@@@$$$$$$******,,,,,,************222222333333333333333333<<<<<<<<<<<<ppppppppppppzzzzzzzzzzzzzzzzzzzzzzzzzzzzzzzzzzzzzzzzzzzzzzzzzzzzzzzzzzzzzzzzzzzzzzzzzzzzzzzzzzzzzzzzzzzzzzzzzzzzzzzzzzzzzzzzzzzzzzzzzzzz",
"zzzzzzzzzzzzzzzzzzzzzzzzzzzzzzzzzzzzzzzzzzzzzzzzzzzzzzzzzzzzzzzzzzzzzzzzzzzzzzzzzzzzzzzzzzzzzzzzzzzzzzzzzzzzzzzzzzzzzzzzzzzzzzzzzzzzzzzzzzzzzzzzzzzzzzzzzzzzzzzzqqqqqqqqqqqq444444<<<<<<=2======**********,,,,,,,,,,,,#*####$$$$$$XXXXXX@@@@@@@@@@@@#####@@@######################@####@@@#@########@@@@@@@@@@@@....XX$$$$$$******,,,,,,,,,,,,************2222==qqqqqq333333<<<<<<<<<<<<iiiiiizzzzzzzzzzzzzzzzzzzzzzzzzzzzzzzzzzzzzzzzzzzzzzzzzzzzzzzzzzzzzzzzzzzzzzzzzzzzzzzzzzzzzzzzzzzzzzzzzzzzzzzzzzzzzzzzzzzzzzzzzzzzzzzzzz",
"zzzzzzzzzzzzzzzzzzzzzzzzzzzzzzzzzzzzzzzzzzzzzzzzzzzzzzzzzzzzzzzzzzzzzzzzzzzzzzzzzzzzzzzzzzzzzzzzzzzzzzzzzzzzzzzzzzzzzzzzzzzzzzzzzzzzzzzzzzzzzzzzzzzzzzzzzzzzzzzzqqqqqqqqqqqq444444<<<<<<=======***********,,,,,,,,,,,,######$$$$$$XXXXXX@@@@@@@@@@@@#####@@@######################@####@@@##########@@@@@@@@@@@@....XX$$$$$$***#**,,,,,,,,,,,,************2222==qqqqqq333333<<<<<<<<<<<<iiiiiizzzzzzzzzzzzzzzzzzzzzzzzzzzzzzzzzzzzzzzzzzzzzzzzzzzzzzzzzzzzzzzzzzzzzzzzzzzzzzzzzzzzzzzzzzzzzzzzzzzzzzzzzzzzzzzzzzzzzzzzzzzzzzzzzz",
"zzzzzzzzzzzzzzzzzzzzzzzzzzzzzzzzzzzzzzzzzzzzzzzzzzzzzzzzzzzzzzzzzzzzzzzzzzzzzzzzzzzzzzzzzzzzzzzzzzzzzzzzzzzzzzzzzzzzzzzzzzzzzzzzzzzzzzzzzzzzzzzzzzzzzzzzzzzzzzzzqqqqqq4444qq444444<<<<<<=======***==******,,,,**,,,,,,######$$$$$$XXXXXX@@@@@@@@@@@@######@#############################@@##########@@@@@@@@@@@@.$XXXX$$$$$$**##**,,,,,,*,,,**************222222qq44qq444443<<<<<<<<<<<<iiiiiizzzzzzzzzzzzzzzzzzzzzzzzzzzzzzzzzzzzzzzzzzzzzzzzzzzzzzzzzzzzzzzzzzzzzzzzzzzzzzzzzzzzzzzzzzzzzzzzzzzzzzzzzzzzzzzzzzzzzzzzzzzzzzzzzz",
"zzzzzzzzzzzzzzzzzzzzzzzzzzzzzzzzzzzzzzzzzzzzzzzzzzzzzzzzzzzzzzzzzzzzzzzzzzzzzzzzzzzzzzzzzzzzzzzzzzzzzzzzzzzzzzzzzzzzzzzzzzzzzzzzzzzzzzzzzzzzzzzzzzzzzzzzzzzzzzzzqqqqqq4444qq444444<<<<<<========**==******,,*,**,,,,,,######$$$$$$XXXXXX@@@@@@@@@@@@################################################@@@@@@@@@@@@$$XXXX$$$$$$******,,,,,,*,,,******##******2222224444qq444433<<<<<<<<<<<<iiiiiizzzzzzzzzzzzzzzzzzzzzzzzzzzzzzzzzzzzzzzzzzzzzzzzzzzzzzzzzzzzzzzzzzzzzzzzzzzzzzzzzzzzzzzzzzzzzzzzzzzzzzzzzzzzzzzzzzzzzzzzzzzzzzzzzz",
"zzzzzzzzzzzzzzzzzzzzzzzzzzzzzzzzzzzzzzzzzzzzzzzzzzzzzzzzzzzzzzzzzzzzzzzzzzzzzzzzzzzzzzzzzzzzzzzzzzzzzzzzzzzzzzzzzzzzzzzzzzzzzzzzzzzzzzzzzzzzzzzzzzzzzzzzzzzzzzzzqqqqqqqqqqqq4444qq<<<<<<========*===************,,,,,,######$$$$X$XXXXXX@@@@@@@@@@@@################################################@@@@@@@@@@@@$XXXXX$$$$XX*#####,,,,,,,,,,****####******22222244444q444444<<<<<<<<<<<<iiiiiizzzzzzzzzzzzzzzzzzzzzzzzzzzzzzzzzzzzzzzzzzzzzzzzzzzzzzzzzzzzzzzzzzzzzzzzzzzzzzzzzzzzzzzzzzzzzzzzzzzzzzzzzzzzzzzzzzzzzzzzzzzzzzzzzz",
"zzzzzzzzzzzzzzzzzzzzzzzzzzzzzzzzzzzzzzzzzzzzzzzzzzzzzzzzzzzzzzzzzzzzzzzzzzzzzzzzzzzzzzzzzzzzzzzzzzzzzzzzzzzzzzzzzzzzzzzzzzzzzzzzzzzzzzzzzzzzzzzzzzzzzzzzzzzzzzzzqqqqqqqqqqqq4444qq2<<<<<2===========************,,,,,,#*####$$$$XXXXXXXX@@@@@@@@@@@@#######@########################################@@@@@@@@@@@@$$XXXX$$$XXX######,,,,,,,,,,****####******==222=44444q444444<<<<<<<<<<<<iiiiiizzzzzzzzzzzzzzzzzzzzzzzzzzzzzzzzzzzzzzzzzzzzzzzzzzzzzzzzzzzzzzzzzzzzzzzzzzzzzzzzzzzzzzzzzzzzzzzzzzzzzzzzzzzzzzzzzzzzzzzzzzzzzzzzzz",
"zzzzzzzzzzzzzzzzzzzzzzzzzzzzzzzzzzzzzzzzzzzzzzzzzzzzzzzzzzzzzzzzzzzzzzzzzzzzzzzzzzzzzzzzzzzzzzzzzzzzzzzzzzzzzzzzzzzzzzzzzzzzzzzzzzzzzzzzzzzzzzeeeeeettttttaaaaaayyyttt11ee11======++OOOO************######o+oo++oooo++::::::>>>>>>:#::::::::##xxxxxxAAAAAA>>>>>>########@@##############>>>>>>AAAAAAxxxxxx::::::::-*::>>>>>>::,,::++++oooooooo##############**##------22222e%%%%%%zzzzzzzzzzzzzzzzzzzzzzzzzzzzzzzzzzzzzzzzzzzzzzzzzzzzzzzzzzzzzzzzzzzzzzzzzzzzzzzzzzzzzzzzzzzzzzzzzzzzzzzzzzzzzzzzzzzzzzzzzzzzzzzzzzzzzzzzzzzzzz",
"zzzzzzzzzzzzzzzzzzzzzzzzzzzzzzzzzzzzzzzzzzzzzzzzzzzzzzzzzzzzzzzzzzzzzzzzzzzzzzzzzzzzzzzzzzzzzzzzzzzzzzzzzzzzzzzzzzzzzzzzzzzzzzzzzzzzzzzzzzzzzzeeeeeettttttaaaaaayyyyttyyee11======++OOOO************######o+o+++oooo++::::::>>>>>>::::::::::::xxxxxxAAAAAA>>>>>>########@@##############>>>>>>AAAAAAxxxxxx:::*:::::*::>>>>>>:::,,,++++oooooooo##############**#*------222222%%%%%%zzzzzzzzzzzzzzzzzzzzzzzzzzzzzzzzzzzzzzzzzzzzzzzzzzzzzzzzzzzzzzzzzzzzzzzzzzzzzzzzzzzzzzzzzzzzzzzzzzzzzzzzzzzzzzzzzzzzzzzzzzzzzzzzzzzzzzzzzzzzzz",
"zzzzzzzzzzzzzzzzzzzzzzzzzzzzzzzzzzzzzzzzzzzzzzzzzzzzzzzzzzzzzzzzzzzzzzzzzzzzzzzzzzzzzzzzzzzzzzzzzzzzzzzzzzzzzzzzzzzzzzzzzzzzzzzzzzzzzzzzzzzzzzeeeeeettttttggaaaayyyytyyyeee1======O+OOOO************######oooo++oooo++::::::>>>>>>::##::::::::xxxxxxAAAAAA>>>>>>#########@##############>>>>>>AAAAAAxxxxxx:::*::::**::>>>>>>::,,,,+++ooooooooo##############**#*;;----222222%%%%%%zzzzzzzzzzzzzzzzzzzzzzzzzzzzzzzzzzzzzzzzzzzzzzzzzzzzzzzzzzzzzzzzzzzzzzzzzzzzzzzzzzzzzzzzzzzzzzzzzzzzzzzzzzzzzzzzzzzzzzzzzzzzzzzzzzzzzzzzzzzzzz",
"zzzzzzzzzzzzzzzzzzzzzzzzzzzzzzzzzzzzzzzzzzzzzzzzzzzzzzzzzzzzzzzzzzzzzzzzzzzzzzzzzzzzzzzzzzzzzzzzzzzzzzzzzzzzzzzzzzzzzzzzzzzzzzzzzzzzzzzzzzzzzzeeeeeettttttggggaayyyytyyyeeee======++OOOO************######oooo+++ooo++::::::>>>>>>:::#::::::::xxxxxxAAAAAA>>>>>>########################>>>>>>AAAAAAxxxxxx::::::::**-:>>>>>>::,,,,++++oooooooo############****##;;----222222%%%%%%zzzzzzzzzzzzzzzzzzzzzzzzzzzzzzzzzzzzzzzzzzzzzzzzzzzzzzzzzzzzzzzzzzzzzzzzzzzzzzzzzzzzzzzzzzzzzzzzzzzzzzzzzzzzzzzzzzzzzzzzzzzzzzzzzzzzzzzzzzzzzz",
"zzzzzzzzzzzzzzzzzzzzzzzzzzzzzzzzzzzzzzzzzzzzzzzzzzzzzzzzzzzzzzzzzzzzzzzzzzzzzzzzzzzzzzzzzzzzzzzzzzzzzzzzzzzzzzzzzzzzzzzzzzzzzzzzzzzzzzzzzzzzzzeeeeeettttttaaaaaayyyyyy111111======OOOOOO************######ooo+++oooooo::::::>>>>>>::::::::::::xxxxxxAAAAAA>>>>>>########################>>>>>>AAAAAAxxxxxx::::::::::::>>>>>>,,,,,,oooooooooooo##############****;;===-222222%%%%%%zzzzzzzzzzzzzzzzzzzzzzzzzzzzzzzzzzzzzzzzzzzzzzzzzzzzzzzzzzzzzzzzzzzzzzzzzzzzzzzzzzzzzzzzzzzzzzzzzzzzzzzzzzzzzzzzzzzzzzzzzzzzzzzzzzzzzzzzzzzzzz",
"zzzzzzzzzzzzzzzzzzzzzzzzzzzzzzzzzzzzzzzzzzzzzzzzzzzzzzzzzzzzzzzzzzzzzzzzzzzzzzzzzzzzzzzzzzzzzzzzzzzzzzzzzzzzzzzzzzzzzzzzzzzzzzzzzzzzzzzzzzzzzzeeeeeettttttaaaaggyyyyyy111111======OOOOOO************######oo++++oooooo::::::>>>>>>::::::::::::xxxxxxAAAAAA>>>>>>########################>>>>>>AAAAAAxxxxxx--::::::::::>>>>>>,,,,,,oooooooooooo##############****;;====222222%%%%%%zzzzzzzzzzzzzzzzzzzzzzzzzzzzzzzzzzzzzzzzzzzzzzzzzzzzzzzzzzzzzzzzzzzzzzzzzzzzzzzzzzzzzzzzzzzzzzzzzzzzzzzzzzzzzzzzzzzzzzzzzzzzzzzzzzzzzzzzzzzzzz",
"zzzzzzzzzzzzzzzzzzzzzzzzzzzzzzzzzzzzzzzzzzzzzzzzzzzzzzzzzzzzzzzzzzzzzzzzzzzzzzzzzzzzzzzzzzzzzzzzzzzzzzzzzzzzzzzzzzzzzzzzzzzzeeeewwttttttjjjjjjjjjjjjaaaaaawwwwwweeeeee%%%%%%OOOO++OOOOOO####**############XXXXXX      XXXXXXXXXXXX            XXXXXXooooooXXXXXX######@@@@@@@@@@@@######XXXXXXooooooXXXXXX            XXXXXXXXXXXX      XXXXXX##################OOOOOO&%&&&&%%&&&&OOOOOOzzzzzzzzzzzzzzzzzzzzzzzzzzzzzzzzzzzzzzzzzzzzzzzzzzzzzzzzzzzzzzzzzzzzzzzzzzzzzzzzzzzzzzzzzzzzzzzzzzzzzzzzzzzzzzzzzzzzzzzzzzzzzzzzzzzzzzzz",
"zzzzzzzzzzzzzzzzzzzzzzzzzzzzzzzzzzzzzzzzzzzzzzzzzzzzzzzzzzzzzzzzzzzzzzzzzzzzzzzzzzzzzzzzzzzzzzzzzzzzzzzzzzzzzzzzzzzzzzzzzzzzeeeewwttttttjjjjjjjjjjjjaaaaaawwwwwweeeeee%%%%%%OOOO++++OOOO*##***############XXXXXX      XXXXXXXXXXXX            XXXXXXooooooXXXXXX######@@@@@@@@@@@@######XXXXXXooooooXXXXXX            XXXXXXXXXXXX      XXXXXX##################OOOOOO%%&&&&%%&&&&OOOOOOzzzzzzzzzzzzzzzzzzzzzzzzzzzzzzzzzzzzzzzzzzzzzzzzzzzzzzzzzzzzzzzzzzzzzzzzzzzzzzzzzzzzzzzzzzzzzzzzzzzzzzzzzzzzzzzzzzzzzzzzzzzzzzzzzzzzzzzz",
"zzzzzzzzzzzzzzzzzzzzzzzzzzzzzzzzzzzzzzzzzzzzzzzzzzzzzzzzzzzzzzzzzzzzzzzzzzzzzzzzzzzzzzzzzzzzzzzzzzzzzzzzzzzzzzzzzzzzzzzzzzzzeeeweettttttjjjjjjjjjjjjaaaaaawwwwwweeeeee%%%%%%OOOO+OOOOOOO****##############XXXXXX      XXXXXXXXXXXX            XXXXXXooooooXXXXXX######@@@@@@@@@@@@######XXXXXXooooooXXXXXX            XXXXXXXXXXXX      XXXXXX##################OOOOOO%%&&&&&&&&&&OOOO+Ozzzzzzzzzzzzzzzzzzzzzzzzzzzzzzzzzzzzzzzzzzzzzzzzzzzzzzzzzzzzzzzzzzzzzzzzzzzzzzzzzzzzzzzzzzzzzzzzzzzzzzzzzzzzzzzzzzzzzzzzzzzzzzzzzzzzzzzz",
"zzzzzzzzzzzzzzzzzzzzzzzzzzzzzzzzzzzzzzzzzzzzzzzzzzzzzzzzzzzzzzzzzzzzzzzzzzzzzzzzzzzzzzzzzzzzzzzzzzzzzzzzzzzzzzzzzzzzzzzzzzzzeewweettttttjjjjjjjjjjjjaaaaaawwwwwweeeeee%%%%%%OOOOOOOOOOOO****##############XXXXXX      XXXXXXXXXXXX            XXXXXXooooooXXXXXX######@@@@@@@@@@@@######XXXXXXooooooXXXXXX            XXXXXXXXXXXX      XXXXXX##################OOOOOO&%&&&&&&&&&&OOOO++zzzzzzzzzzzzzzzzzzzzzzzzzzzzzzzzzzzzzzzzzzzzzzzzzzzzzzzzzzzzzzzzzzzzzzzzzzzzzzzzzzzzzzzzzzzzzzzzzzzzzzzzzzzzzzzzzzzzzzzzzzzzzzzzzzzzzzzz",
"zzzzzzzzzzzzzzzzzzzzzzzzzzzzzzzzzzzzzzzzzzzzzzzzzzzzzzzzzzzzzzzzzzzzzzzzzzzzzzzzzzzzzzzzzzzzzzzzzzzzzzzzzzzzzzzzzzzzzzzzzzzzwwwweettttttjjjjjjjjjjjjaaaaaawwwwwweeeeee%%%%%%OOOOOOOOOOOO##***#############XXXXXX      XXXXXXXXXXXX            XXXXXXooooooXXXXXX######@@@@@@@@@@@@######XXXXXXooooooXXXXXX            XXXXXXXXXXXX      XXXXXX##################OOOOOO&&&&&&&&&&&&OO++++zzzzzzzzzzzzzzzzzzzzzzzzzzzzzzzzzzzzzzzzzzzzzzzzzzzzzzzzzzzzzzzzzzzzzzzzzzzzzzzzzzzzzzzzzzzzzzzzzzzzzzzzzzzzzzzzzzzzzzzzzzzzzzzzzzzzzzzz",
"zzzzzzzzzzzzzzzzzzzzzzzzzzzzzzzzzzzzzzzzzzzzzzzzzzzzzzzzzzzzzzzzzzzzzzzzzzzzzzzzzzzzzzzzzzzzzzzzzzzzzzzzzzzzzzzzzzzzzzzzzzzzwwwweettttttjjjjjjjjjjjjaaaaaawwwwwweeeeee%%%%%%OOOO+O++OOO+###***############XXXXXX      XXXXXXXXXXXX            XXXXXXooooooXXXXXX######@@@@@@@@@@@@######XXXXXXooooooXXXXXX            XXXXXXXXXXXX      XXXXXX##################OOOOOO&&&&&&&&&&&&OO++++zzzzzzzzzzzzzzzzzzzzzzzzzzzzzzzzzzzzzzzzzzzzzzzzzzzzzzzzzzzzzzzzzzzzzzzzzzzzzzzzzzzzzzzzzzzzzzzzzzzzzzzzzzzzzzzzzzzzzzzzzzzzzzzzzzzzzzzz",
"zzzzzzzzzzzzzzzzzzzzzzzzzzzzzzzzzzzzzzzzzzzzzzzzzzzzzzzzzzzzzzzzzzzzzzzzzzzzzzzzzzzzzzzzzzzzzzzzzzzzzzzzzz;;;;;ewwwwwwaaaaaajjjjjjjjjjjjaaaaaarrrrrr;;;;;;;;---;%%%%%%OOOOOOoooooo&&OOOO############@@@@@@XXXXXX                                                                  ######                                                XXXXXX@@@@@@############OOOOOOOOOOOOoooooo++++++&&&&&&zzzzzzzzzzzzzzzzzzzzzzzzzzzzzzzzzzzzzzzzzzzzzzzzzzzzzzzzzzzzzzzzzzzzzzzzzzzzzzzzzzzzzzzzzzzzzzzzzzzzzzzzzzzzzzzzzzzzzzzzzzzzzzzzzz",
"zzzzzzzzzzzzzzzzzzzzzzzzzzzzzzzzzzzzzzzzzzzzzzzzzzzzzzzzzzzzzzzzzzzzzzzzzzzzzzzzzzzzzzzzzzzzzzzzzzzzzzzzzzee;;eewrwwwwaaaaaajjjjjjjjjjjjaaaaaarrrrrr;;;;;;;;---;%%%%%%OOOOOOoooooo&&OOOO############@@@@@@XXXXXX                                                                  ######                                                XXXXXX@@@@@@############OOOOOOOOOOOO++oooo++++++&&&&&&zzzzzzzzzzzzzzzzzzzzzzzzzzzzzzzzzzzzzzzzzzzzzzzzzzzzzzzzzzzzzzzzzzzzzzzzzzzzzzzzzzzzzzzzzzzzzzzzzzzzzzzzzzzzzzzzzzzzzzzzzzzzzzzzzz",
"zzzzzzzzzzzzzzzzzzzzzzzzzzzzzzzzzzzzzzzzzzzzzzzzzzzzzzzzzzzzzzzzzzzzzzzzzzzzzzzzzzzzzzzzzzzzzzzzzzzzzzzzzzee;;;;wwwwwwaaaaaajjjjjjjjjjjjaaaaaarrrrrr;;;;;;;;;;;;%%%%%%OOOOOOoooooo&&&OOO############@@@@@@XXXXXX                                                                  ######                                                XXXXXX@@@@@@############OOOOOOOOOOOO+++ooo++++++&&&&&&zzzzzzzzzzzzzzzzzzzzzzzzzzzzzzzzzzzzzzzzzzzzzzzzzzzzzzzzzzzzzzzzzzzzzzzzzzzzzzzzzzzzzzzzzzzzzzzzzzzzzzzzzzzzzzzzzzzzzzzzzzzzzzzzzz",
"zzzzzzzzzzzzzzzzzzzzzzzzzzzzzzzzzzzzzzzzzzzzzzzzzzzzzzzzzzzzzzzzzzzzzzzzzzzzzzzzzzzzzzzzzzzzzzzzzzzzzzzzzzee;;;erwwwwwaaaaaajjjjjjjjjjjjaaaaaarrrrrr;;;;;;;;;;;;%%%%%%OOOOOOoooooo&&&OOO############@@@@@@XXXXXX                                                                  ######                                                XXXXXX@@@@@@############&OOOOOOOOOOO+++ooo++++++&&&&&&zzzzzzzzzzzzzzzzzzzzzzzzzzzzzzzzzzzzzzzzzzzzzzzzzzzzzzzzzzzzzzzzzzzzzzzzzzzzzzzzzzzzzzzzzzzzzzzzzzzzzzzzzzzzzzzzzzzzzzzzzzzzzzzzzz",
"zzzzzzzzzzzzzzzzzzzzzzzzzzzzzzzzzzzzzzzzzzzzzzzzzzzzzzzzzzzzzzzzzzzzzzzzzzzzzzzzzzzzzzzzzzzzzzzzzzzzzzzzzz;;;;eerwwwwwaaaaaajjjjjjjjjjjjaaaaaarrrrrr;;;;;;;;;;;;%%%%%%OOOOOOoo++ooOO&&&&############@@@@@@XXXXXX                                                                  ######                                                XXXXXX@@@@@@@###########&&OOOOOOOOOOoooooo++++++&&&&&&zzzzzzzzzzzzzzzzzzzzzzzzzzzzzzzzzzzzzzzzzzzzzzzzzzzzzzzzzzzzzzzzzzzzzzzzzzzzzzzzzzzzzzzzzzzzzzzzzzzzzzzzzzzzzzzzzzzzzzzzzzzzzzzzzz",
"zzzzzzzzzzzzzzzzzzzzzzzzzzzzzzzzzzzzzzzzzzzzzzzzzzzzzzzzzzzzzzzzzzzzzzzzzzzzzzzzzzzzzzzzzzzzzzzzzzzzzzzzzz;e;;eewrwwwwaaaaaajjjjjjjjjjjjaaaaaarrrrrr;;;;;;-;;;;;%%%%%%OOOOOOooo+ooOO&&&&##########@#@@@@@@XXXXXX                                                                  ######                                                XXXXXX@@@@@@############&&OOOOOOOOOOoooooo++++++&&&&&&zzzzzzzzzzzzzzzzzzzzzzzzzzzzzzzzzzzzzzzzzzzzzzzzzzzzzzzzzzzzzzzzzzzzzzzzzzzzzzzzzzzzzzzzzzzzzzzzzzzzzzzzzzzzzzzzzzzzzzzzzzzzzzzzzz",
"zzzzzzzzzzzzzzzzzzzzzzzzzzzzzzzzzzzzzzzzzzzzzzzzzzzzzzzzzzzzzzzzzzzzzzzzzzzzzzzzzzzzzzzzzzzzzz;;;;;;rrrrrwaaaaaaaaaattrrrrrreeeeee;;;;;;;;;;;;;;;;;;%%%%%%OOOOOOOOOOOOOOOOOOooo+oo############@@@@@@@@@@@@                                                                        @@@@@@                                                      @@@@@@@@@@@@######&&&&&&OOOOOO......++++++++++++zzzzzzzzzzzzzzzzzzzzzzzzzzzzzzzzzzzzzzzzzzzzzzzzzzzzzzzzzzzzzzzzzzzzzzzzzzzzzzzzzzzzzzzzzzzzzzzzzzzzzzzzzzzzzzzzzzzzzzzzzzzzzzzzzz",
"zzzzzzzzzzzzzzzzzzzzzzzzzzzzzzzzzzzzzzzzzzzzzzzzzzzzzzzzzzzzzzzzzzzzzzzzzzzzzzzzzzzzzzzzzzzzzz;;;;;;rrrrwwaaaaaaaaaattrrrrrreeeeee;;;;;;;;;;;;;;;;;;%%%%%%OOOOOOOOOOOOOOOOOOoooooo############@@@@@@@@@@@@                                                                        @@@@@@                                                      @@@@@@@@@@@@######&&&&&&OOOOOO......++++++++++++zzzzzzzzzzzzzzzzzzzzzzzzzzzzzzzzzzzzzzzzzzzzzzzzzzzzzzzzzzzzzzzzzzzzzzzzzzzzzzzzzzzzzzzzzzzzzzzzzzzzzzzzzzzzzzzzzzzzzzzzzzzzzzzzzz",
"zzzzzzzzzzzzzzzzzzzzzzzzzzzzzzzzzzzzzzzzzzzzzzzzzzzzzzzzzzzzzzzzzzzzzzzzzzzzzzzzzzzzzzzzzzzzzz;;;;;;rrrrwwttaaaaaattaarrrrrreeeeww;;;;;;;;;;;;;;;;;;%%%%%%OOOOOOOOOOOOOOOOOOoooo++############@@@@@@@@@@@@                                                                        @@@@@@                                                      @@@@@@@@@@@@######&&&&&&OOOOOO......++++++++++++zzzzzzzzzzzzzzzzzzzzzzzzzzzzzzzzzzzzzzzzzzzzzzzzzzzzzzzzzzzzzzzzzzzzzzzzzzzzzzzzzzzzzzzzzzzzzzzzzzzzzzzzzzzzzzzzzzzzzzzzzzzzzzzzzz",
"zzzzzzzzzzzzzzzzzzzzzzzzzzzzzzzzzzzzzzzzzzzzzzzzzzzzzzzzzzzzzzzzzzzzzzzzzzzzzzzzzzzzzzzzzzzzzz;;;;;;rrrwwwttaaaaaattaarrrrrreeeeww;;;;;;;;;;;;;;;;;;%%%%%%OOOOOOOOOOOOOOOOOOoooo++############@@@@@@@@@@@@                                                                        @@@@@@                                                      @@@@@@@@@@@@######&&&&&&OOOOOO......++++++++++++zzzzzzzzzzzzzzzzzzzzzzzzzzzzzzzzzzzzzzzzzzzzzzzzzzzzzzzzzzzzzzzzzzzzzzzzzzzzzzzzzzzzzzzzzzzzzzzzzzzzzzzzzzzzzzzzzzzzzzzzzzzzzzzzzz",
"zzzzzzzzzzzzzzzzzzzzzzzzzzzzzzzzzzzzzzzzzzzzzzzzzzzzzzzzzzzzzzzzzzzzzzzzzzzzzzzzzzzzzzzzzzzzzz;;;;;;rrwwwwttaaaattttaarrrrrrwweeww;;;;;;;;;;;;--;;;;%%%%%%OOOOOOOOOOOOOOOOOOoooo++############@@@@@@@@@@@@                                                                        @@@@@@                                                      @@@@@@@@@@@@######&&&&&&OOOOOO......++++++++++++zzzzzzzzzzzzzzzzzzzzzzzzzzzzzzzzzzzzzzzzzzzzzzzzzzzzzzzzzzzzzzzzzzzzzzzzzzzzzzzzzzzzzzzzzzzzzzzzzzzzzzzzzzzzzzzzzzzzzzzzzzzzzzzzzz",
"zzzzzzzzzzzzzzzzzzzzzzzzzzzzzzzzzzzzzzzzzzzzzzzzzzzzzzzzzzzzzzzzzzzzzzzzzzzzzzzzzzzzzzzzzzzzzz;;;;;;rrwwwwttttaattttaarrrrrrwwwwww;;;;;;;;;;;;;-;;;;%%%%%%OOOOOOOOOOOOOOOOOOoooo++############@@@@@@@@@@@@                                                                        @@@@@@                                                      @@@@@@@@@@@@######&&&&&&OOOOOO......++++++++++++zzzzzzzzzzzzzzzzzzzzzzzzzzzzzzzzzzzzzzzzzzzzzzzzzzzzzzzzzzzzzzzzzzzzzzzzzzzzzzzzzzzzzzzzzzzzzzzzzzzzzzzzzzzzzzzzzzzzzzzzzzzzzzzzzz",
"zzzzzzzzzzzzzzzzzzzzzzzzzzzzzzzzzzzzzzzzzzzzzzzzzzzzzzzzzzzzzzzzzzzzzzzzzzzzzzzzzz%%%%%%;;;;;;wwrrrreeeweewwwwee;;;;;;;;;;;;wwwwwwrrrrrrttttttwwwwww;;;;;;&&&&&&OOOOOOooooooOOOOOO######oooooo                                                                                                                                                            oooooo&&&&&&OOOOOOOO&&&&......%%--%%;;eeee------zzzzzzzzzzzzzzzzzzzzzzzzzzzzzzzzzzzzzzzzzzzzzzzzzzzzzzzzzzzzzzzzzzzzzzzzzzzzzzzzzzzzzzzzzzzzzzzzzzzzzzzzzzzzzzzzzzzzzz",
"zzzzzzzzzzzzzzzzzzzzzzzzzzzzzzzzzzzzzzzzzzzzzzzzzzzzzzzzzzzzzzzzzzzzzzzzzzzzzzzzzz%%%%%%;;;;;;wwrrrreeeeeewwwwee;;;;;;;;;;;;wwwwwwrrrrrrttttttwwwwww;;;;;;&&&&&&OOOOOOooooooOOOOOO######oooooo                                                                                                                                                            oooooo&&&&&&OOOOOOOO&&&&......%%--%%;;eeee------zzzzzzzzzzzzzzzzzzzzzzzzzzzzzzzzzzzzzzzzzzzzzzzzzzzzzzzzzzzzzzzzzzzzzzzzzzzzzzzzzzzzzzzzzzzzzzzzzzzzzzzzzzzzzzzzzzzzzz",
"zzzzzzzzzzzzzzzzzzzzzzzzzzzzzzzzzzzzzzzzzzzzzzzzzzzzzzzzzzzzzzzzzzzzzzzzzzzzzzzzzz%%%%%%;;;;;;wwwwrreeeewwwwwwwe;;;;;;;;;;;;wwwwwwrrrrrrttttttwwwwww;;;;;;&&&&&&OOOOOOoooooo&&OOOO######oooooo                                                                                                                                                            oooooo&&&&&&&&OOOOOOOOOO......%%--%%;;e;;;------zzzzzzzzzzzzzzzzzzzzzzzzzzzzzzzzzzzzzzzzzzzzzzzzzzzzzzzzzzzzzzzzzzzzzzzzzzzzzzzzzzzzzzzzzzzzzzzzzzzzzzzzzzzzzzzzzzzzzz",
"zzzzzzzzzzzzzzzzzzzzzzzzzzzzzzzzzzzzzzzzzzzzzzzzzzzzzzzzzzzzzzzzzzzzzzzzzzzzzzzzzz%%%%%%;;;;;;wwwwwreeeewwwwwwwe;;;;;;;;;;;;rwwwwwrrrrrrttttttwwwwww;;;;;;&&&&&&OOOOOOoooooo&OOOOO######oooooo                                                                                                                                                            oooooo&&&&&&&&&OOOOOOOOO......%%---%e;ee;;------zzzzzzzzzzzzzzzzzzzzzzzzzzzzzzzzzzzzzzzzzzzzzzzzzzzzzzzzzzzzzzzzzzzzzzzzzzzzzzzzzzzzzzzzzzzzzzzzzzzzzzzzzzzzzzzzzzzzzz",
"zzzzzzzzzzzzzzzzzzzzzzzzzzzzzzzzzzzzzzzzzzzzzzzzzzzzzzzzzzzzzzzzzzzzzzzzzzzzzzzzzz%%%%%%;;;;;;wwwwwwwwwwwwwwwwee;;;;;;;;;;;;wwwwwrrrrrrrataattwwwwww;;;;;;&&&&&&OOOOOO++ooooOOOOOO######oooooo                                                                                                                                                            oooooo&&&&&&OOOOOOOOOO&&......%%%%%%ee;;;;------zzzzzzzzzzzzzzzzzzzzzzzzzzzzzzzzzzzzzzzzzzzzzzzzzzzzzzzzzzzzzzzzzzzzzzzzzzzzzzzzzzzzzzzzzzzzzzzzzzzzzzzzzzzzzzzzzzzzzz",
"zzzzzzzzzzzzzzzzzzzzzzzzzzzzzzzzzzzzzzzzzzzzzzzzzzzzzzzzzzzzzzzzzzzzzzzzzzzzzzzzzz%%%%%%;;;;;;wwwwrrwwwwwwwwwwee;;;;;;;;;;;;wwwwwwrrrrrrattattwwwwww;;;;;;&&&&&&OOOOOOo+ooooOOOO&&######oooooo                                                                                                                                                            oooooo&&&&&&OOOOOOOOO&&&......%%%%%%ee;;;;------zzzzzzzzzzzzzzzzzzzzzzzzzzzzzzzzzzzzzzzzzzzzzzzzzzzzzzzzzzzzzzzzzzzzzzzzzzzzzzzzzzzzzzzzzzzzzzzzzzzzzzzzzzzzzzzzzzzzzz",
"zzzzzzzzzzzzzzzzzzzzzzzzzzzzzzzzzzzzzzzzzzzzzzzzzzzzzzzzzzzzzzzzzzzzzzzzzzzzOOOOOO------;;;;ee;;;;;;;;;;;;wwwwwwrrrrrraaaaaajjjjggjjjjjjjjjjjjaaaaaawrwwrw%%%%%%&&OOOOoooooo&&OO&&######XXXXXX                                                                                                                                                            XXXXXX######OO&&&&OOOOOO      OOOOOO;;;;;;;;;;;;zzzzzzzzzzzzzzzzzzzzzzzzzzzzzzzzzzzzzzzzzzzzzzzzzzzzzzzzzzzzzzzzzzzzzzzzzzzzzzzzzzzzzzzzzzzzzzzzzzzzzzzzzzzzzzzzzzzzzz",
"zzzzzzzzzzzzzzzzzzzzzzzzzzzzzzzzzzzzzzzzzzzzzzzzzzzzzzzzzzzzzzzzzzzzzzzzzzzzOOOOOO------ee;;ee;;;;;;;;;;;;wwwwwwrrrrrraaaaaajjjjggjjjjjjjjjjjjaaaaaawrwwrr-%%%%%O&OOOOoooooo&&&O&&######XXXXXX                                                                                                                                                            XXXXXX######&O&&&&OOOOO+      OOOOOO;;;;;;;;;;;;zzzzzzzzzzzzzzzzzzzzzzzzzzzzzzzzzzzzzzzzzzzzzzzzzzzzzzzzzzzzzzzzzzzzzzzzzzzzzzzzzzzzzzzzzzzzzzzzzzzzzzzzzzzzzzzzzzzzzz",
"zzzzzzzzzzzzzzzzzzzzzzzzzzzzzzzzzzzzzzzzzzzzzzzzzzzzzzzzzzzzzzzzzzzzzzzzzzzzO&&&OO------eeeeee;;;;;;;;;;;;wwwwwwrrrrrraaaaaajgggjjjjjjjjjjjjjjaaaaaawwwwww%%%%%%OOOOOOoooooo&&&OOO######XXXXXX                                                                                                                                                            XXXXXX######&&OOOOOOOOOO      OOOOOO;;;;;;;;;;;;zzzzzzzzzzzzzzzzzzzzzzzzzzzzzzzzzzzzzzzzzzzzzzzzzzzzzzzzzzzzzzzzzzzzzzzzzzzzzzzzzzzzzzzzzzzzzzzzzzzzzzzzzzzzzzzzzzzzzz",
"zzzzzzzzzzzzzzzzzzzzzzzzzzzzzzzzzzzzzzzzzzzzzzzzzzzzzzzzzzzzzzzzzzzzzzzzzzzzO&&&OO------ee;eee;;;;;;;;;;;;wwwwwwrrrrrraaaaaajjggjjjjjjjjjjjjjjaaaaaawwwwww%%%%%%OOOOOOoooooo&&OOOO######XXXXXX                                                                                                                                                            XXXXXX######&&OOOOOOOOOO      OOOOOO;;;;;;;;;;;;zzzzzzzzzzzzzzzzzzzzzzzzzzzzzzzzzzzzzzzzzzzzzzzzzzzzzzzzzzzzzzzzzzzzzzzzzzzzzzzzzzzzzzzzzzzzzzzzzzzzzzzzzzzzzzzzzzzzzz",
"zzzzzzzzzzzzzzzzzzzzzzzzzzzzzzzzzzzzzzzzzzzzzzzzzzzzzzzzzzzzzzzzzzzzzzzzzzzzOO&&&&------;;;;ee;;;;;;;;;;;;rrwwwwrrrrrraaaaaajjggjjjjjjjjjjjjjjaaaaaarwwwww%%%%%%&OOOOOooooooOOOOOO######XXXXXX                                                                                                                                                            XXXXXX######OOOOOOOOOOOO      &&OOOO;;;;;;;;;;;;zzzzzzzzzzzzzzzzzzzzzzzzzzzzzzzzzzzzzzzzzzzzzzzzzzzzzzzzzzzzzzzzzzzzzzzzzzzzzzzzzzzzzzzzzzzzzzzzzzzzzzzzzzzzzzzzzzzzzz",
"zzzzzzzzzzzzzzzzzzzzzzzzzzzzzzzzzzzzzzzzzzzzzzzzzzzzzzzzzzzzzzzzzzzzzzzzzzzzOO&&&&------;;;;ee;;;;;;;;;;;;rrrrwwrrrrrraaaaaajgggjjjjjjjjjjjjjjaaaaaarwwwww%%%%%%&OOOOOooooooOOOOOO######XXXXXX                                                                                                                                                            XXXXXX######OOOOOOOOOOOO      &&OOO&;;;;;;;;;;;;zzzzzzzzzzzzzzzzzzzzzzzzzzzzzzzzzzzzzzzzzzzzzzzzzzzzzzzzzzzzzzzzzzzzzzzzzzzzzzzzzzzzzzzzzzzzzzzzzzzzzzzzzzzzzzzzzzzzzz",
"zzzzzzzzzzzzzzzzzzzzzzzzzzzzzzzzzzzzzzzzzzzzzzzzzzzzzzzzzzzzzzzzzzzzzzzzzzzzOOOOOO&&&&&&------;;;;-;wwwwwwttttttaaaaaajjjjjjkkkkkkkkkkkkjjjjjjaaaaaawwwwww%%%%%%XXXXXXOOOO&&&&OOOO######OOOOOOO&OOOO@@@@@@                                                                                                                                    @@@@@@OO&&&&&&OOOO######&OOOOOOOOOOOXXXXXXoooooo&&&&&&;;;;;;&&&&&&zzzzzzzzzzzzzzzzzzzzzzzzzzzzzzzzzzzzzzzzzzzzzzzzzzzzzzzzzzzzzzzzzzzzzzzzzzzzzzzzzzzzzzzzzzzzzzzzzzzzzzzzzzzzzzzz",
"zzzzzzzzzzzzzzzzzzzzzzzzzzzzzzzzzzzzzzzzzzzzzzzzzzzzzzzzzzzzzzzzzzzzzzzzzzzzOOOOOO&&&&&&------;;;;--wwwwwwttttttaaaaaajjjjjjkkkkkkkkkkkkjjjjjjaaaaaawwwwww%%%%%%XXXXXXOOOO&&&&OO&&######OOOOOOO&OOOO@@@@@@                                                                                                                                    @@@@@@OOOO&&O&OOOO######OOOOOOOOOOOOXXXXXXoooooo&&&&&&;;;;;;&&&&&&zzzzzzzzzzzzzzzzzzzzzzzzzzzzzzzzzzzzzzzzzzzzzzzzzzzzzzzzzzzzzzzzzzzzzzzzzzzzzzzzzzzzzzzzzzzzzzzzzzzzzzzzzzzzzzzz",
"zzzzzzzzzzzzzzzzzzzzzzzzzzzzzzzzzzzzzzzzzzzzzzzzzzzzzzzzzzzzzzzzzzzzzzzzzzzz&&OO&&&&&&&&------;;;;;;wwwwwwttatttaaaaaajjjjjjkkkkkkkkkkkkjjjjjjaaaaaarrwwww---%%%XXXXXXOOOOO&OOOOOO######&&O&OOOOOOOO@@@@@@                                                                                                                                    @@@@@@OOOOOOOOOOOO######OO&O&&OOOOOOXXXXXXoooooo&&&&&&;;;;;;&&&&&&zzzzzzzzzzzzzzzzzzzzzzzzzzzzzzzzzzzzzzzzzzzzzzzzzzzzzzzzzzzzzzzzzzzzzzzzzzzzzzzzzzzzzzzzzzzzzzzzzzzzzzzzzzzzzzzz",
"zzzzzzzzzzzzzzzzzzzzzzzzzzzzzzzzzzzzzzzzzzzzzzzzzzzzzzzzzzzzzzzzzzzzzzzzzzzz&&&&&&&&&&&&------;;;;;;wwwwwwataattaaaaaajjjjjjkkkkkkkkkkkkjjjjjjaaaaaarrwwww---%%%XXXXXXOOOOOOOOOOOO######&&&&OOOO&&OO@@@@@@                                                                                                                                    @@@@@@OOOOOOOOOOO&######OO&&&&OOOOOOXXXXXXoooooo&&&&&&;;;;;;&&&&&&zzzzzzzzzzzzzzzzzzzzzzzzzzzzzzzzzzzzzzzzzzzzzzzzzzzzzzzzzzzzzzzzzzzzzzzzzzzzzzzzzzzzzzzzzzzzzzzzzzzzzzzzzzzzzzzz",
"zzzzzzzzzzzzzzzzzzzzzzzzzzzzzzzzzzzzzzzzzzzzzzzzzzzzzzzzzzzzzzzzzzzzzzzzzzzz&&OOOO&&&&&&------;;;;;;wrrrwwttttttaaaaaajjjjjjkkkkkkkkkkkkjjjjjjaaaaaarrrwww--%%%-XXXXXXOOOOOOO&&&OO######&&OOOO&O&&&&@@@@@@                                                                                                                                    @@@@@@OOOOOOOOOO&&######&&OOOOOOOOOOXXXXXX++++oo&&&&&&;;;;;;&&&&&&zzzzzzzzzzzzzzzzzzzzzzzzzzzzzzzzzzzzzzzzzzzzzzzzzzzzzzzzzzzzzzzzzzzzzzzzzzzzzzzzzzzzzzzzzzzzzzzzzzzzzzzzzzzzzzzz",
"zzzzzzzzzzzzzzzzzzzzzzzzzzzzzzzzzzzzzzzzzzzzzzzzzzzzzzzzzzzzzzzzzzzzzzzzzzzz&&OOOO&&&&&&------;;;;;;wwrrwwttttttaaaaaajjjjjjkkkkkkkkkkkkjjjjjjaaaaaarrwwww--%%%-XXXXXXOOOOOOOO&&OO######O&OOOO&&&&O&@@@@@@                                                                                                                                    @@@@@@OOOOOOO&OO&O######&&OOOOOOOOOOXXXXXX++++oo&&&&&&;;;;;;&&&&&&zzzzzzzzzzzzzzzzzzzzzzzzzzzzzzzzzzzzzzzzzzzzzzzzzzzzzzzzzzzzzzzzzzzzzzzzzzzzzzzzzzzzzzzzzzzzzzzzzzzzzzzzzzzzzzzz",
"zzzzzzzzzzzzzzzzzzzzzzzzzzzzzzzzzzzzzzzzzzzzzzzzzzzzzzzzzzzzzzzzzzzzzzOOOOOOOOOOOO&&&&OO&&&&&&;;;;;;wwwweerrrrrraaaaaajjjjjjjjjjjjkkkkkkjjjjjjaaaaaaeeweeeOOOO&&XXXXXXOOOOOO@@@@@@@@@@@@::::::AAAAAAAAAAAAxxxxxx::::::######@@@@@@                                                                                    @@@@@@######::::::xxxxxxAAAAAAAAAAAA::::::@@@@@@&&OOOOOOOOOOoooooo......OOOOOO&&&&&&&&&&&&zzzzzzzzzzzzzzzzzzzzzzzzzzzzzzzzzzzzzzzzzzzzzzzzzzzzzzzzzzzzzzzzzzzzzzzzzzzzzzzzzzzzzzzzzzzzzzzzzzzzzzzzzzzzzzzz",
"zzzzzzzzzzzzzzzzzzzzzzzzzzzzzzzzzzzzzzzzzzzzzzzzzzzzzzzzzzzzzzzzzzzzzzOOOOOOOOOOOOO&&&OO&&&&&&;;;;;;wwwweerrrrrraaaaaajjjjjjjjjjjjkkkkkkjjjjjjaaaaaaeeeeeeOOOO&&XXXXXXOO&&OO@@@@@@@@@@@@::::::AAAAAAAAAAAAxxxxxx::::::######@@@@@@                                                                                    @@@@@@######::::::xxxxxxAAAAAAAAAAAA::::::@@@@@@OOOOOOOOOOOOoooooo......OOOOOO&&&&&&&&&&&&zzzzzzzzzzzzzzzzzzzzzzzzzzzzzzzzzzzzzzzzzzzzzzzzzzzzzzzzzzzzzzzzzzzzzzzzzzzzzzzzzzzzzzzzzzzzzzzzzzzzzzzzzzzzzzzz",
"zzzzzzzzzzzzzzzzzzzzzzzzzzzzzzzzzzzzzzzzzzzzzzzzzzzzzzzzzzzzzzzzzzzzzzOOOOOOOOOOO&&&&&OO&&&&&&;;;;;;eeewwwrrrrrraaaaaajjjjjjjjjjjjkkkkkkjjjjjjaaaaaaeeeeeeOOOOOOXXXXXXOO&&OO@@@@@@@@@@@@::::::AAAAAAAAAAAAxxxxxx::::::######@@@@@@                                                                                    @@@@@@######::::::xxxxxxAAAAAAAAAAAA::::::@@@@@@OOOOOOOOOOOOoooooo......&&&&&&&&&&&&&&&&&&zzzzzzzzzzzzzzzzzzzzzzzzzzzzzzzzzzzzzzzzzzzzzzzzzzzzzzzzzzzzzzzzzzzzzzzzzzzzzzzzzzzzzzzzzzzzzzzzzzzzzzzzzzzzzzzz",
"zzzzzzzzzzzzzzzzzzzzzzzzzzzzzzzzzzzzzzzzzzzzzzzzzzzzzzzzzzzzzzzzzzzzzzOOOOOOOOOOOO&&&&OO&&&&&&;;;;;;eeeewwrrrrrraaaaaajjjjjjjjjjjjkkkkkkjjjjjjaaaaaaeeeeeeOOOOOOXXXXXXOO&&OO@@@@@@@@@@@@::::::AAAAAAAAAAAAxxxxxx::>>::######@@@@@@                                                                                    @@@@@@######:>::::xxxxxxAAAAAAAAAAAA::::::@@@@@@OOOOOOOOOOOOoooooo......&&O&&&&&&&&&&&&&&&zzzzzzzzzzzzzzzzzzzzzzzzzzzzzzzzzzzzzzzzzzzzzzzzzzzzzzzzzzzzzzzzzzzzzzzzzzzzzzzzzzzzzzzzzzzzzzzzzzzzzzzzzzzzzzzz",
"zzzzzzzzzzzzzzzzzzzzzzzzzzzzzzzzzzzzzzzzzzzzzzzzzzzzzzzzzzzzzzzzzzzzzzOOOOOOOOOOOOOO&OOO&&&&&&;;;;;;eeweeerrrrrraaaaaajjjjjjjjjjjjkkkkkkjjjjjjaaaaaawwwwwwOOOOOOXXXXXXOO&OOO@@@@@@@@@@@@::::::AAAAAAAAAAAAxxxxxx::>>>:######@@@@@@                                                                                    @@@@@@######>>::::xxxxxxAAAAAAAAAAAA::::::@@@@@@OO&&OOOOOOOOoooooo......&&&OOO&&&&&&&&&&&&zzzzzzzzzzzzzzzzzzzzzzzzzzzzzzzzzzzzzzzzzzzzzzzzzzzzzzzzzzzzzzzzzzzzzzzzzzzzzzzzzzzzzzzzzzzzzzzzzzzzzzzzzzzzzzzz",
"zzzzzzzzzzzzzzzzzzzzzzzzzzzzzzzzzzzzzzzzzzzzzzzzzzzzzzzzzzzzzzzzzzzzzzOOOOOOOOOOOOOOOOOO&&&&&&;;;;;;eeeeeerrrrrraaaaaajjjjjjjjjjjjkkkkkkjjjjjjaaaaaawwwwwwOOOOOOXXXXXXOO&&OO@@@@@@@@@@@@::::::AAAAAAAAAAAAxxxxxx::>>>:######@@@@@@                                                                                    @@@@@@######>>::::xxxxxxAAAAAAAAAAAA::::::@@@@@@OO&&&&OOOOOOoooooo......&&OOOO&&&&&&&&&&&&zzzzzzzzzzzzzzzzzzzzzzzzzzzzzzzzzzzzzzzzzzzzzzzzzzzzzzzzzzzzzzzzzzzzzzzzzzzzzzzzzzzzzzzzzzzzzzzzzzzzzzzzzzzzzzzz",
"zzzzzzzzzzzzzzzzzzzzzzzzzzzzzzzzzzzzzzzzzzzzzzzzzzzzzzzzzzzzzzzzzzzzzzOOOOOOooooooOO&OOO%%%%--;;;;;;wwwweerrrrrraaaaaaaaaaaajjjjjjjjjjjjjjjjjjtttttt;;;;;;XXXXXXooooooOOOOOOoooooo@@@@@@OOOO&&xxxxxxVVVVVV>>>>>>::::::######@@@@@@                                                                                    @@@@@@######::::::>>>>>>VVVVVVxxxxxxOOOOO&@@@@@@ooooooOO&&OOooooooXXXXXXooooooOOOOOO&&&&&&&&&&&&zzzzzzzzzzzzzzzzzzzzzzzzzzzzzzzzzzzzzzzzzzzzzzzzzzzzzzzzzzzzzzzzzzzzzzzzzzzzzzzzzzzzzzzzzzzzzzzzzzzzzzzzzz",
"zzzzzzzzzzzzzzzzzzzzzzzzzzzzzzzzzzzzzzzzzzzzzzzzzzzzzzzzzzzzzzzzzzzzzzOOOOOOooooooOO&OOO%%%%--;;e;;eeewweerrrrrraaaaaaaaaaaajjjjjjjjjjjjjjjjjjtttttt;;;;;;XXXXXXooooooOOOOOOoooooo@@@@@@OOOO&&xxxxxxVVVVVV>>>>>>::::::######@@@@@@                                                                                    @@@@@@######::::::>>>>>>VVVVVVxxxxxxOOOOOO@@@@@@ooooooOO&&OOooooooXXXXXXooooooOOOOOO&&&&&&&&&&&&zzzzzzzzzzzzzzzzzzzzzzzzzzzzzzzzzzzzzzzzzzzzzzzzzzzzzzzzzzzzzzzzzzzzzzzzzzzzzzzzzzzzzzzzzzzzzzzzzzzzzzzzzz",
"zzzzzzzzzzzzzzzzzzzzzzzzzzzzzzzzzzzzzzzzzzzzzzzzzzzzzzzzzzzzzzzzzzzzzzOOOOOOoooooo&&&&OO%%%%--eeeeeeeewweerrrrrraaaaaaaaaaaajjjjjjjjjjjjjjjjjjtttttt;;;;;;XXXXXXooooooOOOOOOoooooo@@@@@@&&OOOOxxxxxxVVVVVVxx>>>>::::::######@@@@@@                                                                                    @@@@@@######::::::>>>>>>VVVVVVxxxxxxOOOOOO@@@@@@ooooooOOOOOOooooooXXXXXXoooo+oOOOO&&&&&&&&&&&&&&zzzzzzzzzzzzzzzzzzzzzzzzzzzzzzzzzzzzzzzzzzzzzzzzzzzzzzzzzzzzzzzzzzzzzzzzzzzzzzzzzzzzzzzzzzzzzzzzzzzzzzzzzz",
"zzzzzzzzzzzzzzzzzzzzzzzzzzzzzzzzzzzzzzzzzzzzzzzzzzzzzzzzzzzzzzzzzzzzzzOOOOOOoooooo&&&&OO%%%%--eeeeeeeewweerrrrrraaaaaaaaaaaajjjjjjjjjjjjjjjjjjtttttt;;;;;;XXXXXXooooooOOOOOOoooooo@@@@@@&&OOOOxxxxxxVVVVVVxxxx>>::::::######@@@@@@                                                                                    @@@@@@######::::::>>>xt>VVVVVVxxxxxxOOOOOO@@@@@@ooooooOOOOOOooooooXXXXXXooo++oOO&&&&&&&&&&&&&&&&zzzzzzzzzzzzzzzzzzzzzzzzzzzzzzzzzzzzzzzzzzzzzzzzzzzzzzzzzzzzzzzzzzzzzzzzzzzzzzzzzzzzzzzzzzzzzzzzzzzzzzzzzz",
"zzzzzzzzzzzzzzzzzzzzzzzzzzzzzzzzzzzzzzzzzzzzzzzzzzzzzzzzzzzzzzzzzzzzzzOOOOOOooooooOOOO&&%%%%%%;e;;;;wwwweerrrrrraaaaaaaaaaaajjjjjjjjjjjjjjjjjjtttttt;;;;;;XXXXXXooooooOOOOOOoooooo@@@@@@OOOOOOxxxxxxVVVVVV>>>>>>::::::######@@@@@@                                                                                    @@@@@@######::::::>>>>>xVVVVVVxxxxxxOOOO&&@@@@@@oooo++OOOO&OooooooXXXXXXooooooOOOOOO&&&&&&&&&&&&zzzzzzzzzzzzzzzzzzzzzzzzzzzzzzzzzzzzzzzzzzzzzzzzzzzzzzzzzzzzzzzzzzzzzzzzzzzzzzzzzzzzzzzzzzzzzzzzzzzzzzzzzz",
"zzzzzzzzzzzzzzzzzzzzzzzzzzzzzzzzzzzzzzzzzzzzzzzzzzzzzzzzzzzzzzzzzzzzzzOOOOOOooooooOOOO&&%%%%%%;;;;;;wwwweerrrrrraaaaaaaaaaaajjjjjjjjjjjjjjjjjjtttttt;;;;;;XXXXXXooooooOOOOOOoooooo@@@@@@OOOOOOxxxxxxVVVVVV>>>>>>::::::######@@@@@@                                                                                    @@@@@@######::::::>>>>xxVVVVVVxxxxxxOOOO&&@@@@@@oooo++OOOO&OooooooXXXXXXooooooOOOOOO&&&&&&&&&&&&zzzzzzzzzzzzzzzzzzzzzzzzzzzzzzzzzzzzzzzzzzzzzzzzzzzzzzzzzzzzzzzzzzzzzzzzzzzzzzzzzzzzzzzzzzzzzzzzzzzzzzzzzz",
"zzzzzzzzzzzzzzzzzzzzzzzzzzzzzzzzzzzzzzzzzzzzzzzzzzzzzzzzzzzzzzzzzzzzzzooooooooooooOOO&&&------;;;e;;eewweerrrrrraaaaaaaaaaaaaaaaaajjjjjjjjjjjjrrrrrr%%%%%%XXXXXXoooooooooooo@@@@@@######@@@@@@$$$$$$@@@@@@                                                                                                                                    @@@@@@$$$$$$@@@@@@######@@@@@@ooooooooooooXXXXXXooooooOOOOOOOOOOOO&&&&&&zzzzzzzzzzzzzzzzzzzzzzzzzzzzzzzzzzzzzzzzzzzzzzzzzzzzzzzzzzzzzzzzzzzzzzzzzzzzzzzzzzzzzzzzzzzzzzzzzzzzzzzzzz",
"zzzzzzzzzzzzzzzzzzzzzzzzzzzzzzzzzzzzzzzzzzzzzzzzzzzzzzzzzzzzzzzzzzzzzzooooooooooooOOO&&&------;;ee;;eeweeerrrrrraaaaaaaaaaaaaaaaaajjjjjjjjjjjjrrrrrr%%%%%%XXXXXXoooooooooooo@@@@@@######@@@@@@$$$$$$@@@@@@                                                                                                                                    @@@@@@$$$$$$@@@@@@######@@@@@@ooooooooooooXXXXXXooooooOOOOOO&OOOOO&&&&&&zzzzzzzzzzzzzzzzzzzzzzzzzzzzzzzzzzzzzzzzzzzzzzzzzzzzzzzzzzzzzzzzzzzzzzzzzzzzzzzzzzzzzzzzzzzzzzzzzzzzzzzzzz",
"zzzzzzzzzzzzzzzzzzzzzzzzzzzzzzzzzzzzzzzzzzzzzzzzzzzzzzzzzzzzzzzzzzzzzzooooooooooooOOOOOO------;;eeeeeeeeeerrrrrraaaaaaaaaaaaaaaaaajjjjjjjjjjjjrrrrrr%%%%%%XXXXXXoooooooooooo@@@@@@######@@@@@@$$$$$$@@@@@@                                                                                                                                    @@@@@@$$$$$$@@@@@@######@@@@@@ooooooooooooXXXXXXooooooOOOOOOOOOO&&&&&&&&zzzzzzzzzzzzzzzzzzzzzzzzzzzzzzzzzzzzzzzzzzzzzzzzzzzzzzzzzzzzzzzzzzzzzzzzzzzzzzzzzzzzzzzzzzzzzzzzzzzzzzzzzz",
"zzzzzzzzzzzzzzzzzzzzzzzzzzzzzzzzzzzzzzzzzzzzzzzzzzzzzzzzzzzzzzzzzzzzzzooooooooooooOOOOOO------;;eeeeeeeeeerrrrrraaaaaaaaaaaaaaaaaajjjjjjjjjjjjrrrrrr%%%%%%XXXXXXoooooooooooo@@@@@@######@@@@@@$$$$$$@@@@@@                                                                                                                                    @@@@@@$$$$$$@@@@@@######@@@@@@ooooooooooooXXXXXXooooooOOOOOOOOOO&&&&&&&&zzzzzzzzzzzzzzzzzzzzzzzzzzzzzzzzzzzzzzzzzzzzzzzzzzzzzzzzzzzzzzzzzzzzzzzzzzzzzzzzzzzzzzzzzzzzzzzzzzzzzzzzzz",
"zzzzzzzzzzzzzzzzzzzzzzzzzzzzzzzzzzzzzzzzzzzzzzzzzzzzzzzzzzzzzzzzzzzzzzoooooooooooo&&&&OO------;;;;eeeeewwwrrrrrraaaaaaaaaaaaaaaaaajjjjjjjjjjjjrrrrrr%%%%%%XXXXXXoooooooooooo@@@@@@######@@@@@@$$$$$$@@@@@@                                                                                                                                    @@@@@@$$$$$$@@@@@@######@@@@@@ooooooooooooXXXXXXooooooOOOOOOOOO&&&&&&&&&zzzzzzzzzzzzzzzzzzzzzzzzzzzzzzzzzzzzzzzzzzzzzzzzzzzzzzzzzzzzzzzzzzzzzzzzzzzzzzzzzzzzzzzzzzzzzzzzzzzzzzzzzz",
"zzzzzzzzzzzzzzzzzzzzzzzzzzzzzzzzzzzzzzzzzzzzzzzzzzzzzzzzzzzzzzzzzzzzzzoooooooooooo&&&OOO------;;;;;;eeewwwrrrrrraaaaaaaaaaaaaaaaaajjjjjjjjjjjjrrrrrr%%%%%%XXXXXXoooooooooooo@@@@@@######@@@@@@$$$$$$@@@@@@                                                                                                                                    @@@@@@$$$$$$@@@@@@######@@@@@@ooooooooooooXXXXXXooooooOOOOOOOOOO&&&&&&&&zzzzzzzzzzzzzzzzzzzzzzzzzzzzzzzzzzzzzzzzzzzzzzzzzzzzzzzzzzzzzzzzzzzzzzzzzzzzzzzzzzzzzzzzzzzzzzzzzzzzzzzzzz",
"zzzzzzzzzzzzzzzzzzzzzzzzzzzzzzzzzzzzzzzzzzzzzzzzzzzzzzzzzzzzzzzzzzzzzzoooooooooooo&&&&&&;;;;;;eewweewwwwwwrrrrrrttttttaaaaaaaaaaaajjjjjjjjjjjjwrwwrrXXXXXXXXXXXXoooooo@@@@@@######::::::######@@@@@@                                                                                                                                                @@@@@@######::::::######@@@@@@OOOOOOXXXXXXXXXXXXooooooOOOOOOOO&&&Ozzzzzzzzzzzzzzzzzzzzzzzzzzzzzzzzzzzzzzzzzzzzzzzzzzzzzzzzzzzzzzzzzzzzzzzzzzzzzzzzzzzzzzzzzzzzzzzzzzzzzzzzzz",
"zzzzzzzzzzzzzzzzzzzzzzzzzzzzzzzzzzzzzzzzzzzzzzzzzzzzzzzzzzzzzzzzzzzzzzoooooooooooo&&&&&&;;;;;;eewwewwwwwwwrrrrrrttttttaaaaaaaaaaaajjjjjjjjjjjjwrwwwwXXXXXXXXXXXXoooooo@@@@@@######::::::######@@@@@@                                                                                                                                                @@@@@@######::::::######@@@@@@OOOOOOXXXXXXXXXXXXooooooOOOOOOOO&&OOzzzzzzzzzzzzzzzzzzzzzzzzzzzzzzzzzzzzzzzzzzzzzzzzzzzzzzzzzzzzzzzzzzzzzzzzzzzzzzzzzzzzzzzzzzzzzzzzzzzzzzzzzz",
"zzzzzzzzzzzzzzzzzzzzzzzzzzzzzzzzzzzzzzzzzzzzzzzzzzzzzzzzzzzzzzzzzzzzzzoooooooooooo&&&&&&;;;;;;eewwwwwwwwrwrrrrrrttttttaaaaaaaaaaaajjjjjjjjjjjjrrwwwwXXXXXXXXXXXXoooooo@@@@@@######::::::######@@@@@@                                                                                                                                                @@@@@@######::::::######@@@@@@+O+O+OXXXXXXXXXXXXooooooOOOOOOO&&&OOzzzzzzzzzzzzzzzzzzzzzzzzzzzzzzzzzzzzzzzzzzzzzzzzzzzzzzzzzzzzzzzzzzzzzzzzzzzzzzzzzzzzzzzzzzzzzzzzzzzzzzzzzz",
"zzzzzzzzzzzzzzzzzzzzzzzzzzzzzzzzzzzzzzzzzzzzzzzzzzzzzzzzzzzzzzzzzzzzzzoooooooooooo&&&&&&;;;;;;eewwwwrwwwrrrrrrrrttttttaaaaaaaaaaaajjjjjjjjjjjjrwwwwwXXXXXXXXXXXXoooooo@@@@@@######::::::######@@@@@@                                                                                                                                                @@@@@@######::::::######@@@@@@+++O++XXXXXXXXXXXXooooooOOOOOOO&O&OOzzzzzzzzzzzzzzzzzzzzzzzzzzzzzzzzzzzzzzzzzzzzzzzzzzzzzzzzzzzzzzzzzzzzzzzzzzzzzzzzzzzzzzzzzzzzzzzzzzzzzzzzzz",
"zzzzzzzzzzzzzzzzzzzzzzzzzzzzzzzzzzzzzzzzzzzzzzzzzzzzzzzzzzzzzzzzzzzzzzoooooooooooo&&&&&&;;;;;;eewwwwrrrrwwrrrrrrttttttaaaaaaaaaaaajjjjjjjjjjjjwwwwwwXXXXXXXXXXXXoooooo@@@@@@######::::::######@@@@@@                                                                                                                                                @@@@@@######::::::######@@@@@@OO++O+XXXXXXXXXXXXooooooOOOOOOOOOOOOzzzzzzzzzzzzzzzzzzzzzzzzzzzzzzzzzzzzzzzzzzzzzzzzzzzzzzzzzzzzzzzzzzzzzzzzzzzzzzzzzzzzzzzzzzzzzzzzzzzzzzzzzz",
"zzzzzzzzzzzzzzzzzzzzzzzzzzzzzzzzzzzzzzzzzzzzzzzzzzzzzzzzzzzzzzzzzzzzzzoooooooooooo&&&&&&;;;;;;eewwwwrrwrwwrrrrrrttttttaaaaaaaaaaaajjjjjjjjjjjjwwwwwwXXXXXXXXXXXXoooooo@@@@@@######::::::######@@@@@@                                                                                                                                                @@@@@@######::::::######@@@@@@OO++++XXXXXXXXXXXXooooooOOOOOOOOOO&Ozzzzzzzzzzzzzzzzzzzzzzzzzzzzzzzzzzzzzzzzzzzzzzzzzzzzzzzzzzzzzzzzzzzzzzzzzzzzzzzzzzzzzzzzzzzzzzzzzzzzzzzzzz",
"zzzzzzzzzzzzzzzzzzzzzzzzzzzzzzzzzzzzzzzzzzzzzzzzzzzzzzzzzzzzzzzz&&&&&&oooooooooooo&&&&&&;--;;;eewweewwwwwwrrrrrrttttttaaaaaaaaaaaajjjjjjaaaaaa%%%%%%XXXXXX      @@@@@@######::::::############@@@@@@@@@@@@                                                                                                                                    @@@@@@@@@@@@############::::::######@@@@@@      XXXXXX            OOOOOOzzzzzzzzzzzzzzzzzzzzzzzzzzzzzzzzzzzzzzzzzzzzzzzzzzzzzzzzzzzzzzzzzzzzzzzzzzzzzzzzzzzzzzzzzzzzzzzzzzzzzzzzzz",
"zzzzzzzzzzzzzzzzzzzzzzzzzzzzzzzzzzzzzzzzzzzzzzzzzzzzzzzzzzzzzzzz&&&&&&oooooooooooo&&&&&&;;--;;eeeweewwwwwwrrrrrrttttttaaaaaaaaaaaajjjjjjaaaaaa%%%%%%XXXXXX      @@@@@@######::::::############@@@@@@@@@@@@                                                                                                                                    @@@@@@@@@@@@############::::::######@@@@@@      XXXXXX            OOOOOOzzzzzzzzzzzzzzzzzzzzzzzzzzzzzzzzzzzzzzzzzzzzzzzzzzzzzzzzzzzzzzzzzzzzzzzzzzzzzzzzzzzzzzzzzzzzzzzzzzzzzzzzzz",
"zzzzzzzzzzzzzzzzzzzzzzzzzzzzzzzzzzzzzzzzzzzzzzzzzzzzzzzzzzzzzzzz&&&&&&oooooooooooo&&&&&&;;;;;;eeeewwwwwwwwrrrrrrttttttaaaaaaaaaaaajjjjjjaaaaaa%---%%XXXXXX      @@@@@@######::::::############@@@@@@@@@@@@                                                                                                                                    @@@@@@@@@@@@############:::::#######@@@@@@      XXXXXX            OOOOOOzzzzzzzzzzzzzzzzzzzzzzzzzzzzzzzzzzzzzzzzzzzzzzzzzzzzzzzzzzzzzzzzzzzzzzzzzzzzzzzzzzzzzzzzzzzzzzzzzzzzzzzzzz",
"zzzzzzzzzzzzzzzzzzzzzzzzzzzzzzzzzzzzzzzzzzzzzzzzzzzzzzzzzzzzzzzz&&&&&&oooooooooooo&&&&&&;;;;;;eeeeeewwwwwwrrrrrrttttttaaaaaaaaaaaajjjjjjaaaaaa%%--%%XXXXXX      @@@@@@######::::::############@@@@@@@@@@@@                                                                                                                                    @@@@@@@@@@@@############::::::######@@@@@@      XXXXXX            OOOOOOzzzzzzzzzzzzzzzzzzzzzzzzzzzzzzzzzzzzzzzzzzzzzzzzzzzzzzzzzzzzzzzzzzzzzzzzzzzzzzzzzzzzzzzzzzzzzzzzzzzzzzzzzz",
"zzzzzzzzzzzzzzzzzzzzzzzzzzzzzzzzzzzzzzzzzzzzzzzzzzzzzzzzzzzzzzzz&&&&&&oooooooooooo&&&&&&;;;;;;eeeeeewwwwrwrrrrrrttttttaaaaaaaaaaaajjjjjjaaaaaa%%---%XXXXXX      @@@@@@######::::::############@@@@@@@@@@@@                                                                                                                                    @@@@@@@@@@@@############::::::######@@@@@@      XXXXXX            OOOOOOzzzzzzzzzzzzzzzzzzzzzzzzzzzzzzzzzzzzzzzzzzzzzzzzzzzzzzzzzzzzzzzzzzzzzzzzzzzzzzzzzzzzzzzzzzzzzzzzzzzzzzzzzz",
"zzzzzzzzzzzzzzzzzzzzzzzzzzzzzzzzzzzzzzzzzzzzzzzzzzzzzzzzzzzzzzzz&&&&&&oooooooooooo&&&&&&;;;;--eeeeeewwwwrrrrrrrrttttttaaaaaaaaaaaajjjjjjaaaaaa%%--%%XXXXXX      @@@@@@######::::::############@@@@@@@@@@@@                                                                                                                                    @@@@@@@@@@@@############::::::######@@@@@@      XXXXXX            OOOOOOzzzzzzzzzzzzzzzzzzzzzzzzzzzzzzzzzzzzzzzzzzzzzzzzzzzzzzzzzzzzzzzzzzzzzzzzzzzzzzzzzzzzzzzzzzzzzzzzzzzzzzzzzz",
"zzzzzzzzzzzzzzzzzzzzzzzzzzzzzzzzzzzzzzzzzzzzzzzzzzzzzzzzzzzzzzzz&&&&&&oooooooooooo%%%%%%----;;eewwwwrrrrwwrrrrrrttttttaaaaaaaaaaaagjjjjjrrrrrrXXXXXX      @@@@@@######::::::############@@@@@@@@@@@@@@@@@@XXXXXXXXXXXXXXXXXXXXXXXXXXXXXXXXXXXXXXXXXXXXXXXXXXXXXX                        XXXXXXXXXXXXXXXXXXXXXXXXXXXXXXXXXXXXXXXXXXXXXXXXXXXXXX@@@@@@@@@@@@@@@@@@######::::::::::::######XXXXXX                  oooooozzzzzzzzzzzzzzzzzzzzzzzzzzzzzzzzzzzzzzzzzzzzzzzzzzzzzzzzzzzzzzzzzzzzzzzzzzzzzzzzzzzzzzzzzzzzzzzzzzzzzzzzzz",
"zzzzzzzzzzzzzzzzzzzzzzzzzzzzzzzzzzzzzzzzzzzzzzzzzzzzzzzzzzzzzzzz&&&&&&oooooooooooo%%%%%%--;;;;eewwwwrrwrwwrrrrrrttttttaaaaaaaaaaaagjjjjjrrrrrrXXXXXX      @@@@@@######::::::############@@@@@@@@@@@@@@@@@@XXXXXXXXXXXXXXXXXXXXXXXXXXXXXXXXXXXXXXXXXXXXXXXXXXXXXX                        XXXXXXXXXXXXXXXXXXXXXXXXXXXXXXXXXXXXXXXXXXXXXXXXXXXXXX@@@@@@@@@@@@@@@@@@###@##::::::::::::######XXXXXX                  oooooozzzzzzzzzzzzzzzzzzzzzzzzzzzzzzzzzzzzzzzzzzzzzzzzzzzzzzzzzzzzzzzzzzzzzzzzzzzzzzzzzzzzzzzzzzzzzzzzzzzzzzzzzz",
"zzzzzzzzzzzzzzzzzzzzzzzzzzzzzzzzzzzzzzzzzzzzzzzzzzzzzzzzzzzzzzzz&&&&&&oooooooooooo%%%%%%;;;;;;eewweewwwwwwrrrrrrttttttaaaaaaaaaaaajjjjggrrrrrrXXXXXX      @@@@@@######::::::############@@@@@@@@@@@@@@@@@@XXXXXXXXXXXXXXXXXXXXXXXXXXXXXXXXXXXXXXXXXXXXXXXXXXXXXX                        XXXXXXXXXXXXXXXXXXXXXXXXXXXXXXXXXXXXXXXXXXXXXXXXXXXXXX@@@@@@@@@@@@@@@@@@##@@##::::::::::::######XXXXXX                  oooooozzzzzzzzzzzzzzzzzzzzzzzzzzzzzzzzzzzzzzzzzzzzzzzzzzzzzzzzzzzzzzzzzzzzzzzzzzzzzzzzzzzzzzzzzzzzzzzzzzzzzzzzzz",
"zzzzzzzzzzzzzzzzzzzzzzzzzzzzzzzzzzzzzzzzzzzzzzzzzzzzzzzzzzzzzzzz&&&&&&oooooooooooo%%%%%%;;;;;;eeeweewwwwwwrrrrrrttttttaaaaaaaaaaaagjjjggrrrrrrXXXXXX      @@@@@@######::::::############@@@@@@@@@@@@@@@@@@XXXXXXXXXXXXXXXXXXXXXXXXXXXXXXXXXXXXXXXXXXXXXXXXXXXXXX                        XXXXXXXXXXXXXXXXXXXXXXXXXXXXXXXXXXXXXXXXXXXXXXXXXXXXXX@@@@@@@@@@@@@@@@@@##@@##::::::::::::######XXXXXX                  oooooozzzzzzzzzzzzzzzzzzzzzzzzzzzzzzzzzzzzzzzzzzzzzzzzzzzzzzzzzzzzzzzzzzzzzzzzzzzzzzzzzzzzzzzzzzzzzzzzzzzzzzzzzz",
"zzzzzzzzzzzzzzzzzzzzzzzzzzzzzzzzzzzzzzzzzzzzzzzzzzzzzzzzzzzzzzzz&&&&&&oooooooooooo%%%%%%;;;;;;eeeeeewwwwwwrrrrrrttttttaaaaaaaaaaaagjjjggrrrrrrXXXXXX      @@@@@@######::::::############@@@@@@@@@@@@@@@@@@XXXXXXXXXXXXXXXXXXXXXXXXXXXXXXXXXXXXXXXXXXXXXXXXXXXXXX                        XXXXXXXXXXXXXXXXXXXXXXXXXXXXXXXXXXXXXXXXXXXXXXXXXXXXXX@@@@@@@@@@@@@@@@@@###@##::::::::::::######XXXXXX                  oooooozzzzzzzzzzzzzzzzzzzzzzzzzzzzzzzzzzzzzzzzzzzzzzzzzzzzzzzzzzzzzzzzzzzzzzzzzzzzzzzzzzzzzzzzzzzzzzzzzzzzzzzzzz",
"zzzzzzzzzzzzzzzzzzzzzzzzzzzzzzzzzzzzzzzzzzzzzzzzzzzzzzzzzzzzzzzz&&&&&&oooooooooooo%%%%%%;;;;;;eeeeeewwwwwwrrrrrrttttttaaaaaaaaaaaaggjjjjrrrrrrXXXXXX      @@@@@@######::::::############@@@@@@@@@@@@@@@@@@XXXXXXXXXXXXXXXXXXXXXXXXXXXXXXXXXXXXXXXXXXXXXXXXXXXXXX                        XXXXXXXXXXXXXXXXXXXXXXXXXXXXXXXXXXXXXXXXXXXXXXXXXXXXXX@@@@@@@@@@@@@@@@@@###@##::::::::::::######XXXXXX                  oooooozzzzzzzzzzzzzzzzzzzzzzzzzzzzzzzzzzzzzzzzzzzzzzzzzzzzzzzzzzzzzzzzzzzzzzzzzzzzzzzzzzzzzzzzzzzzzzzzzzzzzzzzzz",
"zzzzzzzzzzzzzzzzzzzzzzzzzzzzzzzzzzzzzzzzzzzzzzzzzzzzzzzzzzzzzzzzOOOOOOoooooooooooo-------;--;-eeweeerwrrwrrrrrrrttttttaaaaaaaaaaaajjjjjj%%%%%%XXXXXX      ######::::::##################@@@@@@oooooo$$$$$$XXXXXXXXXXXXXXXXXXXXXXXXXXXXXXXXXXXXXXXXXXXXXXXX                                    XXXXXXXXXXXXXXXXXXXXXXXXXXXXXXXXXXXXXXXXXXXXXXXX@@@@@@@@@@@@oooooo@@@@@@::::::::::::::::::@@@@@@      XXXXXX      oooooo&&&&&&zzzzzzzzzzzzzzzzzzzzzzzzzzzzzzzzzzzzzzzzzzzzzzzzzzzzzzzzzzzzzzzzzzzzzzzzzzzzzzzzzzzzzzzzzzzzzzzzzzzz",
"zzzzzzzzzzzzzzzzzzzzzzzzzzzzzzzzzzzzzzzzzzzzzzzzzzzzzzzzzzzzzzzzOOOOOOoooooooooooo---------;;;eeweeerrrrwrrrrrrrttttttaaaaaaaaaaaajjjjjj%%%%%%XXXXXX      ######::::::##################@@@@@@oooooo$$$$$$XXXXXXXXXXXXXXXXXXXXXXXXXXXXXXXXXXXXXXXXXXXXXXXX                                    XXXXXXXXXXXXXXXXXXXXXXXXXXXXXXXXXXXXXXXXXXXXXXXX@@@@@@@@@@@@oooooo@@@@@@:::#::::::::::::::@@@@@@      XXXXXX      oooooo&&&&&&zzzzzzzzzzzzzzzzzzzzzzzzzzzzzzzzzzzzzzzzzzzzzzzzzzzzzzzzzzzzzzzzzzzzzzzzzzzzzzzzzzzzzzzzzzzzzzzzzzzz",
"zzzzzzzzzzzzzzzzzzzzzzzzzzzzzzzzzzzzzzzzzzzzzzzzzzzzzzzzzzzzzzzzOOOOOOoooooooooooo------;;;;;;eewweewwwwwwrrrrrrttttttaaaaaaaaaaaajjjjjj%%%%%%XXXXXX      ######::::::############@@#@##@@@@@@oooooo$$$$$$XXXXXXXXXXXXXXXXXXXXXXXXXXXXXXXXXXXXXXXXXXXXXXXX                                    XXXXXXXXXXXXXXXXXXXXXXXXXXXXXXXXXXXXXXXXXXXXXXXX@@@@@@@@@@@@oo$ooo@@@@@@::::##::::::::::::@@@@@@      XXXXXX      oooooo&&&&&&zzzzzzzzzzzzzzzzzzzzzzzzzzzzzzzzzzzzzzzzzzzzzzzzzzzzzzzzzzzzzzzzzzzzzzzzzzzzzzzzzzzzzzzzzzzzzzzzzzzz",
"zzzzzzzzzzzzzzzzzzzzzzzzzzzzzzzzzzzzzzzzzzzzzzzzzzzzzzzzzzzzzzzzOOOOOOoooooooooooo------;;;;-;eewweewwwwwwrrrrrrttttttaaaaaaaaaaaajjjjjj%%%%%%XXXXXX      ######::::::############@@@@##@@@@@@o+oooo$$$$$$XXXXXXXXXXXXXXXXXXXXXXXXXXXXXXXXXXXXXXXXXXXXXXXX                                    XXXXXXXXXXXXXXXXXXXXXXXXXXXXXXXXXXXXXXXXXXXXXXXX@@@@@@@@@@@@oo$ooo@@@@@@::::#:::::::::::::@@@@@@      XXXXXX      oooooo&&&&&&zzzzzzzzzzzzzzzzzzzzzzzzzzzzzzzzzzzzzzzzzzzzzzzzzzzzzzzzzzzzzzzzzzzzzzzzzzzzzzzzzzzzzzzzzzzzzzzzzzzz",
"zzzzzzzzzzzzzzzzzzzzzzzzzzzzzzzzzzzzzzzzzzzzzzzzzzzzzzzzzzzzzzzzOOOOOOoooooooooooo------;;;;;;eewwwewwwwwwrrrrrrttttttaaaaaaaaaaaajjjjjj%%%%%%XXXXXX      ######::::::##################@@@@@@++oooo$$$$$$XXXXXXXXXXXXXXXXXXXXXXXXXXXXXXXXXXXXXXXXXXXXXXXX                                    XXXXXXXXXXXXXXXXXXXXXXXXXXXXXXXXXXXXXXXXXXXXXXXX@@@@@@@@@@@@oo$$oo@@@@@@::::::::::::::::::@@@@@@      XXXXXX      oooooo&&&&&&zzzzzzzzzzzzzzzzzzzzzzzzzzzzzzzzzzzzzzzzzzzzzzzzzzzzzzzzzzzzzzzzzzzzzzzzzzzzzzzzzzzzzzzzzzzzzzzzzzzz",
"zzzzzzzzzzzzzzzzzzzzzzzzzzzzzzzzzzzzzzzzzzzzzzzzzzzzzzzzzzzzzzzzOOOOOOoooooooooooo------;;;-;;eewweewwwwwwrrrrrrttttttaaaaaaaaaaaajjjjjj%%%%%%XXXXXX      ######::::::##################@@@@@@++oooo$$$$$$XXXXXXXXXXXXXXXXXXXXXXXXXXXXXXXXXXXXXXXXXXXXXXXX                                    XXXXXXXXXXXXXXXXXXXXXXXXXXXXXXXXXXXXXXXXXXXXXXXX@@@@@@@@@@@@ooooo+@@@@@@::::::::::::::::::@@@@@@      XXXXXX      oooooo&&&&&&zzzzzzzzzzzzzzzzzzzzzzzzzzzzzzzzzzzzzzzzzzzzzzzzzzzzzzzzzzzzzzzzzzzzzzzzzzzzzzzzzzzzzzzzzzzzzzzzzzzz",
"zzzzzzzzzzzzzzzzzzzzzzzzzzzzzzzzzzzzzzzzzzzzzzzzzzzzzzzzzzzzzzzzooooooooooooOOOOOO;;;;;;;;;;;;eewwwwwwrrwwrrrrrrttttttaaaaaaaaaaaarrrrrrXXXXXX            ############::::::>>>>>>x>>>xxxx>>>>xx>>>>xxxxxxxxxxxxxxxxxx>>>>xxx>>>x>>x>>>>xx>>>>xxxxxx>>>>>>>>>>>>::::::::::::::::::::::::>>>>>>>>>>>>xxxxxx>>>>>x>>>>xx>>>>>>>>>>>>xxxxxxxxxxxxxxxxxx>>>>>xxx>xxxxx>>>>>>>>>>::::::::::::######oooooo      XXXXXX;;;;;;;;;;;;&&&&&&zzzzzzzzzzzzzzzzzzzzzzzzzzzzzzzzzzzzzzzzzzzzzzzzzzzzzzzzzzzzzzzzzzzzzzzzzzzzzzzzzzzzzzzzzzzzzz",
"zzzzzzzzzzzzzzzzzzzzzzzzzzzzzzzzzzzzzzzzzzzzzzzzzzzzzzzzzzzzzzzzooooooooooooOOOOOO;;;;;;;;;;;;eewwwwwwwrwwrrrrrrttttttaaaaaaaaaaaarrrrrrXXXXXX            ############::::::>>>>>>>>>>x>xx>>>>xx>>>>xxxxxxxxxxxxxxxxxx>>>>xx>>>>xx>>>>xxxx>>>>xxxxxx>>>>>>>>>>>>::::::::::::::::::::::::>>>>>>>>>>>>xxxxxx>>>>xx>>>>xx>>>>>>>>>>>>xxxxxxxxxxxxxxxxxx>>>>>>x>>>xxxx>>>>>>>>>>::::::::::::######oooooo      XXXXXX;;;;;;;;;;;;&&&&&&zzzzzzzzzzzzzzzzzzzzzzzzzzzzzzzzzzzzzzzzzzzzzzzzzzzzzzzzzzzzzzzzzzzzzzzzzzzzzzzzzzzzzzzzzzzzzz",
"zzzzzzzzzzzzzzzzzzzzzzzzzzzzzzzzzzzzzzzzzzzzzzzzzzzzzzzzzzzzzzzzooooooooooooOOOOOO;;;-----;;;;eewweewwrrwwrrrrrrttttttaaaaaaaaaaaarrrrrrXXXXXX            ############::::::>>>>>>>>>>>>>>>>>>>>>>>>xxxxxxxxxxxxxxxxxx>>>>>x>>>>>>>>>>>x>>>>>>xxxxxx>>>>>>>>>>>>::::::::::::##::::::::::>>>>>>>>>>>>xxxxxx>>>>>>>>>>xx>>>>>>xx>>>>xxxxxxxxxxxxxxxxxx>>>>>>>>>>>>xx>>>>>>>>>>::::::::::::######oooooo      XXXXXX--;;;;;;;;;;&&&&&&zzzzzzzzzzzzzzzzzzzzzzzzzzzzzzzzzzzzzzzzzzzzzzzzzzzzzzzzzzzzzzzzzzzzzzzzzzzzzzzzzzzzzzzzzzzzzz",
"zzzzzzzzzzzzzzzzzzzzzzzzzzzzzzzzzzzzzzzzzzzzzzzzzzzzzzzzzzzzzzzzooooooooooooOOOOOO;;;---;-;;;;eeeweewwrrwwrrrrrrttttttaaaaaaaaaaaarrrrrrXXXXXX            ############::::::>>>>>>>>>>>>>>>>>>>>>>>>xxxxxxxxxxxxxxxxxx>>>>>>>>>>>>>>>>>>>>>>>>xxxxxx>>>>>>>>>>>>::::::::##::::::::::::::>>>>>>>>>>>>xxxxxx>>>>>>xx>>>>>>>>>xxx>>>>xxxxxxxxxxxxxxxxxx>>>>>>>x>>>>>x>>>>>>>>>>>>::::::::::######oooooo      XXXXXX--;;;;;;;;-;&&&&&&zzzzzzzzzzzzzzzzzzzzzzzzzzzzzzzzzzzzzzzzzzzzzzzzzzzzzzzzzzzzzzzzzzzzzzzzzzzzzzzzzzzzzzzzzzzzzz",
"zzzzzzzzzzzzzzzzzzzzzzzzzzzzzzzzzzzzzzzzzzzzzzzzzzzzzzzzzzzzzzzzooooooooooooOOOOOO;;;;;;;;;;;;eeeeeewwwwwwrrrrrrttttttaaaaaaaaaaaarrrrrrXXXXXX            ############::::::>>>>>>>>>>>>>>xxxx>>>x>xxxxxxxxxxxxxxxxxxx>>>>>>>xxx>>>>>>>>>>x>>>xxxxxx>>>>>>>>>>>>::::::::#:::##::::::::::>>>>>>>>>>>>xxxxxx>>>>>>xx>>>>>>xxxx>>>>>>xxxxxxxxxxxxxxxxxx>>>>>>>>>>>>>>>>xx>>>>>>>>>:::::::::######oooooo      XXXXXX-;;;----;---&&&&&&zzzzzzzzzzzzzzzzzzzzzzzzzzzzzzzzzzzzzzzzzzzzzzzzzzzzzzzzzzzzzzzzzzzzzzzzzzzzzzzzzzzzzzzzzzzzzz",
"zzzzzzzzzzzzzzzzzzzzzzzzzzzzzzzzzzzzzzzzzzzzzzzzzzzzzzzzzzzzzzzzooooooooooooOOOOOO;;;;;;;;;;;;eeeeeewwwwwwrrrrrrttttttaaaaaaaaaaaarrrrrrXXXXXX            ############::::::>>>>>>>>>>>>>>xx>x>>>>xxxxxxxxxxxxxxxxxxxx>>>>>>xx>x>>>>>>>>>>xx>>xxxxxx>>>>>>>>>>>>::::::::::::##::::::::::>>>>>>>>>>>>xxxxxx>>>>>xxx>>>>>>xx>x>>>>>>xxxxxxxxxxxxxxxxxx>>>>>>>x>>>>>>>>xx>>>>>>>>>:::::::::######oooooo      XXXXXX;;;;----;---&&&&&&zzzzzzzzzzzzzzzzzzzzzzzzzzzzzzzzzzzzzzzzzzzzzzzzzzzzzzzzzzzzzzzzzzzzzzzzzzzzzzzzzzzzzzzzzzzzzz",
"zzzzzzzzzzzzzzzzzzzzzzzzzzzzzzzzzzzzzzzzzzzzzzzzzzzzzzzzzz&&&&&&OOOOOOOOOOOO&&&&&&;;;;;;;;;;;;;;;;;;wwwwrrrrrrrrttttttaaaaaarrrrrr%%%%%%XXXXXXXXXXXXoooooo@@@@@@::::::xxxxxxxxxxxxAAAAAAAAAAAAZZZZZZZZZZZZZZZZZZZZZZZZZAZZAZZZZZZZZZZZZZZZZZZZAAAAAAAAAAAAAAAAAAxAAAxx>>>>>>>>>>>>xxxAAxAAAAAAAAAAAAAAAZAAZZZZZZZZZZZZZAZZZZZZZZZZZZZZZZZZZZZZZZZZZZZZZZZZZZZZZZAAAAAAxxxxxxxxxxxx::::::@@@@@@ooooooOOOO++XXXXXX;;;;--weeeee;;;;;;@@@@@@zzzzzzzzzzzzzzzzzzzzzzzzzzzzzzzzzzzzzzzzzzzzzzzzzzzzzzzzzzzzzzzzzzzzzzzzzzzzzzzzzzzzzzzz",
"zzzzzzzzzzzzzzzzzzzzzzzzzzzzzzzzzzzzzzzzzzzzzzzzzzzzzzzzzz&&&&&&OOOOOOOOOOOO&&&&&&;;;;;;;;;;;;;;;;;;wwwwrrrrrrrrttttttaaaaaarrrrrr%%%%%%XXXXXXXXXXXXoooooo@@@@@@::::::xxxxxxxxxxAAAAAAAAAAAAAAZZZZZZZZZZZZZZZZZZZZZZZZZZZZAZZZZZZZZZZZZZZZZZZZAAAAAAAAAAAAAAAAAAxAAAxx>>>>>>>>>>>>xxxxAAAAAAAAAAAAAAAAAAAAZZZZZZZZZZZZZAZZZZZZZZZZZZZZZZZZZZZZZZZZZZZZZZZZZZZZZZAAAAAAxxxxxxxxxxxx::::::@@@@@@ooooooOOOO++XXXXXX;;;;-;weeeee;;;-;;@@@@@@zzzzzzzzzzzzzzzzzzzzzzzzzzzzzzzzzzzzzzzzzzzzzzzzzzzzzzzzzzzzzzzzzzzzzzzzzzzzzzzzzzzzzzzz",
"zzzzzzzzzzzzzzzzzzzzzzzzzzzzzzzzzzzzzzzzzzzzzzzzzzzzzzzzzz&&&&&&OOOOOO&&OO&&&&&&&&;;;;;;;;;;;;ee;;eerwwwwwrrrrrrttttttaaaaaarrrrrr%%%%%%XXXXXXXXXXXXoooooo@@@@@@::::::xxxxxxAAAAxxAAAAAAAAAAAAZZZZZZZZZZZZZZZZZZZZZZZZZZZZZZZZZZZZZZZZZZZZZZZZAAAAAAAAAAAAAAAAAAxxAAAA>>>>>>>>>>>>AAxxxxAAAAAAAAAAAAAAAAAAZZZZZZZZZZZZZZZZZZZZZZZZZZZZZZZZZZZZZZZZZZZZZZZZZZZZZZAAAAAAxxxxxxxxxxxx::::::@@@@@@ooooooOOOO++XXXXXX;-;;;;eeeeee;;--;;@@@@@@zzzzzzzzzzzzzzzzzzzzzzzzzzzzzzzzzzzzzzzzzzzzzzzzzzzzzzzzzzzzzzzzzzzzzzzzzzzzzzzzzzzzzzzz",
"zzzzzzzzzzzzzzzzzzzzzzzzzzzzzzzzzzzzzzzzzzzzzzzzzzzzzzzzzz&&&&&&OOOOOO&&OO&&&&&&&&;;;;;;;;;;;;;e;;eewwwwwwrrrrrrttttttaaaaaarrrrrr%%%%%%XXXXXXXXXXXXoooooo@@@@@@::::::xxxxxxAAAAxxAAAAAAAAAAAAZZZZZZZZZZZZZZZZZZZZZZZZZZZZZZZZZZZZZZZZZZZZZZZZAAAAAAAAAAAAAAAAAAxxAxAA>>>>>>>>>>>>xAxxxxAAAAAAAAAAAAAAAAAAZZZZZZZZZZZZZZZZZZZZZZZZZZZZZZZZZZZZZZZZZZZZZZZZZZZZZAAAAAAAxxxxxxxxxxxx::::::@@@@@@ooooooOOOO++XXXXXX--;;;;eeeeee----;;@@@@@@zzzzzzzzzzzzzzzzzzzzzzzzzzzzzzzzzzzzzzzzzzzzzzzzzzzzzzzzzzzzzzzzzzzzzzzzzzzzzzzzzzzzzzzz",
"zzzzzzzzzzzzzzzzzzzzzzzzzzzzzzzzzzzzzzzzzzzzzzzzzzzzzzzzzz&&&&&&OOOOOO&&O&&&&&&&&&;;;;;;;;;;;;eeeeeewwwwwwrrrrrrttttttaaaaaarrrrrr--%%%%XXXXXXXXXXXXoooooo@@@@@@::::::xxxxxxxxAAxxAAAAAAAAAAAAZZZZZZZZZZZZZZZZZZZZZZZZZZZZZZZZZZZZZZZZZZZZZZZZAAAAAAAAAAAAAAAAAAxxxxxx>>>>>>>>>>>>AAxAxxAAAAAAAAAAAAAAAAAAZZZZZZZZZZZZZZZZZZZZZZZZZZZZZZZZZZZZZZZZZZZZZZZZZZZZAAAAAAAAxxAxAAxxxxxx::::::@@@@@@ooooooOOOO++XXXXXX-;;;;;eeeeee--;;;;@@@@@@zzzzzzzzzzzzzzzzzzzzzzzzzzzzzzzzzzzzzzzzzzzzzzzzzzzzzzzzzzzzzzzzzzzzzzzzzzzzzzzzzzzzzzzz",
"zzzzzzzzzzzzzzzzzzzzzzzzzzzzzzzzzzzzzzzzzzzzzzzzzzzzzzzzzz&&&&&&OOOOOO&&OO&&&&&&&&;;;;;;;;;;;;eeeeeewwwwwwrrrrrrttttttaaaaaarrrrrr--%%%%XXXXXXXXXXXXoooooo@@@@@@::::::xxxxxxxxAAxxAAAAAAAAAAAAZZAZZZZZZZZZZZZZZZZZZZZZZZZZZZZZZZZZZZZZZZZZZZZZAAAAAAAAAAAAAAAAAAxxxxxx>>>>>>>>>>>>AAAAxxAAAAAAAAAAAAAAAAAAZZZZZZZZZZZZZZZZZZZZZZZZZZZZZZZZZZZZZZZZZZZZZZZZZZZZAAAAAAAAxxAxAAxxxxxx::::::@@@@@@ooooooOOOO++XXXXXX;;;;;;eeeeee--;-;;@@@@@@zzzzzzzzzzzzzzzzzzzzzzzzzzzzzzzzzzzzzzzzzzzzzzzzzzzzzzzzzzzzzzzzzzzzzzzzzzzzzzzzzzzzzzzz",
"zzzzzzzzzzzzzzzzzzzzzzzzzzzzzzzzzzzzzzzzzzzzzzzzzzzzzzzzzz&&&&&&OOOOOO&&&&&&;;;;;;eeeewwwwwwwwrrrrrraaaattaaaaaattttttrrrrrr;;;;;;XXXXXXooooooooooooOOOO++XXXXXX######>:::::>>>>>>>>>>>>xxxxxxxxxxxxxxxxxxAAAAAAxxxxxxxxxxxxxxxxxx>>>>>>>>>>>>::::::######@@@@@@@@@@.@@@@@@@@@@@@@@@@@@@@@@@@@##@###::##::>>::::>>>>>>xxxxxxxxxxxxxxAAAxxxxxxxxxxxxxxxxxxxxxxxxxxxxxxxxxxxxx>>xxxx######XXXXXXOOOOOO&OOOOOXXXXXXOOOOOO;;;;;;eeeeee%%%%%%oooooozzzzzzzzzzzzzzzzzzzzzzzzzzzzzzzzzzzzzzzzzzzzzzzzzzzzzzzzzzzzzzzzzzzzzzzzzzzzzzzzzz",
"zzzzzzzzzzzzzzzzzzzzzzzzzzzzzzzzzzzzzzzzzzzzzzzzzzzzzzzzzz&&&&&&OOOOOO&&&&&&;;;;;;eeeeewwwwwwwrrrrrraattttaaaaaattttttrrrrrr;;;;;;XXXXXXooooooooooooOOOO+OXXXXXX######>>::::>>>>>>>>>>>>xxxxxxxxxxxxxxxxxxAAAAAAxxxxxxxxxxxxxxxxxx>>x>>>>>>>>:::::::######@@@@@@@@@@@@@@@@@@@@@@@@@@@@@@@@@@@@##@###:###::>>>>::>>>>>>xxxxxxxxxxxxxxAAAxxxxxxxxxxxxxxxxxxxxxxxxxxxxxxxxxxxxx>>>xxx######XXXXXXOOOOOO&OOOOOXXXXXXOOOOOO;;;;;;weeeee%%%%%%oooooozzzzzzzzzzzzzzzzzzzzzzzzzzzzzzzzzzzzzzzzzzzzzzzzzzzzzzzzzzzzzzzzzzzzzzzzzzzzzzzzzz",
"zzzzzzzzzzzzzzzzzzzzzzzzzzzzzzzzzzzzzzzzzzzzzzzzzzzzzzzzzz&&&&&&OOOOOO&&&&&&;;;;-;eeeewwrrwwwwrrrrrrttttttaaaaaattttttrrrrrree;;;;XXXXXXooooooooooooOOOOOOXXXXXX######::::::>>>>>>>>>>>>xxxxxxxxxxxxAAxxxxAAAAAAxxxxxxxxxxxxxxxxxx>>xx>>::>>::::::::######@@@@@@@@@@@@@@@@@@@@@@@@@@@@@@@@@@@@######::##::>>>>>>xx>>>>xxxxxxxxxxxxxxAAAAxxAAAAxxxxxxxxxxxxxxxxxxxxxxxxxxxxxx>x>>>>######XXXXXXOOOOOO&&OOOOXXXXXXOOOO++;;;;;;wweeee%%%%%%oooooozzzzzzzzzzzzzzzzzzzzzzzzzzzzzzzzzzzzzzzzzzzzzzzzzzzzzzzzzzzzzzzzzzzzzzzzzzzzzzzzzz",
"zzzzzzzzzzzzzzzzzzzzzzzzzzzzzzzzzzzzzzzzzzzzzzzzzzzzzzzzzz&&&&&&OOOOOO&&&&&&;;;;;;eeeewwrrrrwwrrrrrrttttttaaaaaattttttrrrrrreee;;;XXXXXXooooooooooooOOOOOOXXXXXX######::::::>>>>>>>>>>>>xxxxxxxxxxxxAxxxxxAAAAAAxxxxxxxxxxxxxxxxxx>>xx>>::>>::::::::######@@@@@@@@@@@@@@@@@@@@@@@@@@@@@@@@@@@@######::::::>>>>>>xx>>>>xxxxxxxxxxxxAxAAAxxxAAAAxxxxxxxxxxxxxxxxxxxxxxxxxxxxxx>>>>>x######XXXXXXOOOOOO&&OOOOXXXXXXOOOOO+---;;;wwewee%%%%%%oooooozzzzzzzzzzzzzzzzzzzzzzzzzzzzzzzzzzzzzzzzzzzzzzzzzzzzzzzzzzzzzzzzzzzzzzzzzzzzzzzzzz",
"zzzzzzzzzzzzzzzzzzzzzzzzzzzzzzzzzzzzzzzzzzzzzzzzzzzzzzzzzz&&&&&&OOO&&&&&&&&&;;;;;;eeeewwwwwwwwrrrrrrttttttaaaaaattttttrrrrrr;;;;;eXXXXXXooooooooooooOOOOOOXXXXXX######::::::>>>>>>>>>>>>xxxxxxxxxxxxxxxxAxAAAAAAxxxxxxxxxxxxxxxxxx>>>>>>>>>>:>::::::######@@@@@@@@@@@@@@@@@@@@@@@@@@@@@@@@@@@@######::::::>>>>::>>xx>>xxxxxxxxxxxxAAAAxxxxAAAAxxxxxxxxxxxxxxxxxxxxxxxxxxxxxx>>>>>>######XXXXXXOOOOOOOOOOOOXXXXXX++++++;;;---wwwwww%%%%%%oooooozzzzzzzzzzzzzzzzzzzzzzzzzzzzzzzzzzzzzzzzzzzzzzzzzzzzzzzzzzzzzzzzzzzzzzzzzzzzzzzzzz",
"zzzzzzzzzzzzzzzzzzzzzzzzzzzzzzzzzzzzzzzzzzzzzzzzzzzzzzzzzz&&&&&&OOO&&&&&&&&&;;;;;;eeeewwwwwwwwrrrrrrttttttaaaaaattttttrrrrrr;;;;;;XXXXXXooooooooooooOOOOOOXXXXXX######::::::>>>>>>>>>>>>xxxxxxxxxxxxxxxxAxAAAAAAxxxxxxxxxxxxxxxxxx>>>>>>>>>>:>::::::######@@@@@@@@@@@@@@@@@@@@@@@@@@@@@@@@@@@@######::::::>>>>::>>xx>>xxxxxxxxxxxxAAAAxxxxAAAAxxxxxxxxxxxxxxxxxxxxxxxxxxxxxx>>x>>>######XXXXXXOOOOOOOOOOOOXXXXXX++++++;;----wwwwww%%%%%%oooooozzzzzzzzzzzzzzzzzzzzzzzzzzzzzzzzzzzzzzzzzzzzzzzzzzzzzzzzzzzzzzzzzzzzzzzzzzzzzzzzzz",
"zzzzzzzzzzzzzzzzzzzzzzzzzzzzzzzzzzzzzzzzzzzzzzzzzzzzzzzzzz&&&&&&OOOO&O;;;;;;wwwweewwwwwwrrrrrraattttaaaaaaaaaaaarrrrrr;;;;ee%%%%--XXXXXXooooooOO&O&&OOOOOO                                    XXXXXX######::::::::::::############@@@@@@                                                                        @@@@@@############::::::::::::######@@@@@@                                    ooooooOO&&O&ooooooXXXXXX&&&&&&;;;;;;;;;;;;&O&&&&zzzzzzzzzzzzzzzzzzzzzzzzzzzzzzzzzzzzzzzzzzzzzzzzzzzzzzzzzzzzzzzzzzzzzzzzzzzzzzzzzz",
"zzzzzzzzzzzzzzzzzzzzzzzzzzzzzzzzzzzzzzzzzzzzzzzzzzzzzzzzzz&&&&&&OOOO&O;;;;;;wwwweewwwwwwrrrrrraattttaaaaaaaaaaaarrrrrr;;;;ee%%%%--XXXXXXooooooOO&&&&OOOOOO                                    XXXXXX######::::::::::::############@@@@@@                                                                        @@@@@@############::::::::::::######@@@@@@                                    oooooo&&&&&&ooooooXXXXXX&&&&&&;;;;;;;;;;;;&&&&&&zzzzzzzzzzzzzzzzzzzzzzzzzzzzzzzzzzzzzzzzzzzzzzzzzzzzzzzzzzzzzzzzzzzzzzzzzzzzzzzzzz",
"zzzzzzzzzzzzzzzzzzzzzzzzzzzzzzzzzzzzzzzzzzzzzzzzzzzzzzzzzz&&&&&&&&&OOO;;;;;;eeeewewwwwwwrrrrrrttttttaaaaaaaaaaaarrrrrree;;ee--%%--XXXXXXooooooOOOOOOOOOOOO                                    XXXXXX######::::::::::::############@@@@@@                                                                        @@@@@@############::::::::::::######@@@@@@                                    ooooooOO&&OOooooooXXXXXX&&&&&&;;;;;;;;;;;;&&&&&&zzzzzzzzzzzzzzzzzzzzzzzzzzzzzzzzzzzzzzzzzzzzzzzzzzzzzzzzzzzzzzzzzzzzzzzzzzzzzzzzzz",
"zzzzzzzzzzzzzzzzzzzzzzzzzzzzzzzzzzzzzzzzzzzzzzzzzzzzzzzzzz&&&&&&&&&&OO;;;;;;eeeewewwwwrwrrrrrrttttttaaaaaaaaaaaarrrrrr;e;;ee--%%%%XXXXXXoooooo&OOOOOOOOOOO                                    XXXXXX######::::::::::::############@@@@@@                                                                        .@@@@@############::::::::::::######@@@@@@                                    ooooooOO&&OOooooooXXXXXX&&&&&&;;;;;;;;;;;;&&&&&&zzzzzzzzzzzzzzzzzzzzzzzzzzzzzzzzzzzzzzzzzzzzzzzzzzzzzzzzzzzzzzzzzzzzzzzzzzzzzzzzzz",
"zzzzzzzzzzzzzzzzzzzzzzzzzzzzzzzzzzzzzzzzzzzzzzzzzzzzzzzzzz&&&&&&O&OOOO;;;;-;eeeewwwwwwrrrrrrrrttttttaaaaaaaaaaaarrrrrree;;;e-%%%%%XXXXXXoooooo&&OOOOOOOOOO                                    XXXXXX######::::::::::::############@@@@@@                                                                        .@@@@@############::::::::::::######@@@@@@                                    ooooooOOOOOOooooooXXXXXX&&&&&&;;;;;;;;;;-;&&&&&&zzzzzzzzzzzzzzzzzzzzzzzzzzzzzzzzzzzzzzzzzzzzzzzzzzzzzzzzzzzzzzzzzzzzzzzzzzzzzzzzzz",
"zzzzzzzzzzzzzzzzzzzzzzzzzzzzzzzzzzzzzzzzzzzzzzzzzzzzzzzzzz&&&&&&OOOOOO;;;;-;eeeewwwwwrrrrrrrrrttttttaaaaaaaaaaaarrrrrree;;ee--%%%%XXXXXXooooooOOOOOOOOOOOO                                    XXXXXX######::::::::::::############@@@@@@                                                                        .@@@@@############::::::::::::######@@@@@@                                    ooooooOOOOOOooooooXXXXXX&&&&&&;;;;;;;-;;;;&&&&&&zzzzzzzzzzzzzzzzzzzzzzzzzzzzzzzzzzzzzzzzzzzzzzzzzzzzzzzzzzzzzzzzzzzzzzzzzzzzzzzzzz",
"zzzzzzzzzzzzzzzzzzzzzzzzzzzzzzzzzzzzzzzzzzzzzzzzzzzzzzzzzzOOO&&&&&&&&&------;;;;;;;;;;;;weewwwrwwwwwrrrrrrwwwwwweeeeee;;;;;;XXXXXXXXXXXXOOOOOOOO&&&&OOOOOO                                    XXXXXX@@@@@@@@##########@#####@@@@@@                                                                                    @@@@@@@@@@@@############@@@@@@XXXXXX                                    oooooo&OOOOOooooooXXXXXX++OOOO&&&&&&------&&&&&&&&&&&&zzzzzzzzzzzzzzzzzzzzzzzzzzzzzzzzzzzzzzzzzzzzzzzzzzzzzzzzzzzzzzzzzzzzzzzzzzzz",
"zzzzzzzzzzzzzzzzzzzzzzzzzzzzzzzzzzzzzzzzzzzzzzzzzzzzzzzzzzOOO&&&&&&&&&------;;;;;;;;;;;;wewwwwwwwwwwrrrrrrwwwwrreeee;;;;;;;;XXXXXXXXXXXXOOOOOOOO&&&&OOOOOO                                    XXXXXX@@@@@@@@################@@@@@@                                                                                    @@@@@@@@@@@@####@@######@@@@@@XXXXXX                                    oooooo&OOO&OooooooXXXXXX++OOOO&&&&&&------&&&&&&&&&&&&zzzzzzzzzzzzzzzzzzzzzzzzzzzzzzzzzzzzzzzzzzzzzzzzzzzzzzzzzzzzzzzzzzzzzzzzzzzz",
"zzzzzzzzzzzzzzzzzzzzzzzzzzzzzzzzzzzzzzzzzzzzzzzzzzzzzzzzzzOOOO&&&&&&&&------;;;;;;;;;;;;eewwwwwwwwwwrrrrrrwwwrrree;;;;;;;;;;XXXXXXXXXXXXOOOOOOOO&&OOOOOOOO                                    XXXXXX@@@@@@##############@@##@@@@@@                                                                                    @@@@@@@@@@@@############@@@@@@XXXXXX                                    oooooo&&OO&&+oooooXXXXXX++OOOO&&&&&&------&&&&&&&&&&&&zzzzzzzzzzzzzzzzzzzzzzzzzzzzzzzzzzzzzzzzzzzzzzzzzzzzzzzzzzzzzzzzzzzzzzzzzzzz",
"zzzzzzzzzzzzzzzzzzzzzzzzzzzzzzzzzzzzzzzzzzzzzzzzzzzzzzzzzzOOOO&&&&&&&&------;;;;;;;;;;;;eewwwwwwrrwwrrrrrrwwwrrr;;;;;;;;;;;;XXXXXXXXXXXXOOOOOOOOOOOOOOOOOO                                    XXXXXX@@@@@@##############@###@@@@@@                                                                                    @@@@@@@@@@@@#######@####@@@@@@XXXXXX                                    oooooo&&OO&&ooooooXXXXXX++OOOO&&&&&&------&&&&&&&&&&&&zzzzzzzzzzzzzzzzzzzzzzzzzzzzzzzzzzzzzzzzzzzzzzzzzzzzzzzzzzzzzzzzzzzzzzzzzzzz",
"zzzzzzzzzzzzzzzzzzzzzzzzzzzzzzzzzzzzzzzzzzzzzzzzzzzzzzzzzzOOOOOO&&&&&&------;;;;;;;;;;;;eewwwwwwrrrrrrrrrrrrwwww;;;;;;;;;;;;XXXXXXXXXXXXOOOOOOOOOOOOOOOOOO                                    XXXXXX@@@@@@##############@@##@@@@@@                                                                                    @@@@@@@@@@@@######@#####@@@@@@XXXXXX                                    oooooo&OOOOOooooooXXXXXXOOOOOO&&&&&&------&&&&&&&&&&&&zzzzzzzzzzzzzzzzzzzzzzzzzzzzzzzzzzzzzzzzzzzzzzzzzzzzzzzzzzzzzzzzzzzzzzzzzzzz",
"zzzzzzzzzzzzzzzzzzzzzzzzzzzzzzzzzzzzzzzzzzzzzzzzzzzzzzzzzzO&OOOO&&&&&&------;;;;;;;;;;;;eewwwwwwrrwwrrrrrrrrwwww;e;;;;;;;;;;XXXXXXXXXXXXOOOOOOOOOOOOOOOOOO                                    XXXXXX@@@@@@##################@@@@@@                                                                                    @@@@@@@@@@@@#######@####@@@@@@XXXXXX                                    oooooo&&OOOOooooooXXXXXXOOOOOO&&&&&&------&&&&&&&&&&&&zzzzzzzzzzzzzzzzzzzzzzzzzzzzzzzzzzzzzzzzzzzzzzzzzzzzzzzzzzzzzzzzzzzzzzzzzzzz",
"zzzzzzzzzzzzzzzzzzzzzzzzzzzzzzzzzzzzzzzzzzzzzzzzzzzzzzzzzz%%%%%%&&&&&&&&&&&&%%%%%%;;;;;;;;;;;;eeeewweeeeweeeee;;;;;;;;%%%%%%XXXXXXooooooOOOOOOooooooooooooXXXXXX                                                                                                XXXXXXXXXXXXXXXXXXXXXXXX                                                                                                XXXXXXooooooooooooooooooooooooXXXXXX&&&&OO&&&&&&------&&&&&&zzzzzzzzzzzzzzzzzzzzzzzzzzzzzzzzzzzzzzzzzzzzzzzzzzzzzzzzzzzzzzzzzzzzzzzzzzzz",
"zzzzzzzzzzzzzzzzzzzzzzzzzzzzzzzzzzzzzzzzzzzzzzzzzzzzzzzzzz%%%%%%&&&&&&&&&&&&%%%%%%;;;;;;;;;;;;eeeeeweeeeeeeee;;;;;;;;;%%%%%%XXXXXXooooooOOOOOOooooooooooooXXXXXX                                                                                                XXXXXXXXXXXXXXXXXXXXXXXX                                                                                                XXXXXXooooooooooooooooooooooooXXXXXX&&&&OO&&&&&&------&&&&&&zzzzzzzzzzzzzzzzzzzzzzzzzzzzzzzzzzzzzzzzzzzzzzzzzzzzzzzzzzzzzzzzzzzzzzzzzzzz",
"zzzzzzzzzzzzzzzzzzzzzzzzzzzzzzzzzzzzzzzzzzzzzzzzzzzzzzzzzz%%%%%%&&&&&&&&&&&&---%%%;;;;;;;;;;;;wweewwweeeww;;;;ee;;;;;;%%%%%%XXXXXXooooooOOOOOOoooooooooo++XXXXXX                                                                                                XXXXXXXXXXXXXXXXXXXXXXXX                                                                                                XXXXXXooooooooooooooooooooooooXXXXXXOOO&OO&&&&&&------&&&&&&zzzzzzzzzzzzzzzzzzzzzzzzzzzzzzzzzzzzzzzzzzzzzzzzzzzzzzzzzzzzzzzzzzzzzzzzzzzz",
"zzzzzzzzzzzzzzzzzzzzzzzzzzzzzzzzzzzzzzzzzzzzzzzzzzzzzzzzzz%%%%%%&&&&&&&&&&&&---%%%;;;;;;;;;;;;wweewwwweeww;;;;ee;;;;;;%%%%%%XXXXXXooooooOOOOOOoooooooooo++XXXXXX                                                                                                XXXXXXXXXXXXXXXXXXXXXXXX                                                                                                XXXXXXooooooooooooooooooooooooXXXXXXOOOOOO&&&&&&------&&&&&&zzzzzzzzzzzzzzzzzzzzzzzzzzzzzzzzzzzzzzzzzzzzzzzzzzzzzzzzzzzzzzzzzzzzzzzzzzzz",
"zzzzzzzzzzzzzzzzzzzzzzzzzzzzzzzzzzzzzzzzzzzzzzzzzzzzzzzzzz%%%%%%&&&&&&&&&&&&--%%%%--;;;;;;;;;;wweeeweeeewwee;eee;;;;;;%%-%--XXXXXXooooooOOOOOOoooooooooo++XXXXXX                                                                                                XXXXXXXXXXXXXXXXXXXXXXXX                                                                                                XXXXXXooooooooooooooooooooooooXXXXXXOOOOOO&&&&&&------&&&&&&zzzzzzzzzzzzzzzzzzzzzzzzzzzzzzzzzzzzzzzzzzzzzzzzzzzzzzzzzzzzzzzzzzzzzzzzzzzz",
"zzzzzzzzzzzzzzzzzzzzzzzzzzzzzzzzzzzzzzzzzzzzzzzzzzzzzzzzzz%%%%%%&&&&&&&&&&&&-%%%%%--;;;;;;;;;;wweweweeeewwee;;ee-;;;;-%%----XXXXXXooooooOOOOOOoooooooooo++XXXXXX                                                                                                XXXXXXXXXXXXXXXXXXXXXXXX                                                                                                XXXXXXooooooooooooooooooooooooXXXXXXOOOOOO&&&&&&------&&&&&&zzzzzzzzzzzzzzzzzzzzzzzzzzzzzzzzzzzzzzzzzzzzzzzzzzzzzzzzzzzzzzzzzzzzzzzzzzzz",
"zzzzzzzzzzzzzzzzzzzzzzzzzzzzzzzzzzzzzzzzzzzzzzzzzzzzzzzzzz;-;;;;;;;;;;;;;;;;ee;;;;eeeeeewwwwwwwwwwww;;;;;;;;;;;;;;;;;;XXXXXX......oooooooooooooooooo..................................................................................................................................................................................................................@@@@@@......      ............oooooooooooo............OOOOOOOOOOOOOOOOOO&&&&&&&&&&&&zzzzzzzzzzzzzzzzzzzzzzzzzzzzzzzzzzzzzzzzzzzzzzzzzzzzzzzzzzzzzzzzzzzzzz",
"zzzzzzzzzzzzzzzzzzzzzzzzzzzzzzzzzzzzzzzzzzzzzzzzzzzzzzzzzz-;;;;;;;;;;;;;;;;;ee;;;;eeeeeewwwwwwwwewww;;;;;;;;;;;;;;;;;;XXXXXX......oooooooooooooooooo..................................................................................................................................................................................................................@@@@@@......      ............oooooooooooo............OOOOOOOOOOOOOOOOOO&&&&&&&&&&&&zzzzzzzzzzzzzzzzzzzzzzzzzzzzzzzzzzzzzzzzzzzzzzzzzzzzzzzzzzzzzzzzzzzzzz",
"zzzzzzzzzzzzzzzzzzzzzzzzzzzzzzzzzzzzzzzzzzzzzzzzzzzzzzzzzz;;;;;;;;;;;;;;;;;;ee;;eeeewwwwrrwwwweeeeww;;;;;;;;;;;;;;;;--XXXXXX......oooooooooooooooooo..................................................................................................................................................................................................................@@@@@@......      ............oooooooooooo............OOOOOOOOOOOOOOOOOO&&&&&&&&&&&&zzzzzzzzzzzzzzzzzzzzzzzzzzzzzzzzzzzzzzzzzzzzzzzzzzzzzzzzzzzzzzzzzzzzzz",
"zzzzzzzzzzzzzzzzzzzzzzzzzzzzzzzzzzzzzzzzzzzzzzzzzzzzzzzzzz;;;;;;;;;;;;;;;;;;ee;;e;eewwwwrrrwwwweeeww;;;;;;;;;;;;;;;;-;XXXXXX......oooooooooooooooooo..................................................................................................................................................................................................................@@@@@@......      ............oooooooooooo............OOOOOOOOOOOOOOOOOO&&&&&&&&&&&&zzzzzzzzzzzzzzzzzzzzzzzzzzzzzzzzzzzzzzzzzzzzzzzzzzzzzzzzzzzzzzzzzzzzzz",
"zzzzzzzzzzzzzzzzzzzzzzzzzzzzzzzzzzzzzzzzzzzzzzzzzzzzzzzzzz;;;;;;;;;;;;;;;;;;e;;;eewwwweewwwrrreeeeee;;;;;;;;;;;;---;;;XXXXXX......++oooooooooooooooo..................................................................................................................................................................................................................@@@@@@......      ............++++++++oooo............OOOOOOOOOOOOOOOOOO&&&&&&&&&&&&zzzzzzzzzzzzzzzzzzzzzzzzzzzzzzzzzzzzzzzzzzzzzzzzzzzzzzzzzzzzzzzzzzzzzz",
"zzzzzzzzzzzzzzzzzzzzzzzzzzzzzzzzzzzzzzzzzzzzzzzzzzzzzzzzzz;;;;;;;;;;;;;;;;;;e;;;;;ewwweewwwrrreeeeee;;;;;;;;;;;;--;;;;XXXXXX......++oooooooooooooooo..................................................................................................................................................................................................................@@@@@@......      ............++++++++oooo............OOOOOOOOOOOOOOOOOO&&&&&&&&&&&&zzzzzzzzzzzzzzzzzzzzzzzzzzzzzzzzzzzzzzzzzzzzzzzzzzzzzzzzzzzzzzzzzzzzzz",
"zzzzzzzzzzzzzzzzzzzzzzzzzzzzzzzzzzzzzzzzzzzzzzzzzzzz------;;;;;;wweeewwwwwrrrrrrrrrrrrrrwwwwwwwwwwee;;;;;;------&&&&&&@@@@@@oooo++++oooooooooo......@@@@@@@@@@@@..................................................................................................................$$$$$$............      ..............................................................................@@@@@@@@@@@@............XXXXXX......@@@@@@oooooooooooooooooo&&OOOOzzzzzzzzzzzzzzzzzzzzzzzzzzzzzzzzzzzzzzzzzzzzzzzzzzzzzzzzzzzzzzzzzzzzzz",
"zzzzzzzzzzzzzzzzzzzzzzzzzzzzzzzzzzzzzzzzzzzzzzzzzzzz------;;;;;;wwweeewwwwrrrrrrrrrrrrrrwwwwwwwwwwww;;;;;;------&&&&&&@@@@@@oooo++++oooooooooo......@@@@@@@@@@@@..................................................................................................................$$$$$$............      ..............................................................................@@@@@@@@@@@@............XXXXXX......@@@@@@ooooooooooooooooooO&OOOOzzzzzzzzzzzzzzzzzzzzzzzzzzzzzzzzzzzzzzzzzzzzzzzzzzzzzzzzzzzzzzzzzzzzzz",
"zzzzzzzzzzzzzzzzzzzzzzzzzzzzzzzzzzzzzzzzzzzzzzzzzzzz------;;;;;;eeeewwwrwwrwrrrrrrrrrrrrrrrwwwwwwwee;;;;;;------&&&&&&@@@@@@oooo++oooooooooooo......@@@@@@@@@@@@..................................................................................................................$$$$$$............      ..............................................................................@@@@@@@@@@@@............XXXXXX......@@@@@@oooooooooooooooooo&&OOOOzzzzzzzzzzzzzzzzzzzzzzzzzzzzzzzzzzzzzzzzzzzzzzzzzzzzzzzzzzzzzzzzzzzzzz",
"zzzzzzzzzzzzzzzzzzzzzzzzzzzzzzzzzzzzzzzzzzzzzzzzzzzz------;;;;;;eeeeewwwwwwwrrrrrrrrrrrrrrrwwwwwwwee;;;;;;------&&&&&&@@@@@@ooooo+oooooooooooo......@@@@@@@@@@@@..................................................................................................................$$$$$$............      ..............................................................................@@@@@@@@@@@@............XXXXXX......@@@@@@oooooooooooooooooo&&OOOOzzzzzzzzzzzzzzzzzzzzzzzzzzzzzzzzzzzzzzzzzzzzzzzzzzzzzzzzzzzzzzzzzzzzzz",
"zzzzzzzzzzzzzzzzzzzzzzzzzzzzzzzzzzzzzzzzzzzzzzzzzzzz------;;;;;;eewwewwwrrwwrrrrrrrrrrrrwrwwwwwwweee-;-;;;------&&&&&&@@@@@@oooooooooooooooooo......@@@@@@@@@@@@..................................................................................................................$$$$$$............      ..............................................................................@@@@@@@@@@@@............XXXXXX......@@@@@@oooooooooooooooooo&&&OOOzzzzzzzzzzzzzzzzzzzzzzzzzzzzzzzzzzzzzzzzzzzzzzzzzzzzzzzzzzzzzzzzzzzzzz",
"zzzzzzzzzzzzzzzzzzzzzzzzzzzzzzzzzzzzzzzzzzzzzzzzzzzz------;;;;;;eewwwwwwwrrwrrrrrrrrrrrrwwwwwwwweeee;;;;;;------&&&&&&@@@@@@oooooooooooooooooo......@@@@@@@@@@@@..................................................................................................................$$$$$$............      ..............................................................................@@@@@@@@@@@@............XXXXXX......@@@@@@oooooooooooooooooo&&&OOOzzzzzzzzzzzzzzzzzzzzzzzzzzzzzzzzzzzzzzzzzzzzzzzzzzzzzzzzzzzzzzzzzzzzzz",
"zzzzzzzzzzzzzzzzzzzzzzzzzzzzzzzzzzzzzzzzzzzzzz------;;;;;;wwwweerrrrrrttttttaaaaaaaaaaaawwwrwwe;ee;;------%%%%%%OOOOOOXXXXXXooo+oooooooo......@@@@@@................................................................................................................................................................................................................................................@@@@@@............      XXXXXX$$$$$$oooooooooooooooooozzzzzzzzzzzzzzzzzzzzzzzzzzzzzzzzzzzzzzzzzzzzzzzzzzzzzzzzzzzzzzzzzzzzzz",
"zzzzzzzzzzzzzzzzzzzzzzzzzzzzzzzzzzzzzzzzzzzzzz------;;;;;;wwwweerrrrrrttttttaaaaaaaaaaaarrwwwweeeee;------%%%%%%OOOOOOXXXXXXooo+oooooooo......@@@@@@................................................................................................................................................................................................................................................@@@@@@............      XXXXXX$$$$$$oooooooooooooooooozzzzzzzzzzzzzzzzzzzzzzzzzzzzzzzzzzzzzzzzzzzzzzzzzzzzzzzzzzzzzzzzzzzzzz",
"zzzzzzzzzzzzzzzzzzzzzzzzzzzzzzzzzzzzzzzzzzzzzz------;;;;;;wweeeerrrrrrttttttaaaaaaaaaaaawwwwww;eee;;------%%%%%%OOOOOOXXXXXXoooooooooooo......@@@@@@................................................................................................................................................................................................................................................@@@@@@............      XXXXXX$$$$$$oooooooooooooooooozzzzzzzzzzzzzzzzzzzzzzzzzzzzzzzzzzzzzzzzzzzzzzzzzzzzzzzzzzzzzzzzzzzzzz",
"zzzzzzzzzzzzzzzzzzzzzzzzzzzzzzzzzzzzzzzzzzzzzz------;;;;;;wweeeerrrrrrttttttaaaaaaaaaaaawwwwww;eee;;------%%%%%%OOOOOOXXXXXXoooooooooooo......@@@@@@................................................................................................................................................................................................................................................@@@@@@............      XXXXXX$$$$$$oooooooooooooooooozzzzzzzzzzzzzzzzzzzzzzzzzzzzzzzzzzzzzzzzzzzzzzzzzzzzzzzzzzzzzzzzzzzzzz",
"zzzzzzzzzzzzzzzzzzzzzzzzzzzzzzzzzzzzzzzzzzzzzz------;;;;;;eeewwwrrrrrrtttttaaaaaaaaaaaaawwwwww;;ee;;------%%%%%%OOOOOOXXXXXXoooooooo++oo......@@@@@@................................................................................................................................................................................................................................................@@@@@@............      XXXXXX$$$$$$oooooooooooooooooozzzzzzzzzzzzzzzzzzzzzzzzzzzzzzzzzzzzzzzzzzzzzzzzzzzzzzzzzzzzzzzzzzzzzz",
"zzzzzzzzzzzzzzzzzzzzzzzzzzzzzzzzzzzzzzzzzzzzzz------;;;;;;eeeewwrrrrrrttttttaaaaaaaaaaaawwwwww;;ee;;------%%%%%%OOOOOOXXXXXXoooooooo++oo......@@@@@@................................................................................................................................................................................................................................................@@@@@@............      XXXXXX$$$$$$oooooooooooooooooozzzzzzzzzzzzzzzzzzzzzzzzzzzzzzzzzzzzzzzzzzzzzzzzzzzzzzzzzzzzzzzzzzzzzz",
"zzzzzzzzzzzzzzzzzzzzzzzzzzzzzzzzzzzzzzzzzzzzzz------%%%%%%------;;;;;;;;;;;;;;;;;;;;;;;;;;;;;;------%%%%%%&&&&&&......        XX  $$$$$$@@@@@@............................................................................................................................................................................................................................................................@@@@@@............      ......XXXXXXoooooooooooozzzzzzzzzzzzzzzzzzzzzzzzzzzzzzzzzzzzzzzzzzzzzzzzzzzzzzzzzzzzzzzzzzzzzz",
"zzzzzzzzzzzzzzzzzzzzzzzzzzzzzzzzzzzzzzzzzzzzzz------%%%%%%------;;;;;;ee;;;;;;;;;;;;;;;;;;;;;;------%%%%%%&&&&&&......        XX  $$$$$$@@@@@@............................................................................................................................................................................................................................................................@@@@@@............      ......XXXXXXoooooooooooozzzzzzzzzzzzzzzzzzzzzzzzzzzzzzzzzzzzzzzzzzzzzzzzzzzzzzzzzzzzzzzzzzzzzz",
"zzzzzzzzzzzzzzzzzzzzzzzzzzzzzzzzzzzzzzzzzzzzzz------%%%%%%------;;;;;;eeeeee;;;;;;;;;;;;;;;;;;------%%%%%%&&&&&&......        XX  $$$$$$@@@@@@............................................................................................................................................................................................................................................................@@@@@@............      ......XXXXXXoooooooooooozzzzzzzzzzzzzzzzzzzzzzzzzzzzzzzzzzzzzzzzzzzzzzzzzzzzzzzzzzzzzzzzzzzzzz",
"zzzzzzzzzzzzzzzzzzzzzzzzzzzzzzzzzzzzzzzzzzzzzz------%%%%%%------;;;;;;eeeeee;;;;;;;;;;;;;;;;;;------%%%%%%&&&&&&......        XX  $$$$$$@@@@@@............................................................................................................................................................................................................................................................@@@@@@............      ......XXXXXXoooooooooooozzzzzzzzzzzzzzzzzzzzzzzzzzzzzzzzzzzzzzzzzzzzzzzzzzzzzzzzzzzzzzzzzzzzzz",
"zzzzzzzzzzzzzzzzzzzzzzzzzzzzzzzzzzzzzzzzzzzzzz------%%-%-%------;;;;;;eeee;e;;;;;;;;;;;;;;;;;;------%%%%%%&&&&&&......         X  $$$$$$@@@@@@............................................................................................................................................................................................................................................................@@@@@@............      ......XXXXXXoooooooooooozzzzzzzzzzzzzzzzzzzzzzzzzzzzzzzzzzzzzzzzzzzzzzzzzzzzzzzzzzzzzzzzzzzzzz",
"zzzzzzzzzzzzzzzzzzzzzzzzzzzzzzzzzzzzzzzzzzzzzz------%%---%------;;;;;;ee;;;;;;;;;;;;;;;;;;;;;;------%%%%%%&&&&&&......         X  $$$$$$@@@@@@............................................................................................................................................................................................................................................................@@@@@@............      ......XXXXXXoooooooooooozzzzzzzzzzzzzzzzzzzzzzzzzzzzzzzzzzzzzzzzzzzzzzzzzzzzzzzzzzzzzzzzzzzzzz",
"zzzzzzzzzzzzzzzzzzzzzzzzzzzzzzzzzzzzzzzzzzzzzz------;;;;;;;;;;;;;;;eee;;;;;;;;--;;------%%%%%%OOOOOOOOOOOOOOOOOO......XXXXXXXXXXXX$$$$$$$$$$$$............................................................................................................................................................................................................................................................$$$$$$@@@@@@............XXXXXXXXXXXXoooooozzzzzzzzzzzzzzzzzzzzzzzzzzzzzzzzzzzzzzzzzzzzzzzzzzzzzzzzzzzzzzzzzzzzzzzzzzzz",
"zzzzzzzzzzzzzzzzzzzzzzzzzzzzzzzzzzzzzzzzzzzzzz------;;;;;;;;;;e;;;;eee;;;;;;;;--;;------%%%%%%OOOOOOOOOOOOOOOOOO......XXXXXXXXXXXX$$$$$$$$$$$$............................................................................................................................................................................................................................................................$$$$$$@@@@@@............XXXXXXXXXXXXoooooozzzzzzzzzzzzzzzzzzzzzzzzzzzzzzzzzzzzzzzzzzzzzzzzzzzzzzzzzzzzzzzzzzzzzzzzzzzz",
"zzzzzzzzzzzzzzzzzzzzzzzzzzzzzzzzzzzzzzzzzzzzzz------;;;;;;e;eeee;;;;ee;;;;;;;;;;;;------%%%%%%OOOOOOOOOOOOOOOOOO......XXXXXXXXXXXX$$$$$$$$$$$$............................................................................................................................................................................................................................................................$$$$$$@@@@@@............XXXXXXXXXXXXoooooozzzzzzzzzzzzzzzzzzzzzzzzzzzzzzzzzzzzzzzzzzzzzzzzzzzzzzzzzzzzzzzzzzzzzzzzzzzz",
"zzzzzzzzzzzzzzzzzzzzzzzzzzzzzzzzzzzzzzzzzzzzzz------;;;;;;eeeeee;;;;ee;;;;;;;;;;;;------%%%%%%OOOOOOOOOOOOOOOOOO......XXXXXXXXXXXX$$$$$$$$$$$$............................................................................................................................................................................................................................................................$$$$$$@@@@@@............XXXXXXXXXXXXoooooozzzzzzzzzzzzzzzzzzzzzzzzzzzzzzzzzzzzzzzzzzzzzzzzzzzzzzzzzzzzzzzzzzzzzzzzzzzz",
"zzzzzzzzzzzzzzzzzzzzzzzzzzzzzzzzzzzzzzzzzzzzzz------;;;;;;;;;;;e;;;eee;;;;;;;-;;;;------%%%%%%OO&&&&OOOOOOOOOOOO......XXXXXXXXXXXX$$$$$$$$$$$$............................................................................................................................................................................................................................................................$$$$$$@@@@@@............XXXXXXXXXXXXoooooozzzzzzzzzzzzzzzzzzzzzzzzzzzzzzzzzzzzzzzzzzzzzzzzzzzzzzzzzzzzzzzzzzzzzzzzzzzz",
"zzzzzzzzzzzzzzzzzzzzzzzzzzzzzzzzzzzzzzzzzzzzzz------;;;;;;;;;;ee;;;;ee;;;;;;;;;;;;------%%%%%%OO&&&&OOOOOOOOOOOO......XXXXXXXXXXXX$$$$$$$$$$$$............................................................................................................................................................................................................................................................$$$$$$@@@@@@............XXXXXXXXXXXXoooooozzzzzzzzzzzzzzzzzzzzzzzzzzzzzzzzzzzzzzzzzzzzzzzzzzzzzzzzzzzzzzzzzzzzzzzzzzzz",
"zzzzzzzzzzzzzzzzzzzzzzzzzzzzzzzzzzzzzzzz------;;;;;;eeeewwwwrrrrrrrrrrwwwweeeeeeee;;;;;;------&&&&&&OO&&OOOOOOOO......XXXXXX..........................................................................................................................................................................................................................................................................................@@@@@@............XXXXXXoooooozzzzzzzzzzzzzzzzzzzzzzzzzzzzzzzzzzzzzzzzzzzzzzzzzzzzzzzzzzzzzzzzzzzzzzzzzzzz",
"zzzzzzzzzzzzzzzzzzzzzzzzzzzzzzzzzzzzzzzz------;;;;;;eeeewwwwrrrrrrrrrrwwwwweeeeeee;;;;;;------&&&&&&OOO&OOOOOOOO......XXXXXX..........................................................................................................................................................................................................................................................................................@@@@@@............XXXXXXoooooozzzzzzzzzzzzzzzzzzzzzzzzzzzzzzzzzzzzzzzzzzzzzzzzzzzzzzzzzzzzzzzzzzzzzzzzzzzz",
"zzzzzzzzzzzzzzzzzzzzzzzzzzzzzzzzzzzzzzzz------;;;;;;wweewwwwrwwwrrrrrreewwee;;ee;;;;;;;;------&&&&&&OO&&OOOOOOOO......XXXXXX..........................................................................................................................................................................................................................................................................................@@@@@@............XXXXXXoooooozzzzzzzzzzzzzzzzzzzzzzzzzzzzzzzzzzzzzzzzzzzzzzzzzzzzzzzzzzzzzzzzzzzzzzzzzzzz",
"zzzzzzzzzzzzzzzzzzzzzzzzzzzzzzzzzzzzzzzz------;;;;;;wweewwwrrwwwrrrrrreewwee;;ee;;;;;;;;------&&&&&&OO&&OO+OOOOO......XXXXXX..........................................................................................................................................................................................................................................................................................@@@@@@............XXXXXXoooooozzzzzzzzzzzzzzzzzzzzzzzzzzzzzzzzzzzzzzzzzzzzzzzzzzzzzzzzzzzzzzzzzzzzzzzzzzzz",
"zzzzzzzzzzzzzzzzzzzzzzzzzzzzzzzzzzzzzzzz------;;;;;;wwwwwwrrwwwwrrrrrreeeeee;;;;;;;;;;;;------&&&&&&OOO&OOOOOOOO......XXXXXX..........................................................................................................................................................................................................................................................................................@@@@@@............XXXXXXoooooozzzzzzzzzzzzzzzzzzzzzzzzzzzzzzzzzzzzzzzzzzzzzzzzzzzzzzzzzzzzzzzzzzzzzzzzzzzz",
"zzzzzzzzzzzzzzzzzzzzzzzzzzzzzzzzzzzzzzzz------;;;;;;wwwwwwwwwwwwrrrrrreeeeee;;;;e;;;;;;;------&&&&&&OO&&OOOOOOOO......XXXXXX..........................................................................................................................................................................................................................................................................................@@@@@@............XXXXXXoooooozzzzzzzzzzzzzzzzzzzzzzzzzzzzzzzzzzzzzzzzzzzzzzzzzzzzzzzzzzzzzzzzzzzzzzzzzzzz",
"zzzzzzzzzzzzzzzzzzzzzzzzzzzzzzzzzz------;;;;;;ee;;ee;;;;;;;;;;;;;;;;;;--;;;;%%%%--%%%%%%&&&&&&&&&&&&&&&&OOOOOOOOXXXXX ......................................................XXXXXX..............................................................................XXXXXX............XXXXXX..............................................................................XXXXXX......................................................XXXXXXXXXXXXoooooozzzzzzzzzzzzzzzzzzzzzzzzzzzzzzzzzzzzzzzzzzzzzzzzzzzzzzzzzzzzzzzzzzzzzzzzzzzz",
"zzzzzzzzzzzzzzzzzzzzzzzzzzzzzzzzzz------;;;;;;ee;;ee;;;;;;;;;;;;--;;;;--;;;;%%%%%-%-%%%%&&&&&&&&&&&&&&&OOOOOOOOOXXXX  ......................................................XXXXXX..............................................................................XXXXXX............XXXXXX..............................................................................XXXXXX......................................................XXXXXXXXXXXXoooooozzzzzzzzzzzzzzzzzzzzzzzzzzzzzzzzzzzzzzzzzzzzzzzzzzzzzzzzzzzzzzzzzzzzzzzzzzzz",
"zzzzzzzzzzzzzzzzzzzzzzzzzzzzzzzzzz------;;;;;;ee;;ee;;;;;;;;;;;;;;;;;;;-;;;;%%%%%%%-%%%%&&&&&&&&&&&&&&OOO&OOOOOOXXXX  ......................................................XXXXXX..............................................................................XXXXXX............XXXXXX..............................................................................XXXXXX......................................................XXXXXXXXXXXXoooooozzzzzzzzzzzzzzzzzzzzzzzzzzzzzzzzzzzzzzzzzzzzzzzzzzzzzzzzzzzzzzzzzzzzzzzzzzzz",
"zzzzzzzzzzzzzzzzzzzzzzzzzzzzzzzzzz------;;;;;;ee;;ee;;;;;;;;;;;;;;;;;;;-;;;;%%%%%%%%%%%%&&&&&&&&&&&&OOOOOOOOOOOOXXXX  ......................................................XXXXXX..............................................................................XXXXXX............XXXXXX..............................................................................XXXXXX......................................................XXXXXXXXXXXXoooooozzzzzzzzzzzzzzzzzzzzzzzzzzzzzzzzzzzzzzzzzzzzzzzzzzzzzzzzzzzzzzzzzzzzzzzzzzzz",
"zzzzzzzzzzzzzzzzzzzzzzzzzzzzzzzzzz------;;;;;;;;;;;;;;;;;;;;---;;;;;;;;;;;;-%%%%%%%%%%%%&&&&&&&&&&&&OOOOOOOOOOOOXXXXXX......................................................XXXXXX..............................................................................XXXXXX............XXXXXX..............................................................................XXXXXX......................................................XXX   XXXXXXoooooozzzzzzzzzzzzzzzzzzzzzzzzzzzzzzzzzzzzzzzzzzzzzzzzzzzzzzzzzzzzzzzzzzzzzzzzzzzz",
"zzzzzzzzzzzzzzzzzzzzzzzzzzzzzzzzzz------;;;;;;;e;;ee;;;;;;;;--;;;;;;;;;;;;-;%%%%%%%%%%%%&&&&&&&&&&&&OOOOOOOOOOOOXXXXXX......................................................XXXXXX..............................................................................XXXXXX............XXXXXX..............................................................................XXXXXX......................................................XXXX  XXXXXXoooooozzzzzzzzzzzzzzzzzzzzzzzzzzzzzzzzzzzzzzzzzzzzzzzzzzzzzzzzzzzzzzzzzzzzzzzzzzzz",
"zzzzzzzzzzzzzzzzzzzzzzzzzzzz------;;;;;;;;;;;;------%%%%%%&&&&&&&&&&&&&&&&&&&&&&&&&&&&&&OOOOOOOOOOOO++OO++XXXXXX      XXXXXX................................................................................................................................................................................................................................................................................................XXXXXXXX    ......zzzzzzzzzzzzzzzzzzzzzzzzzzzzzzzzzzzzzzzzzzzzzzzzzzzzzzzzzzzzzzzzzzzzzzzzzzzzzzzzzz",
"zzzzzzzzzzzzzzzzzzzzzzzzzzzz------;;;;;;;;;;;;------%%%%%%&&&&&&&&&&&&&&&&&&&&&&&&&&&&&&OOOOOOOOOOOOOOOO++XXXXXX      XXXXXX................................................................................................................................................................................................................................................................................................XXXXXX      ......zzzzzzzzzzzzzzzzzzzzzzzzzzzzzzzzzzzzzzzzzzzzzzzzzzzzzzzzzzzzzzzzzzzzzzzzzzzzzzzzzz",
"zzzzzzzzzzzzzzzzzzzzzzzzzzzz------;;;;;;;;;;;;------%%%%%%&&&&&&&&&&&&&&&&&&&&&&&&&&&&&&OO&&OOOOOOOOOOOOOOXXXXXX    XXXXXXXX................................................................................................................................................................................................................................................................................................XXXXXXX   XX......zzzzzzzzzzzzzzzzzzzzzzzzzzzzzzzzzzzzzzzzzzzzzzzzzzzzzzzzzzzzzzzzzzzzzzzzzzzzzzzzzz",
"zzzzzzzzzzzzzzzzzzzzzzzzzzzz------;;;;;;;;;;;;------%%%%%%&&&&&&&&&&&&&&&&&&&&&&&&&&&&&&OO&&OOOOOOOOOOOOOOXXXXXX    XXXXXXXX................................................................................................................................................................................................................................................................................................XXXXXX    XX......zzzzzzzzzzzzzzzzzzzzzzzzzzzzzzzzzzzzzzzzzzzzzzzzzzzzzzzzzzzzzzzzzzzzzzzzzzzzzzzzzz",
"zzzzzzzzzzzzzzzzzzzzzzzzzzzz------;;;;;;;;;;;;------%%%%%%&&&&&&&&&&&&&&&&&&&&&&&&&&&&&&O&&&OOOOOOOOOOOOOOXXXXXX      XXXX X................................................................................................................................................................................................................................................................................................XXXXXX      ......zzzzzzzzzzzzzzzzzzzzzzzzzzzzzzzzzzzzzzzzzzzzzzzzzzzzzzzzzzzzzzzzzzzzzzzzzzzzzzzzzz",
"zzzzzzzzzzzzzzzzzzzzzzzzzzzz------;;;;;;;;;;;;------%%%%%%&&&&&&&&&&&&&&&&&&&&&&&&&&&&&&O&&OOOOOOOOOOOOOOOXXXXXX      XXXXX ................................................................................................................................................................................................................................................................................................XXXXXX      ......zzzzzzzzzzzzzzzzzzzzzzzzzzzzzzzzzzzzzzzzzzzzzzzzzzzzzzzzzzzzzzzzzzzzzzzzzzzzzzzzzz",
"zzzzzzzzzzzzzzzzzzzzzzzzzzzz------------%%%%%%------;;;;;;;;;;;;------%%%%%%&&&&&&&&&&&&&&&&&&OOOOOOO+++OOXXXXXX      XXXXXX................................................................................................................................................@@@@@@.......................................................................................................................................... XXXXX      XXXXXXzzzzzzzzzzzzzzzzzzzzzzzzzzzzzzzzzzzzzzzzzzzzzzzzzzzzzzzzzzzzzzzzzzzzzzzzzzzzzzzzzz",
"zzzzzzzzzzzzzzzzzzzzzzzzzzzz------------%%%%%%------;;;;;;;;;;;;------%%%%%%&&&&&&&&&&&&&&&&&&OOOOOOO+++OOXXXXXX      XXXXXX................................................................................................................................................@@@@@@..........................................................................................................................................X XXXX      XXXXXXzzzzzzzzzzzzzzzzzzzzzzzzzzzzzzzzzzzzzzzzzzzzzzzzzzzzzzzzzzzzzzzzzzzzzzzzzzzzzzzzzz",
"zzzzzzzzzzzzzzzzzzzzzzzzzzzz------------%%%%%%------;;;;;;;;;;;;------%%%%%%&&&&&&&&&&&&&&&&&&OOOO&&OO++OOXXXXXXXX    XXXXXX................................................................................................................................................@@@@@@..........................................................................................................................................XXXXXXXX    XXXXXXzzzzzzzzzzzzzzzzzzzzzzzzzzzzzzzzzzzzzzzzzzzzzzzzzzzzzzzzzzzzzzzzzzzzzzzzzzzzzzzzzz",
"zzzzzzzzzzzzzzzzzzzzzzzzzzzz------------%%%%%%------;;;;;;----;;------%%%%%%&&&&&&&&&&&&&&&&&&OOOO&&OO+O+OXXXXXXXX   XXXXXXX................................................................................................................................................@@@@@@..........................................................................................................................................XXXXXXXX   XXXXXXXzzzzzzzzzzzzzzzzzzzzzzzzzzzzzzzzzzzzzzzzzzzzzzzzzzzzzzzzzzzzzzzzzzzzzzzzzzzzzzzzzz",
"zzzzzzzzzzzzzzzzzzzzzzzzzzzz--------------%%%%------;;;;;;;;;;;;------%%%%%%&&&&&&&&&&&&&&&&&&OOOOOO++++OOXXXXXXXXX   XXXXXX................................................................................................................................................@@@@@@..........................................................................................................................................XXXXXX    XXXXXXXXzzzzzzzzzzzzzzzzzzzzzzzzzzzzzzzzzzzzzzzzzzzzzzzzzzzzzzzzzzzzzzzzzzzzzzzzzzzzzzzzzz",
"zzzzzzzzzzzzzzzzzzzzzzzzzzzz-------------%%%%-------;;;;;;;;;;;;------%%%%%%&&&&&&&&&&&&&&&&&&OOOOOO+++OOOXXXXXXXX    XXXXXX................................................................................................................................................@@@@@@..........................................................................................................................................XXXXXX    XXXXXXXXzzzzzzzzzzzzzzzzzzzzzzzzzzzzzzzzzzzzzzzzzzzzzzzzzzzzzzzzzzzzzzzzzzzzzzzzzzzzzzzzzz",
"zzzzzzzzzzzzzzzzzzzzzzzzzzzz------------wweeeerrrrrrttttttrrrrrreeeeww;;;;;;;;;;;;%%%%%%%%%%%%%%%%%%&&&&&&    XX      XXXXXX....................................................................................................................................XXXXXX......@@@@@@XXXXXX....................................................................................................................................XXXXXX      XX    zzzzzzzzzzzzzzzzzzzzzzzzzzzzzzzzzzzzzzzzzzzzzzzzzzzzzzzzzzzzzzzzzzzzzzzzzzzzzzzzzz",
"zzzzzzzzzzzzzzzzzzzzzzzzzzzz------------wweeeerrrrrrttttttrrrrrreeeeww;;;;;;;;;;;;%%%%%%%%%%%%%%%%%%&&&&&&    XX      XXXXXX....................................................................................................................................XXXXXX......@@@@@@XXXXXX....................................................................................................................................XXXXXX      XX    zzzzzzzzzzzzzzzzzzzzzzzzzzzzzzzzzzzzzzzzzzzzzzzzzzzzzzzzzzzzzzzzzzzzzzzzzzzzzzzzzz",
"zzzzzzzzzzzzzzzzzzzzzzzzzzzz------------weeeeerrrrrrttttttrrrrrreewwee;;;;;;;;;;;;%%%%%%%%%%%%%%%%%%&&&&&&  XXXX      XXXXXX....................................................................................................................................XXXXXX......@@@@@@XXXXXX....................................................................................................................................XXXXXX            zzzzzzzzzzzzzzzzzzzzzzzzzzzzzzzzzzzzzzzzzzzzzzzzzzzzzzzzzzzzzzzzzzzzzzzzzzzzzzzzzz",
"zzzzzzzzzzzzzzzzzzzzzzzzzzzz------------eeeeeerrrrrrttttttrrrrrreewwee;;;;;;;;;;;;%%%%%%%%%%%%%%%%%%&&&&&&    XX      XXXXXX....................................................................................................................................XXXXXX......@@@@@@XXXXXX....................................................................................................................................XXXXXX            zzzzzzzzzzzzzzzzzzzzzzzzzzzzzzzzzzzzzzzzzzzzzzzzzzzzzzzzzzzzzzzzzzzzzzzzzzzzzzzzzz",
"zzzzzzzzzzzzzzzzzzzzzzzzzzzz------------eeeeeerrrrrrttttttrrrrrrewwwee;;;;;;;;;;;;%%%%%%%%%%%%%%%%%%&&&&&&            XXXXXX....................................................................................................................................XXXXXX......@@@@@@XXXXXX....................................................................................................................................XXXXXX            zzzzzzzzzzzzzzzzzzzzzzzzzzzzzzzzzzzzzzzzzzzzzzzzzzzzzzzzzzzzzzzzzzzzzzzzzzzzzzzzzz",
"zzzzzzzzzzzzzzzzzzzzzzzzzzzz------------eeeeeerrrrrrttttttrrrrrrwwwwee;;;;;;;;;;;;%%%%%%%%%%%%%%%%%%&&&&&&            XXXXXX....................................................................................................................................XXXXXX......@@@@@@XXXXXX....................................................................................................................................XXXXXX      X     zzzzzzzzzzzzzzzzzzzzzzzzzzzzzzzzzzzzzzzzzzzzzzzzzzzzzzzzzzzzzzzzzzzzzzzzzzzzzzzzzz",
"zzzzzzzzzzzzzzzzzzzzzz------;;;;;;rrrrrrttttttrrrrrrwweeww;;;;;;;;;;;;;;;;;;------%%%%%%&&&&&&&&&&&&OOOOOO            ......................................................................................................................................................@@@@@@................................................................................................................................................            zzzzzzzzzzzzzzzzzzzzzzzzzzzzzzzzzzzzzzzzzzzzzzzzzzzzzzzzzzzzzzzzzzzzzzzzzzzzzzzzzz",
"zzzzzzzzzzzzzzzzzzzzzz------;;;;;;rrrrrrttttttrrrrrrwweeww;;;;;;;;;-;;;;;;;;------%%%%%%&&&&&&&&&&&&OOOOOO            ......................................................................................................................................................@@@@@@................................................................................................................................................            zzzzzzzzzzzzzzzzzzzzzzzzzzzzzzzzzzzzzzzzzzzzzzzzzzzzzzzzzzzzzzzzzzzzzzzzzzzzzzzzzz",
"zzzzzzzzzzzzzzzzzzzzzz------;;;;;;rrrrrrttttttrrrrrrwweeww;;;;;;;;--;;;;;;;;------%%%%%%&&&&&&&&&&&&OOOOOO            ......................................................................................................................................................@@@@@@................................................................................................................................................            zzzzzzzzzzzzzzzzzzzzzzzzzzzzzzzzzzzzzzzzzzzzzzzzzzzzzzzzzzzzzzzzzzzzzzzzzzzzzzzzzz",
"zzzzzzzzzzzzzzzzzzzzzz------;;;;;;rrrrrrttttttrrrrrreeeeww;;;;;;;;--;;;;;;;;------%%%%%%&&&&&&&&&&&&OOOOOO            ......................................................................................................................................................@@@@@@................................................................................................................................................            zzzzzzzzzzzzzzzzzzzzzzzzzzzzzzzzzzzzzzzzzzzzzzzzzzzzzzzzzzzzzzzzzzzzzzzzzzzzzzzzzz",
"zzzzzzzzzzzzzzzzzzzzzz------;;;;;;rrrrrrttttttrrrrrreeeeww;;;;;;;;;-;;;;;-;-------%%%%%%&&&&&&&&&&&&OOOOOO            ......................................................................................................................................................@@@@@@................................................................................................................................................            zzzzzzzzzzzzzzzzzzzzzzzzzzzzzzzzzzzzzzzzzzzzzzzzzzzzzzzzzzzzzzzzzzzzzzzzzzzzzzzzzz",
"zzzzzzzzzzzzzzzzzzzzzz------;;;;;;rrrrrrttttaarrrrrreeeeww;;;;;;;;--;;;;;;;;------%%%%%%&&&&&&&&&&&&OOOOOO            ......................................................................................................................................................@@@@@@................................................................................................................................................            zzzzzzzzzzzzzzzzzzzzzzzzzzzzzzzzzzzzzzzzzzzzzzzzzzzzzzzzzzzzzzzzzzzzzzzzzzzzzzzzzz",
"zzzzzzzzzzzzzzzz------;;;;;;rrrrrrwwwwwweeeeww;;;;;;;;;;;;%%%%%%&&&&&&OOOOOOOOOOOOOOOO&O&&OOOOOOOOOO@@@@@@            ......................................................................................................................................................@@@@@@................................................................................................................................................    XX      @@@@@@zzzzzzzzzzzzzzzzzzzzzzzzzzzzzzzzzzzzzzzzzzzzzzzzzzzzzzzzzzzzzzzzzzzzzzzzzzzz",
"zzzzzzzzzzzzzzzz------;;;;;;rrrrrrwwwwwreeeeww;;;;;;;;;;;;%%%%%%&&&&&&OOOOOOOOOOOOOOOO&O&&OOOOOOOOOO@@@@@@            ......................................................................................................................................................@@@@@@................................................................................................................................................    XX      @@@@@@zzzzzzzzzzzzzzzzzzzzzzzzzzzzzzzzzzzzzzzzzzzzzzzzzzzzzzzzzzzzzzzzzzzzzzzzzzzz",
"zzzzzzzzzzzzzzzz------;;;;;;rrrrrrwwwwrrwwwwee;;;;;;;;;;;;%%%%%%&&&&&&OOO&&&OOOOOOOO&OOO&&OOO&OOOOOO@@@@@@            ......................................................................................................................................................@@@@@@................................................................................................................................................XX   X      @@@@@@zzzzzzzzzzzzzzzzzzzzzzzzzzzzzzzzzzzzzzzzzzzzzzzzzzzzzzzzzzzzzzzzzzzzzzzzzzzz",
"zzzzzzzzzzzzzzzz------;;;;;;rrrrrrwwwwrrwwwwee;;;;;;;;;;;;%%%%%%&&&&&&OOOO&&OOOOOOOO&OOOOOOO&&OOOOOO@@@@@@      XX    ......................................................................................................................................................@@@@@@................................................................................................................................................XX          @@@@@@zzzzzzzzzzzzzzzzzzzzzzzzzzzzzzzzzzzzzzzzzzzzzzzzzzzzzzzzzzzzzzzzzzzzzzzzzzzz",
"zzzzzzzzzzzzzzzz------;;;;;;rrrrrrrwwwwrwwewee;;;;;;;;;;;;%%%%%%&&&&&&OOOOOOOOOOOO&&&&OOOOOOOOOOOOOO@@@@@@      XXXXXX......................................................................................................................................................@@@@@@................................................................................................................................................            @@@@@@zzzzzzzzzzzzzzzzzzzzzzzzzzzzzzzzzzzzzzzzzzzzzzzzzzzzzzzzzzzzzzzzzzzzzzzzzzzz",
"zzzzzzzzzzzzzzzz------;;;;;;rrrrrrrwwwrreeeeee;;;;;;;;;;;;%%%%%%&&&&&&OOOOOOOOOOOO&&&&OOOOOOOOOOOOOO@@@@@@      XXXX X......................................................................................................................................................@@@@@@................................................................................................................................................            @@@@@@zzzzzzzzzzzzzzzzzzzzzzzzzzzzzzzzzzzzzzzzzzzzzzzzzzzzzzzzzzzzzzzzzzzzzzzzzzzz",
"zzzzzzzzzzzzzzzz------wewwwwwwwwww;;;;;;;;;;;;------%%%%%%&&&&&&&&&&&&-%%%%%------------------------$$$$$$            ......................................................................................................................................................@@@@@@................................................................................................................................................  X         $$$$$$zzzzzzzzzzzzzzzzzzzzzzzzzzzzzzzzzzzzzzzzzzzzzzzzzzzzzzzzzzzzzzzzzzzzzzzzzzzz",
"zzzzzzzzzzzzzzzz------wwewwwwwwwww;;;;;;;;;;;;------%%%%%%&&&&&&&&&&&&%%%%%%------------------------$$$$$$            ......................................................................................................................................................@@@@@@................................................................................................................................................  X         $$$$$$zzzzzzzzzzzzzzzzzzzzzzzzzzzzzzzzzzzzzzzzzzzzzzzzzzzzzzzzzzzzzzzzzzzzzzzzzzzz",
"zzzzzzzzzzzzzzzz------eeeewwrwwwww;;;;;;;;;;;;------%%%%%%&&&&&&&&&&&&%%%%%%------------------------$$$$$$            ......................................................................................................................................................@@@@@@................................................................................................................................................XXXX        $$$$$$zzzzzzzzzzzzzzzzzzzzzzzzzzzzzzzzzzzzzzzzzzzzzzzzzzzzzzzzzzzzzzzzzzzzzzzzzzzz",
"zzzzzzzzzzzzzzzz------eeeewwrwwwww;;;;;;;;;;;;------%%%%%%&&&&&&&&&&&&%%%%%%------------------------$$$$$$        XXX ......................................................................................................................................................@@@@@@................................................................................................................................................XXXX        $$$$$$zzzzzzzzzzzzzzzzzzzzzzzzzzzzzzzzzzzzzzzzzzzzzzzzzzzzzzzzzzzzzzzzzzzzzzzzzzzz",
"zzzzzzzzzzzzzzzz------eeeeewwwwrrr;;;;;;;;;;;;------%%%%%%&&&&&&&&&&&&%---%%------------------------$$$$$$            ......................................................................................................................................................@@@@@@................................................................................................................................................            $$$$$$zzzzzzzzzzzzzzzzzzzzzzzzzzzzzzzzzzzzzzzzzzzzzzzzzzzzzzzzzzzzzzzzzzzzzzzzzzzz",
"zzzzzzzzzzzzzzzz------eeeewwwwwwrw;;;;;;;;;;;;------%%%%%%&&&&&&&&&&&&%---%%------------------------$$$$$$            ......................................................................................................................................................@@@@@@................................................................................................................................................            $$$$$$zzzzzzzzzzzzzzzzzzzzzzzzzzzzzzzzzzzzzzzzzzzzzzzzzzzzzzzzzzzzzzzzzzzzzzzzzzzz",
"zzzzzzzzzzzzzzzz------eewwww;;;;;;------&&&&&&OO&&&&%%%%%%;;;;eeee;;;;;ee;;;eewwww;;;;ee;;;;;;;;;;;;XXXXXX      XXXXXX......................................................................................................................................................@@@@@@................................................................................................................................................XXXXXX      XXXXXXzzzzzzzzzzzzzzzzzzzzzzzzzzzzzzzzzzzzzzzzzzzzzzzzzzzzzzzzzzzzzzzzzzzzzzzzzzzz",
"zzzzzzzzzzzzzzzz------eewwww;;;;;;------&&&&&&OO&&&&%%%%%%;;eeeeee;;;;;ee;;;eeewee;;;;ee;;;;;;;;;;;;XXXXXX      XXX XX......................................................................................................................................................@@@@@@................................................................................................................................................XXXXXX      XXXXXXzzzzzzzzzzzzzzzzzzzzzzzzzzzzzzzzzzzzzzzzzzzzzzzzzzzzzzzzzzzzzzzzzzzzzzzzzzzz",
"zzzzzzzzzzzzzzzz------wweeew;;;;;;------&&&&&&OOOOO&%%%%%%;;;;eeee;;;;ee;;;;eeeeee;;e;;;;;;;;;;;;;-;XXXXXX      XX  XX......................................................................................................................................................@@@@@@................................................................................................................................................XXXXXX      XXXXXXzzzzzzzzzzzzzzzzzzzzzzzzzzzzzzzzzzzzzzzzzzzzzzzzzzzzzzzzzzzzzzzzzzzzzzzzzzzz",
"zzzzzzzzzzzzzzzz------wweeee;;;;;;------&&&&&&OOOOO&%%%-%%;;;;eeee;;;;ee;;;;eeeeew;;e;;;;;;;;;;;;;;;XXXXXX      XX  XX......................................................................................................................................................@@@@@@................................................................................................................................................XXXXXX      XXXXXXzzzzzzzzzzzzzzzzzzzzzzzzzzzzzzzzzzzzzzzzzzzzzzzzzzzzzzzzzzzzzzzzzzzzzzzzzzzz",
"zzzzzzzzzzzzzzzz------wweeee;;;;;;------&&&&&&&OOOOO%%--%-e;;;;ee;e;;eeeee;;wweewweeee;;;;;;;;;;;;;-XXXXXX      XXXXXX......................................................................................................................................................@@@@@@................................................................................................................................................XXXX X      XXXXXXzzzzzzzzzzzzzzzzzzzzzzzzzzzzzzzzzzzzzzzzzzzzzzzzzzzzzzzzzzzzzzzzzzzzzzzzzzzz",
"zzzzzzzzzzzzzzzz------wweeee;;;;;;------&&&&&&OOOOOO%%----ee;;eeee;;;eeeee;;wwwwwweeee;;;;;;;;;;;;;;XXXXXX      XXXXXX......................................................................................................................................................@@@@@@................................................................................................................................................XXXX X      XXXXXXzzzzzzzzzzzzzzzzzzzzzzzzzzzzzzzzzzzzzzzzzzzzzzzzzzzzzzzzzzzzzzzzzzzzzzzzzzzz",
"zzzzzzzzzzzzzzzz;;;;;;;;;;;;------OOOO&&%%%%%%;;eee;wwrrwwrrwwwwttttttaaaaaaaaaaaaaaaaaarrrrrr;;----X XXXX        XXXX......................................................................................................................................................@@@@@@................................................................................................................................................XX  XX      XXXXX %%%%%%zzzzzzzzzzzzzzzzzzzzzzzzzzzzzzzzzzzzzzzzzzzzzzzzzzzzzzzzzzzzzzzzzzzzzz",
"zzzzzzzzzzzzzzzz;;;;;;;;;;;;------OOO&&&%%%%%%;;eee;wwrwwrrrwwwwttttttaaaaaaaaaaaaaaaaaarrrrrr;;----X XXXX        XXXX......................................................................................................................................................@@@@@@................................................................................................................................................XX  XX      XXXXX %%%%%%zzzzzzzzzzzzzzzzzzzzzzzzzzzzzzzzzzzzzzzzzzzzzzzzzzzzzzzzzzzzzzzzzzzzzz",
"zzzzzzzzzzzzzzzz;;;;;;;;;;;;------OOOO&&%%%%%%;;eeeewwwwwwrrwwwwttttttaaaaaaaaaaaaaaaaaarrrrrr;--;--XXXXXX      X XXXX......................................................................................................................................................@@@@@@................................................................................................................................................XXXXXX      XXXXXX%%%%%%zzzzzzzzzzzzzzzzzzzzzzzzzzzzzzzzzzzzzzzzzzzzzzzzzzzzzzzzzzzzzzzzzzzzzz",
"zzzzzzzzzzzzzzzz;;;;;;;;;;;;------OOOO&&%%%%-%e;eee;wwwwwwrwwwwwttttttaaaaaaaaaaaaaaaaaarrrrrr;;;;--XXXXXX      XXXXXX......................................................................................................................................................@@@@@@................................................................................................................................................XXXXXX      XXXXXX%%%%%%zzzzzzzzzzzzzzzzzzzzzzzzzzzzzzzzzzzzzzzzzzzzzzzzzzzzzzzzzzzzzzzzzzzzzz",
"zzzzzzzzzzzzzzzz;;;;;;;;;;;;------&&OOO&%%%%--ee;;;;wwwwwwwwwwwwttttaaaaaaaaaaaaaaaaaaaarrrrrr;;;;;;XXXXXX      XXXXXX......................................................................................................................................................@@@@@@................................................................................................................................................XXXXXX      XXXXXX--%%%%zzzzzzzzzzzzzzzzzzzzzzzzzzzzzzzzzzzzzzzzzzzzzzzzzzzzzzzzzzzzzzzzzzzzzz",
"zzzzzzzzzzzzzzzz;;;;;;;;;;;;------O&OOOO%%%%--ee;;;;wwwwwwwwwwwwttttttaaaaaaaaaaaaaaaaaarrrrrr;;;;;;XXXXXX      XXXXXX......................................................................................................................................................@@@@@@................................................................................................................................................XXXXXX      XXXXXX--%%%%zzzzzzzzzzzzzzzzzzzzzzzzzzzzzzzzzzzzzzzzzzzzzzzzzzzzzzzzzzzzzzzzzzzzzz",
"zzzzzzzzzzzzzzzz;;;;;;------OOOOOO;;;;;;ttttttaaaaaaggjjjjjjjjjjjjjjjjjjjjjjgaaajjaaaaaaaaaaaa######            XXXXXX......................................................................................................................................................@@@@@@................................................................................................................................................XXXXXX            ######------%%%%%%zzzzzzzzzzzzzzzzzzzzzzzzzzzzzzzzzzzzzzzzzzzzzzzzzzzzzzzzzz",
"zzzzzzzzzzzzzzzz;;;;;;------OOO&OO;;;;;;ttttttaaaaaaggjjjjjjjjjjjjjjjjjjjjjjgaaajgaaaaaaaaaaaa######            XXXXXX......................................................................................................................................................@@@@@@................................................................................................................................................XXXXXX            ######------%%%%%%zzzzzzzzzzzzzzzzzzzzzzzzzzzzzzzzzzzzzzzzzzzzzzzzzzzzzzzzzz",
"zzzzzzzzzzzzzzzz;;;;;;------OO&&OO;;;;;;aattttaaaaaaggggaajjjjjjjjjjjjjjjjjjjjggggaaaaaaaaaaaa######            XXXXXX......................................................................................................................................................@@@@@@................................................................................................................................................XXXXXX            ######------%%%%%%zzzzzzzzzzzzzzzzzzzzzzzzzzzzzzzzzzzzzzzzzzzzzzzzzzzzzzzzzz",
"zzzzzzzzzzzzzzzz;;;;;;------OO&OOO;;;;;;aattttaaaaaaggjjggjjjjjjjjjjjjjjjjjjjjggggaaaaaaaaaaaa######            XXXXXX......................................................................................................................................................@@@@@@................................................................................................................................................XXXXXX            ######------%%%%%%zzzzzzzzzzzzzzzzzzzzzzzzzzzzzzzzzzzzzzzzzzzzzzzzzzzzzzzzzz",
"zzzzzzzzzzzzzzzz;;;;;;------O&&&O&;;;;;;aaaattaaaaaajjjjggjjjjjjjjjjjjjjjjjjjjjjgjaaaaaaaaaaaa######            XXXXXX......................................................................................................................................................@@@@@@................................................................................................................................................XXXXXX            ######------%%%%%%zzzzzzzzzzzzzzzzzzzzzzzzzzzzzzzzzzzzzzzzzzzzzzzzzzzzzzzzzz",
"zzzzzzzzzzzzzzzz;;;;;;------&OO&O&;;;;;;aaaattaaaaaajjjjggjjjjjjjjjjjjjjjjjjjjjjjjaaaajjaaaaaa######            XXXXXX......................................................................................................................................................@@@@@@................................................................................................................................................XXXXXX            ######------%%%%%%zzzzzzzzzzzzzzzzzzzzzzzzzzzzzzzzzzzzzzzzzzzzzzzzzzzzzzzzzz",
"zzzzzzzzzzzzzzzz;;;;;;OOOOOO;-;;;;ttttttaaaaaajjjjjjkkkkkkkkkkkkjjjjjjkkkkkkjjjjjjjgjjjjaaaaaa######            ......................................................................................................................................................@@@@@@@@@@@@..........................................................................................................................................$$$$$$......            ######ee;;ee;;;;;;%%%%%%zzzzzzzzzzzzzzzzzzzzzzzzzzzzzzzzzzzzzzzzzzzzzzzzzzzz",
"zzzzzzzzzzzzzzzz;;;;;;OOOOOO;-;;;;ttttttaaaaaajjjjjjkkkkkkkkkkkkjjjjjjkkkkkkjjjjjjjgjjjjaaaaaa######            ......................................................................................................................................................@@@@@@@@@@@@..........................................................................................................................................$$$$$$......            ######ee;;ee;;;;;;%%%%%%zzzzzzzzzzzzzzzzzzzzzzzzzzzzzzzzzzzzzzzzzzzzzzzzzzzz",
"zzzzzzzzzzzzzzzz--;;;;OOOOOO;;;;;;ttttttaaaaaajjjjjjkkkkkkkkkkkkjjjjjjkkkkkkjjjjjjgggjjjaaaaaa######            ......................................................................................................................................................@@@@@@@@@@@@..........................................................................................................................................$$$$$$......            ######;;;;ee--;;;;%%%%%%zzzzzzzzzzzzzzzzzzzzzzzzzzzzzzzzzzzzzzzzzzzzzzzzzzzz",
"zzzzzzzzzzzzzzzz;-;;;;OOOOOO;;;;;;ttttttaaaaaajjjjjjkkkkkkkkkkkkjjjjjjkkkkkkjjjjjjgggjjgaaaaaa######            ......................................................................................................................................................@@@@@@@@@@@@..........................................................................................................................................$$$$$$......            ######;;;;ee;-;;;;%%%%%%zzzzzzzzzzzzzzzzzzzzzzzzzzzzzzzzzzzzzzzzzzzzzzzzzzzz",
"zzzzzzzzzzzzzzzz;;;;;;OOOOOO;;;;;;ttttttaaaajjjjjjjjkkkkkkkkkkkkjjjjjjkkkkkkjjjjjjjjjjjjaaaaaa######            ......................................................................................................................................................@@@@@@@@@@@@..........................................................................................................................................$$$$$$......            ######;;;;ee;;;;;;%%%%%%zzzzzzzzzzzzzzzzzzzzzzzzzzzzzzzzzzzzzzzzzzzzzzzzzzzz",
"zzzzzzzzzzzzzzzz;;;;;;OOOOOO;;;;;;ttttttaaaajjjjjjjjkkkkkkkkkkkkjjjjjjkkkkkkjjjjjjjjjjjjaaaaaa######            ......................................................................................................................................................@@@@@@@@@@@@..........................................................................................................................................$$$$$$......            ######;;;;ee;;;;;;%%%%%%zzzzzzzzzzzzzzzzzzzzzzzzzzzzzzzzzzzzzzzzzzzzzzzzzzzz",
"zzzzzzzzzzzzzzzzOOOOOO;;;;;;ttttttjjjjjjkkkkkkkkkkkkjjjjjjjjjjjjjjjjjjkkkkkkkkkkkkjjjjjjjjgggg@@@@@@            ......................................................................................................................................................@@@@@@@@@@@@................................................................................................................................................$$$$$$            @@@@@@wwwwww;;;;;;;;;;;;%%%%%%%%%%%%%%%%%%%%%%%%------zzzzzzzzzzzzzzzzzzzzzz",
"zzzzzzzzzzzzzzzzOOOOOO;;;;;;ttttttjjjjjjkkkkkkkkkkkkjjjjjjjjjjjjjjjjjjkkkkkkkkkkkkjjjjjjjjgggg@@@@@@            ......................................................................................................................................................@@@@@@@@@@@@................................................................................................................................................$$$$$$            @@@@@@wwwwww;;;;;e;;;;;;%%%%%%%%%%%%%%%%%%%%%%%%------zzzzzzzzzzzzzzzzzzzzzz",
"zzzzzzzzzzzzzzzzOO&OOO;;;;;;ttttttjjjjjjkkkkkkkkkkkkjjjjjjjjjjjjjjjjjjkkkkkkkkkkkkjjjjjjjjgggg@@@@@@            ......................................................................................................................................................@@@@@@@@@@@@................................................................................................................................................$$$$$$            @@@@@@wwwwww;;eeee;;;;;;%%%%%%%%%%%%%%%%%%%%%%%%------zzzzzzzzzzzzzzzzzzzzzz",
"zzzzzzzzzzzzzzzzOO&&OO;;;;;;ttttttjjjjjjkkkkkkkkkkkkjjjjjjjjjjjjjjjjjjkkkkkkkkkkkkjjjjjjjjggjg@@@@@@            ......................................................................................................................................................@@@@@@@@@@@@................................................................................................................................................$$$$$$            @@@@@@wwwwwr;;ee;;--;;;;%%%%%%%%%%%%%%%%%%%%%%%%------zzzzzzzzzzzzzzzzzzzzzz",
"zzzzzzzzzzzzzzzzOO&&OO;;;;;;ttttttjjjjjjkkkkkkkkkkkkjjjjjjjjjjjjjjjjjjkkkkkkkkkkkkjjjjjjjjjgjj@@@@@@            ......................................................................................................................................................@@@@@@@@@@@@................................................................................................................................................$$$$$$            @@@@@@wwwwrr;eee;;;-;;-;%%%%%%%%%%%%%%%%%%%%%%%%------zzzzzzzzzzzzzzzzzzzzzz",
"zzzzzzzzzzzzzzzzOO&&OO;;;;;;ttttttjjjjjjkkkkkkkkkkkkjjjjjjjjjjjjjjjjjjkkkkkkkkkkkkjjjjjjjjjjjj@@@@@@            ......................................................................................................................................................@@@@@@@@@@@@................................................................................................................................................$$$$$$            @@@@@@wwwwrr;eee;;;;;;-;%%%%%%%%%%%%%%%%%%%%%%%%------zzzzzzzzzzzzzzzzzzzzzz"
};
