/* XPM */
static char *toad2[] = {
/* columns rows colors chars-per-pixel */
"64 64 224 2 ",
"   c black",
".  c #020202",
"X  c #020402",
"o  c #020407",
"O  c #020707",
"+  c #070407",
"@  c #070707",
"#  c #070907",
"$  c #070C07",
"%  c #110000",
"&  c #110402",
"*  c #110707",
"=  c #1B0707",
"-  c #110C07",
";  c #1B0C07",
":  c #020C11",
">  c #070C11",
",  c #110C11",
"<  c #111111",
"1  c #111511",
"2  c gray8",
"3  c #1B1511",
"4  c #1B151B",
"5  c #1B1A1B",
"6  c #1B1F1B",
"7  c #240000",
"8  c #2D0000",
"9  c #2D0402",
"0  c #2D0707",
"q  c #240C07",
"w  c #360000",
"e  c #360202",
"r  c #360402",
"t  c #360C11",
"y  c #241111",
"u  c #241511",
"i  c #27171B",
"p  c #2D151B",
"a  c #241F1B",
"s  c #391F11",
"d  c #3D1F11",
"f  c #361F24",
"g  c #2D2824",
"h  c #242C2D",
"j  c #292A29",
"k  c #400000",
"l  c #400002",
"z  c #400202",
"x  c #490402",
"c  c #490D0E",
"v  c #510002",
"b  c #49100E",
"n  c #4C100E",
"m  c #4E100E",
"M  c #5D110D",
"N  c #421A18",
"B  c #661311",
"V  c #6A1111",
"C  c #6B1511",
"Z  c #6D1414",
"A  c #6F1515",
"S  c #7C1511",
"D  c #7F1414",
"F  c #7F1914",
"G  c #68361B",
"H  c #6B361B",
"J  c #40352D",
"K  c #493831",
"L  c #493932",
"P  c #493D36",
"I  c #4C3D34",
"U  c #4E3F36",
"Y  c #4E4036",
"T  c #514034",
"R  c #514136",
"E  c #514336",
"W  c #56453D",
"Q  c #714039",
"!  c #403F40",
"~  c #4C4542",
"^  c #494745",
"/  c #514D4E",
"(  c #4E504C",
")  c #575151",
"_  c #575451",
"`  c #545554",
"'  c #545754",
"]  c #575557",
"[  c #575857",
"{  c #5D5A56",
"}  c #5D5D56",
"|  c #5A585A",
" . c #5A5D5A",
".. c #5D5C5D",
"X. c #6B4D4E",
"o. c #685449",
"O. c #6B5649",
"+. c #6B504C",
"@. c #6B514E",
"#. c #6F5B4D",
"$. c #745B49",
"%. c #745556",
"&. c #745F51",
"*. c #5D605D",
"=. c #5D615D",
"-. c #7C6555",
";. c #605E60",
":. c #606060",
">. c #606260",
",. c #656265",
"<. c #656465",
"1. c #656565",
"2. c #6B686B",
"3. c #6B6C6B",
"4. c #716D71",
"5. c #717171",
"6. c #787874",
"7. c #7C7A74",
"8. c #851511",
"9. c #841414",
"0. c #871414",
"q. c #8D1511",
"w. c #8A1714",
"e. c #8D1714",
"r. c #8A1718",
"t. c #8D1718",
"y. c #951511",
"u. c #9D1A1B",
"i. c #BE1A1B",
"p. c #BF1E1B",
"a. c #BE1F1B",
"s. c #992E2D",
"d. c #823834",
"f. c #823839",
"g. c #993C3A",
"h. c #AE3431",
"j. c #B63536",
"k. c #C21C1A",
"l. c #C11E1B",
"z. c #C71F1B",
"x. c #954C24",
"c. c #984D21",
"v. c #9A4D21",
"b. c #9D4C24",
"n. c #80403F",
"m. c #874D4C",
"M. c #8A6F5D",
"N. c #907563",
"B. c #927463",
"V. c #957563",
"C. c #987563",
"Z. c #987663",
"A. c #957863",
"S. c #9B7A68",
"D. c #9D7C68",
"F. c #F74C49",
"G. c #D77E7C",
"H. c #85807C",
"J. c #A1806B",
"K. c #A6836B",
"L. c #A6846B",
"P. c #AE8B74",
"I. c #BE937C",
"U. c magenta",
"Y. c #848684",
"T. c #989692",
"R. c #989792",
"E. c #9A9895",
"W. c #A08E8A",
"Q. c #B38A85",
"!. c #A59792",
"~. c #A39C98",
"^. c #A39E98",
"/. c #A0A3A0",
"(. c #A6A3A6",
"). c #AEABA6",
"_. c #AEAFA6",
"`. c #ABAEAB",
"'. c #B4AEA8",
"]. c #AEB0AE",
"[. c #B0AFB0",
"{. c gray69",
"}. c #B0B2B0",
"|. c gray70",
" X c #B6B6B6",
".X c #B6B7B6",
"XX c #B9B8B9",
"oX c #C79F85",
"OX c #CFA385",
"+X c #CFA38D",
"@X c #CFA78D",
"#X c #D2A78A",
"$X c #D7A78D",
"%X c #D4A88D",
"&X c #D7AB8D",
"*X c #D7AB95",
"=X c #DFAF95",
"-X c #C7B7AE",
";X c #DFBFB6",
":X c #FFABA6",
">X c #D7CCC7",
",X c #DFC8C7",
"<X c #D7D4CF",
"1X c #DFD4CF",
"2X c #DFD8CF",
"3X c #DFD8D7",
"4X c #DFDCD7",
"5X c #E8D4C7",
"6X c #EFD4C7",
"7X c #E8DCD7",
"8X c #DFE0D7",
"9X c #E8E0D7",
"0X c #E8E4D7",
"qX c #E5E0DA",
"wX c #E8E4DF",
"eX c #EFE4DF",
"rX c #E8E8DF",
"tX c #E8ECE8",
"yX c #EFEFEF",
"uX c #F7F3F7",
"iX c gray97",
"pX c #F7FBF7",
"aX c #FFFBFF",
"sX c white",
/* pixels */
"U.U.U.U.U.U.U.U.U.U.U.U.U.U.U.U.U.U.U.U.U.U.U.U.U.U.U.sXsXsXsXsXsXsXsXsXsXU.U.U.U.U.U.U.U.U.U.U.U.U.U.U.U.U.U.U.U.U.U.U.U.U.U.U.",
"U.U.U.U.U.U.U.U.U.U.U.U.U.U.U.U.U.U.U.U.U.U.U.U.sXsXsXsXsXsXsXsXsXsXsXsXsXsXsXsXsXU.U.U.U.U.U.U.U.U.U.U.U.U.U.U.U.U.U.U.U.U.U.U.",
"U.U.U.U.U.U.U.U.U.U.U.U.U.U.U.U.U.U.U.U.U.U.sXaXaXiX`.f @ @ @ @ @ @ @ @ @ `.iXiXsXsXsXU.U.U.U.U.U.U.U.U.U.U.U.U.U.U.U.U.U.U.U.U.",
"U.U.U.U.U.U.U.U.U.U.U.U.U.U.U.U.U.U.U.U.sXsXsXaX1 @ @ @ i y.i.a.a.a.u.Z @ @ @ @ :.sXsXsXsXU.U.U.U.U.U.U.U.U.U.U.U.U.U.U.U.U.U.U.",
"U.U.U.U.U.U.U.U.U.U.U.U.U.U.U.U.U.U.sXsXsXpX$ # # @ i.i.i.k.k.k.k.k.k.k.a.a.@ @ @ , < aXsXsXU.U.U.U.U.U.U.U.U.U.U.U.U.U.U.U.U.U.",
"U.U.U.U.U.U.U.U.U.U.U.U.U.U.U.U.U.sXsXiX@ @ $ G.n.a.k.k.k.k.k.k.k.k.k.k.k.k.a.n eX6.@ @ ,.sXsXsXU.U.U.U.U.U.U.U.U.U.U.U.U.U.U.U.",
"U.U.U.U.U.U.U.U.U.U.U.U.U.U.U.U.sXsX[.$ $ 9X6Xq.a.k.k.k.k.k.k.k.k.k.k.k.k.k.k.k.r 9X9Xh , $ aXaXsXU.U.U.U.U.U.U.U.U.U.U.U.U.U.U.",
"U.U.U.U.U.U.U.U.U.U.U.U.U.U.U.sXsX1.$ $ 2X9Xr a.a.k.k.k.k.k.k.k.k.k.k.k.k.k.k.k.r 9X9X9X9X$ X aXsXsXU.U.U.U.U.U.U.U.U.U.U.U.U.U.",
"U.U.U.U.U.U.U.U.U.U.U.U.U.U.sXsX2.@ / 9X9X^.a.k.k.k.k.k.k.k.k.k.k.k.k.k.k.k.k.k.i.4XqXqXqX2X@ @  XsXsXU.U.U.U.U.U.U.U.U.U.U.U.U.",
"U.U.U.U.U.U.U.U.U.U.U.U.U.sXsXtX$ / 9XqXqXy k.k.k.k.k.k.k.k.k.k.k.k.k.k.k.k.k.k.a.9XqXqXqXqX9X, @  XsXsXU.U.U.U.U.U.U.U.U.U.U.U.",
"U.U.U.U.U.U.U.U.U.U.U.U.U.sXsX@ @ 9XqXqXqX% k.k.k.k.k.k.k.k.k.k.k.k.k.k.k.k.k.k.a.9XqXqXqXqXqXqX@ @ sXsXsXU.U.U.U.U.U.U.U.U.U.U.",
"U.U.U.U.U.U.U.U.U.U.U.U.sXsX< @ 4X9XqXqXqX% k.k.k.k.k.k.k.k.k.k.k.k.k.k.k.k.k.k.n 9XqXqXqXqXqXqX4X@ 4 sXsXU.U.U.U.U.U.U.U.U.U.U.",
"U.U.U.U.U.U.U.U.U.U.U.sXsX3.@ 9X9XqXqXqXqXy k.k.k.k.k.k.k.k.k.k.k.k.k.k.k.k.k.k.w qXqXqXqXqXqXqXqX4X@ @ sXsXU.U.U.U.U.U.U.U.U.U.",
"U.U.U.U.U.U.U.U.U.U.U.sXsX@ c p 9XqXqXqXqXH.i.k.k.k.k.k.k.k.k.k.k.k.k.k.k.k.i.r.wXqXqXqXqXqX9X9X%.Z D @ sXsXsXU.U.U.U.U.U.U.U.U.",
"U.U.U.U.U.U.U.U.U.U.sXpX=.@ a.h.F.9XqXqXqX9X9 a.a.k.k.k.k.k.k.k.k.k.k.k.k.i.@.!.qXqXqXqXqXqX2X0 a.k.a.; @ sXsXU.U.U.U.U.U.U.U.U.",
"U.U.U.U.U.U.U.U.U.U.sXpX$ @ a.h.& 9XqXqXqX9X5XS a.k.k.k.k.k.k.k.k.k.k.k.k.t.!.4XqXqXqXqXqXqX2X@.a.k.a.a.@ }.sXU.U.U.U.U.U.U.U.U.",
"U.U.U.U.U.U.U.U.U.U.sXyX@ a.k.a.b 9XqXqXqXqX8X,Xw i.k.k.k.k.k.k.k.k.a.a.v 9XqXqXqXqXqXqXqX4X: a.k.k.k.k.* , sXU.U.U.U.U.U.U.U.U.",
"U.U.U.U.U.U.U.U.U.sXsX@ @ i.k.a.C wXqXqXqXqXqXqXqX^.w g.g.i.a.j.j.l y 8X9XqXqXqXqXqXqXqXqX8Xi.i.k.k.k.k.e.@ sXU.U.U.U.U.U.U.U.U.",
"U.U.U.U.U.U.U.U.U.sXsX@ @ k.k.a.C wXqXqXqXqXqXqXqXqXqXqXqXqXqXqXqXqXqXqXqXqXqXqXqXqXqXqXqXQ.k.k.k.k.k.k.a.@ 1.U.U.U.U.U.U.U.U.U.",
"U.U.U.U.U.U.U.U.U.sXsX@ 8.k.k.a.C wXqXqXqXqXqXqXqXqXqXqXqXqXqXqXqXqXqXqXqXqXqXqXqXqXqXqXqXw k.k.k.k.k.k.a.@ < U.U.U.U.U.U.U.U.U.",
"U.U.U.U.U.U.U.U.U.sXsX@ a.k.k.a.t 9XqXqXqXqXqXqXqXqXqXqXqXqXqXqXqXqXqXqXqXqXqXqXqXqXqXqXqX7 k.k.k.k.k.k.k.@ @ U.U.U.U.U.U.U.U.U.",
"U.U.U.U.U.U.U.U.U.sXsX@ z.k.k.z.* 9XqXqXqXqXqXqXqXqXqXqXqXqXqXqXqXqXqXqXqXqXqXqXqXqXqXqXqXx k.k.k.k.k.k.k.B > U.U.U.U.U.U.U.U.U.",
"U.U.U.U.U.U.U.U.U.sXsX@ 8.k.k.f.l qXqXqXqXqXqXqXqXqXqXqXqXqXqXqXqXqXqXqXqXqXqXqXqXqXqXqXqXX.k.k.k.k.k.k.k.B @ U.U.U.U.U.U.U.U.U.",
"U.U.U.U.U.U.U.U.U.sXsX@ M k.k.f.:XqXqXqXqXqXqXqXqXqXqXqXqXqXqXqXqXqXqXqXqXqXqXqXqXqXqXqXqX1Xk.k.k.k.k.k.k.B @ U.U.U.U.U.U.U.U.U.",
"U.U.U.U.U.U.U.U.U.sXsX@ @ i.i.q 7XqXqXqXqXqXqXqXqX9X^._ @ @ $ ( T.9X9X9XqXqXqXqXqXqXqXqXqX4X@ i.k.k.k.k.k.@ $ U.U.U.U.U.U.U.U.U.",
"U.U.U.U.U.U.U.U.U.U.sX' $ a.d.'.9XqXqXqXqXqX9X>X@ < V.$X$X$X$X$XN.Y , , 2X4XqXqXqXqXqXqXqXqX;XQ k.k.k.k.i.@ @ U.U.U.U.U.U.U.U.U.",
"U.U.U.U.U.U.U.U.U.U.sXiX@ m.^ qXqXqXqXqXqX9X@ a $X%X%X%X%X%X%X%X%X%X%X%XW < 9X9X9XqXqXqXqXqX9X6 s.k.k.k.i.# $ U.U.U.U.U.U.U.U.U.",
"U.U.U.U.U.U.U.U.U.U.sXiX@ * 4XqXqXqXqXqXqX$ @ $X$X%X%X%X%X%X%X%X%X%X%X%X$X*X@ ) 9XqXqXqXqXqX9X9X8 k.k.k.c # }.U.U.U.U.U.U.U.U.U.",
"U.U.U.U.U.U.U.U.U.U.sXsX}.@ 9XqXqXqXqXqXqX@ $X%X%X%X%X%X%X%X%X%X%X$X%X%X%X%X$XW 3 9XqXqXqXqXqXqX9Xl 9.i.@ $ sXU.U.U.U.U.U.U.U.U.",
"U.U.U.U.U.U.U.U.U.U.U.sXsX, $ 9X9XqXqX9X9X@ $X@ OX$X%X%X%X%X%X@X@X@ P.$X%X%X%X%XN.- qXqXqXqXqXqXqX9X<X$ # < sXU.U.U.U.U.U.U.U.U.",
"U.U.U.U.U.U.U.U.U.U.U.U.sXsX@ , rX9XqX9X_ @ %X+X@ L $X%X%X%XoX2 @ N.%X%X%X%X%X%X%X@ ).9XqXqXqXqXqX9X3X@ $ sXsXU.U.U.U.U.U.U.U.U.",
"U.U.U.U.U.U.U.U.U.U.U.U.sXsX(., , 9XqX9X@ T %X+X@ @ $X%X%X%XT @ @ $X%X%X%X%X%X%X%X@ 9X9XqXqXqXqXqX9X@ @ :.sXsXU.U.U.U.U.U.U.U.U.",
"U.U.U.U.U.U.U.U.U.U.U.U.U.sXsX@ @ E.9X4X@ V.%X@X@ @ %X%X%X%X$X# # $X%X%X%X%X%X%X%X@ 9X9XqXqXqXqX9X$ @ @ aXsXU.U.U.U.U.U.U.U.U.U.",
"U.U.U.U.U.U.U.U.U.U.U.U.U.U.sXsX@ , @ 2X@ @X%X@Xo $ %X%X%X%X$X@ @ $X%X%X%X%X%X%X%X@ _.9XqXqX3X3X@ @ 5 sXsXsXU.U.U.U.U.U.U.U.U.U.",
"U.U.U.U.U.U.U.U.U.U.U.U.U.U.U.sXsX..@ @ @ @X%X@XP +X%X%X%X%X$XL I.$X%X%X%X%X%X%X%X@ _.9XqXqX3X@ @ @  XsXsXU.U.U.U.U.U.U.U.U.U.U.",
"U.U.U.U.U.U.U.U.U.U.U.U.U.U.U.U.sXsXpX@ @ @X%X%X%X%X%X%X%X%X%X$X$X%X%X%X%X%X%X%X$X# _.9X4X$ # # @ pXsXsXU.U.U.U.U.U.U.U.U.U.U.U.",
"U.U.U.U.U.U.U.U.U.U.U.U.U.U.U.U.U.sXsXsX, A.%X%X%X%X%X@X@X$X$X%X%X%X%X%X%X%X%X%X@X@ $ $ # @ @ :.aXsXsXU.U.U.U.U.U.U.U.U.U.U.U.U.",
"U.U.U.U.U.U.U.U.U.U.U.U.U.U.U.U.U.U.sXpX@ @ $X%X%X$X@ @ @ - @ %X%X%X%X%X%X%X$X$X$ @ @ @ @ 5.sXsXsXsXU.U.U.U.U.U.U.U.U.U.U.U.U.U.",
"U.U.U.U.U.U.U.U.U.U.U.U.U.U.U.U.U.U.sXpX..@ $X%X%X$XI +X+X@X@ %X%X%X%X%X%X%X$XK.$ @ `.pXaXsXsXsXU.U.U.U.U.U.U.U.U.U.U.U.U.U.U.U.",
"U.U.U.U.U.U.U.U.U.U.U.U.U.U.U.U.U.U.U.sXsX$ @ %X%X#X$X%X%X%XOX$X$X%X%X%X%X#XoXo @ aXsXsXsXsXU.U.U.U.U.U.U.U.U.U.U.U.U.U.U.U.U.U.",
"U.U.U.U.U.U.U.U.U.U.U.U.U.U.U.U.U.U.U.sXsX}.@ @ %X$X%X%X%X%X%X%X%X%X%X%X$X$.# # sXsXsXU.U.U.U.U.U.U.U.U.U.U.U.U.U.U.U.U.U.U.U.U.",
"U.U.U.U.U.U.U.U.U.U.U.U.U.U.U.U.U.U.U.U.sXsXXX@ @ oX$X@X@X$X$X$X$X@X=XD.@ @ @ @ yXsXsXU.U.U.U.U.U.U.U.U.U.U.U.U.U.U.U.U.U.U.U.U.",
"U.U.U.U.U.U.U.U.U.U.U.U.U.U.U.U.U.U.U.U.U.sXsXsX@ @ $ a -.J.L.o.g , - - @ @ J @ @ sXsXsXU.U.U.U.U.U.U.U.U.U.U.U.U.U.U.U.U.U.U.U.",
"U.U.U.U.U.U.U.U.U.U.U.U.U.U.U.U.U.U.U.U.U.sXsX@ @ @ $ @ @ # # # # @ @ w.@ #.@X@X@ $ sXsXU.U.U.U.U.U.U.U.U.U.U.U.U.U.U.U.U.U.U.U.",
"U.U.U.U.U.U.U.U.U.U.U.U.U.U.U.U.U.U.U.U.sXsX@ @ n * $X$X$X$X$XoX- a.k.k.@ &.%X%XS.@ 1 sXsXU.U.U.U.U.U.U.U.U.U.U.U.U.U.U.U.U.U.U.",
"U.U.U.U.U.U.U.U.U.U.U.U.U.U.U.U.U.U.U.sXsX .@ V V - %X%X%X%X%XC.* k.k.k.@ , %X%X%X- @ iXsXU.U.U.U.U.U.U.U.U.U.U.U.U.U.U.U.U.U.U.",
"U.U.U.U.U.U.U.U.U.U.U.U.U.U.U.U.U.U.sXsXyX$ @ i.* %X%X%X%X%X%X$X* k.k.k.@ , %X%X%X$X@ @ sXsXU.U.U.U.U.U.U.U.U.U.U.U.U.U.U.U.U.U.",
"U.U.U.U.U.U.U.U.U.U.U.U.U.U.U.U.U.sXsX}.@ # i.F $ @ @ - - @ @ $ $ i.k.k.@ @ %X%X%X$Xo.@ | sXsXU.U.U.U.U.U.U.U.U.U.U.U.U.U.U.U.U.",
"U.U.U.U.U.U.U.U.U.U.U.U.U.U.U.U.sXsX..@ @ @ a.@ 2XqXqXqXqXqXqX9X< 9.k.k.i.@ C.$X%X%X$X@ @ ' sXsXU.U.U.U.U.U.U.U.U.U.U.U.U.U.U.U.",
"U.U.U.U.U.U.U.U.U.U.U.U.U.U.U.U.sXsX@ < &.N z.. 4XqXqXqXqXqXqX9X_.= i.i.k.@ @ OX%X%X%X%X@ @ ].pXsXU.U.U.U.U.U.U.U.U.U.U.U.U.U.U.",
"U.U.U.U.U.U.U.U.U.U.U.U.U.U.U.sXsX$ @ @X@X@ @ T.4XqXqXqXqXqXqX9X9XW.@ i.k.n @ OX%X%X%X%X@X@ < pXsXU.U.U.U.U.U.U.U.U.U.U.U.U.U.U.",
"U.U.U.U.U.U.U.U.U.U.U.U.U.U.U.sXsX$ @ %X%XT @ 9X9XqXqXqXqXqXqXqXqX9X0X< $ @ @ $X$X, %X%X%XM.$ uXsXU.U.U.U.U.U.U.U.U.U.U.U.U.U.U.",
"U.U.U.U.U.U.U.U.U.U.U.U.U.U.U.sXsX< @ +X+X$ # 1 9XqXqXqXqXqXqXqXqXqX9X9X9X9X@ I @ @ @ OX%X$ < pXsXU.U.U.U.U.U.U.U.U.U.U.U.U.U.U.",
"U.U.U.U.U.U.U.U.U.U.U.U.U.U.U.sXsXsX$ # # @ @ @ -X9XqXqXqXqXqX9X9X4X| @ # # # # $ ;.@ @ @ $ ! sXsXU.U.U.U.U.U.U.U.U.U.U.U.U.U.U.",
"U.U.U.U.U.U.U.U.U.U.U.U.U.U.U.U.sXsXY.# # x.x.~ @ } qXqXqXqXqX9X7.$ @ @ # # # # $ ;.tX[ j }.sXsXU.U.U.U.U.U.U.U.U.U.U.U.U.U.U.U.",
"U.U.U.U.U.U.U.U.U.U.U.U.U.U.U.U.sXsX@ @ x.v.v.b.b.@ $ { 9X9XqX2X@ @ x.x.b.b.b.b.@ @ < sXsXsXsXU.U.U.U.U.U.U.U.U.U.U.U.U.U.U.U.U.",
"U.U.U.U.U.U.U.U.U.U.U.U.U.U.U.U.sXsX# u b.v.v.v.v.b.G @ @ @ @ @ @ G v.v.v.v.v.v.v.s $ =.sXsXU.U.U.U.U.U.U.U.U.U.U.U.U.U.U.U.U.U.",
"U.U.U.U.U.U.U.U.U.U.U.U.U.U.U.U.sXsX@ s x.v.v.v.v.v.b.b.@ < sX# # b.v.v.v.v.v.v.v.b.# # sXsXU.U.U.U.U.U.U.U.U.U.U.U.U.U.U.U.U.U.",
"U.U.U.U.U.U.U.U.U.U.U.U.U.U.U.U.sXsX@ @ x.v.v.v.v.v.b.@ @ 1.sX# # b.v.v.v.v.v.v.v.b.# # sXsXU.U.U.U.U.U.U.U.U.U.U.U.U.U.U.U.U.U.",
"U.U.U.U.U.U.U.U.U.U.U.U.U.U.U.U.U.sXaX@ @ @ s d @ @ @ $ $ sXsX@ @ @ b.b.v.v.v.v.b.@ @ /.sXsXU.U.U.U.U.U.U.U.U.U.U.U.U.U.U.U.U.U.",
"U.U.U.U.U.U.U.U.U.U.U.U.U.U.U.U.U.sXsXsX4 , @ $ $ $ 1.sXsXsXsXpX. @ @ @ @ @ @ @ # < ' aXsXU.U.U.U.U.U.U.U.U.U.U.U.U.U.U.U.U.U.U.",
"U.U.U.U.U.U.U.U.U.U.U.U.U.U.U.U.U.U.sXsXsXsXsXsXsXsXsXsXsXU.sXsXsXsXX X @ $ , , 4.sXsXsXU.U.U.U.U.U.U.U.U.U.U.U.U.U.U.U.U.U.U.U.",
"U.U.U.U.U.U.U.U.U.U.U.U.U.U.U.U.U.U.U.U.sXsXsXsXsXsXU.U.U.U.U.sXsXsXiXiXsXsXsXsXsXsXsXU.U.U.U.U.U.U.U.U.U.U.U.U.U.U.U.U.U.U.U.U.",
"U.U.U.U.U.U.U.U.U.U.U.U.U.U.U.U.U.U.U.U.U.U.U.U.U.U.U.U.U.U.U.U.U.U.sXsXsXsXsXsXU.U.U.U.U.U.U.U.U.U.U.U.U.U.U.U.U.U.U.U.U.U.U.U."
};
