/* XPM */
static char *toad1[] = {
/* columns rows colors chars-per-pixel */
"64 64 253 2 ",
"   c #020202",
".  c #020402",
"X  c #020407",
"o  c #070407",
"O  c #070707",
"+  c #070907",
"@  c #070C07",
"#  c #110407",
"$  c #110707",
"%  c #1B0707",
"&  c #110C07",
"*  c #1B0C07",
"=  c #070C11",
"-  c #110C11",
";  c #1B0C11",
":  c #111111",
">  c #111511",
",  c #1B1511",
"<  c #1B151B",
"1  c #1B1A1B",
"2  c #1B1F1B",
"3  c #2D0000",
"4  c #2D0002",
"5  c #2D0202",
"6  c #2D0207",
"7  c #2D0C07",
"8  c #360000",
"9  c #360002",
"0  c #360402",
"q  c #360707",
"w  c #2A170E",
"e  c #360C11",
"r  c #241511",
"t  c #241F1B",
"y  c #391F11",
"u  c #3D1F11",
"i  c #242324",
"p  c #2D302D",
"a  c #39332D",
"s  c #363536",
"d  c #363936",
"f  c #3F3E3A",
"g  c #400000",
"h  c #400002",
"j  c #490000",
"k  c #400C07",
"l  c #490D0E",
"z  c #49100E",
"x  c #4E100E",
"c  c #491111",
"v  c #4E1914",
"b  c #551A1A",
"n  c #651214",
"m  c #6F1311",
"M  c #631F1B",
"N  c #7C1511",
"B  c #7F1414",
"V  c #512C11",
"C  c #68361B",
"Z  c #68371B",
"A  c #6D361B",
"S  c #6D371B",
"D  c #7C3F1B",
"F  c #40312D",
"G  c #4C3D31",
"H  c #493C34",
"J  c #4E3C34",
"K  c #4C3F34",
"L  c #4E3F34",
"P  c #4E3D36",
"I  c #543436",
"U  c #6D2021",
"Y  c #712221",
"T  c #7A2221",
"R  c #4E4036",
"E  c #4E4136",
"W  c #514136",
"Q  c #54453D",
"!  c #56453D",
"~  c #7D413D",
"^  c #404340",
"/  c #454542",
"(  c #494340",
")  c #514740",
"_  c #5A4949",
"`  c #575049",
"'  c #57514C",
"]  c #515251",
"[  c #515451",
"{  c #575451",
"}  c #575551",
"|  c #575554",
" . c #575754",
".. c gray34",
"X. c #5A5756",
"o. c #5A5856",
"O. c #5D5A56",
"+. c #5A555A",
"@. c #5A585A",
"#. c #5D5E5D",
"$. c #664440",
"%. c #604B4C",
"&. c #7D4442",
"*. c #7D4945",
"=. c #6F5B4D",
"-. c #745849",
";. c #725A4E",
":. c #745D4D",
">. c #6E585A",
",. c #745451",
"<. c #745D51",
"1. c #745F51",
"2. c #7A5A5A",
"3. c #606060",
"4. c #606260",
"5. c #656265",
"6. c #6B696B",
"7. c #6B6C6B",
"8. c #747674",
"9. c #7A7471",
"0. c #871514",
"q. c #841714",
"w. c #871714",
"e. c #8D1511",
"r. c #911815",
"t. c #B61A1B",
"y. c #BE1A1B",
"u. c #BE1F1B",
"i. c #8D2824",
"p. c #9D2C2D",
"a. c #853434",
"s. c #8D3936",
"d. c #9D3E3A",
"f. c #A02D2A",
"g. c #AE2C2D",
"h. c #B93836",
"j. c #C21C1A",
"k. c #C11E1B",
"l. c #954724",
"z. c #954C24",
"x. c #984D21",
"c. c #9A4D21",
"v. c #9D4C24",
"b. c #9D5024",
"n. c #846B5B",
"m. c #8A5F63",
"M. c #84766F",
"N. c #8A7668",
"B. c #927460",
"V. c #907563",
"C. c #957665",
"Z. c #987663",
"A. c #907863",
"S. c #987C63",
"D. c #9B7965",
"F. c #987C65",
"G. c #A07C68",
"H. c #C7615A",
"J. c #A6836B",
"K. c #A8846E",
"L. c #A68774",
"P. c #AE8B74",
"I. c #BE937C",
"U. c magenta",
"Y. c #848284",
"T. c #858785",
"R. c #888888",
"E. c #8C888C",
"W. c #8C8A8C",
"Q. c #8D8B8D",
"!. c #8D8F8D",
"~. c #8D8F92",
"^. c #9D9390",
"/. c #9A9795",
"(. c #9A9895",
"). c #9A9A95",
"_. c #9A9C95",
"`. c #A0968A",
"'. c #A3978A",
"]. c #BE9785",
"[. c #AE9B95",
"{. c #A09C98",
"}. c #A39C98",
"|. c #A09E98",
" X c #A39E98",
".X c #A09E9B",
"XX c #B39F90",
"oX c #A6A09B",
"OX c #A3A29D",
"+X c #A6A7A6",
"@X c #A8A6A3",
"#X c #A8A7A8",
"$X c #ABAEAB",
"%X c #AEACAE",
"&X c #AEAFAE",
"*X c #AEB0AE",
"=X c gray69",
"-X c #B3B2B3",
";X c #B3B4B3",
":X c #B6B4B6",
">X c #B6B6B6",
",X c #BFBAB3",
"<X c #BEBBB6",
"1X c #B9B7B9",
"2X c #B9BAB9",
"3X c #BEBFBE",
"4X c #C79F85",
"5X c #C7A385",
"6X c #CFA385",
"7X c #CFA38D",
"8X c #CFA78D",
"9X c #D2A78A",
"0X c #D7A78D",
"qX c #D4A88D",
"wX c #D7AB8D",
"eX c #C7A795",
"rX c #DFAF95",
"tX c #EFBBAE",
"yX c #EFBFBE",
"uX c #EFC4BE",
"iX c #C4C5C4",
"pX c #C7C4C7",
"aX c #CFCCC7",
"sX c gray79",
"dX c #DFC4C7",
"fX c #D7D0C7",
"gX c #D7D0CF",
"hX c #D7D4CF",
"jX c #DFD4CF",
"kX c #DFD8CF",
"lX c #D7D4D7",
"zX c #DFDCD7",
"xX c #DAD8DA",
"cX c #E8CCC7",
"vX c #E8D0C7",
"bX c #EFD0C7",
"nX c #E8D8C7",
"mX c #E8DCCF",
"MX c #DFE0D7",
"NX c #E8E0D7",
"BX c #E8E4D7",
"VX c #E5E0DA",
"CX c #E8E4DF",
"ZX c #EFE8DF",
"AX c #E3E2E3",
"SX c #E8E4E8",
"DX c #E8ECE8",
"FX c #EFECEF",
"GX c #F7F3F7",
"HX c gray97",
"JX c #F7FBF7",
"KX c #FFFBFF",
"LX c white",
/* pixels */
"U.U.U.U.U.U.U.U.U.U.U.U.U.U.U.U.U.U.U.U.U.U.U.U.U.U.U.U.U.LXLXLXLXLXLXU.U.U.U.U.U.U.U.U.U.U.U.U.U.U.U.U.U.U.U.U.U.U.U.U.U.U.U.U.",
"U.U.U.U.U.U.U.U.U.U.U.U.U.U.U.U.U.U.U.U.U.U.U.U.LXLXLXLXLXLXLXHXLXLXLXLXLXLXLXU.U.U.U.U.U.U.U.U.U.U.U.U.U.U.U.U.U.U.U.U.U.U.U.U.",
"U.U.U.U.U.U.U.U.U.U.U.U.U.U.U.U.U.U.U.U.U.U.LXLXLXLXLXLX!.  - @ > > + ~.LXLXLXLXLXLXU.U.U.U.U.U.U.U.U.U.U.U.U.U.U.U.U.U.U.U.U.U.",
"U.U.U.U.U.U.U.U.U.U.U.U.U.U.U.U.U.U.U.U.LXLXLXLX4.: - O O O O l l O O O - - > KXLXLXLXU.U.U.U.U.U.U.U.U.U.U.U.U.U.U.U.U.U.U.U.U.",
"U.U.U.U.U.U.U.U.U.U.U.U.U.U.U.U.U.U.U.LXLXLX&XO O O w.u.u.k.k.k.j.j.j.u.y.O @ O O Y.HXLXLXU.U.U.U.U.U.U.U.U.U.U.U.U.U.U.U.U.U.U.",
"U.U.U.U.U.U.U.U.U.U.U.U.U.U.U.U.U.LXLXLXKX@ @ H.6 u.j.j.k.k.k.k.j.j.j.j.k.k.x jX- - @ GXKXLXU.U.U.U.U.U.U.U.U.U.U.U.U.U.U.U.U.U.",
"U.U.U.U.U.U.U.U.U.U.U.U.U.U.U.U.LXLXLXO - .XyXt.k.j.j.j.k.k.k.k.k.j.k.k.k.k.j.8 NXNXs O O KXKXLXU.U.U.U.U.U.U.U.U.U.U.U.U.U.U.U.",
"U.U.U.U.U.U.U.U.U.U.U.U.U.U.U.LXLX2XO O BXzX0 k.k.k.j.j.k.k.k.k.k.k.k.k.k.k.j.d.<XNXNXhXO . KXLXLXU.U.U.U.U.U.U.U.U.U.U.U.U.U.U.",
"U.U.U.U.U.U.U.U.U.U.U.U.U.U.LXLXLX@ O NXNXzXw.k.k.k.j.j.j.j.j.j.j.j.j.k.k.k.j.u.^ NXVXVXMXO O :XLXLXU.U.U.U.U.U.U.U.U.U.U.U.U.U.",
"U.U.U.U.U.U.U.U.U.U.U.U.U.U.LXLXO O VXVXVX>.k.k.k.k.j.j.j.j.j.j.j.k.k.k.k.k.j.u.( NXVXVXVXNX- O 1XLXLXU.U.U.U.U.U.U.U.U.U.U.U.U.",
"U.U.U.U.U.U.U.U.U.U.U.U.U.LXFXO O NXVXVXVX$.k.k.k.k.k.k.k.k.j.j.k.j.j.j.k.k.j.y.[ NXVXVXVXVXVX< O LXLXU.U.U.U.U.U.U.U.U.U.U.U.U.",
"U.U.U.U.U.U.U.U.U.U.U.U.LXLX+.O kXNXVXVXVX$.k.k.k.k.k.k.k.k.k.k.j.j.j.j.k.j.k.y.NXNXVXVXVXVXVXNXO - LXLXU.U.U.U.U.U.U.U.U.U.U.U.",
"U.U.U.U.U.U.U.U.U.U.U.U.LXLXO T.NXVXVXVXVX^.k.k.k.k.k.k.k.k.k.k.k.k.k.j.k.k.k.8 VXVXVXVXVXVXVXVXkXO O LXLXU.U.U.U.U.U.U.U.U.U.U.",
"U.U.U.U.U.U.U.U.U.U.U.LXLXW.O l BXVXVXVXVXzXx k.k.k.k.j.k.k.j.k.j.j.k.k.k.k.u..XVXVXVXVXVXNXNXq w.B O HXLXU.U.U.U.U.U.U.U.U.U.U.",
"U.U.U.U.U.U.U.U.U.U.U.LXLXO t.k.0 NXVXVXVXNX5 u.u.k.j.j.j.j.j.j.j.k.k.j.u.u.7 VXVXVXVXVXVXNXq y.k.u.$ 6.JXLXU.U.U.U.U.U.U.U.U.U.",
"U.U.U.U.U.U.U.U.U.U.U.LX:XO k.k.0 NXVXVXVXNXcXN u.k.j.j.j.j.j.j.k.k.k.k.u.v hXVXVXVXVXVXVX[.,.y.k.u.u.O JXLXU.U.U.U.U.U.U.U.U.U.",
"U.U.U.U.U.U.U.U.U.U.LXLX+ O k.k.y.NXVXVXVXVXMXcX5 y.k.k.k.k.k.k.k.k.y.j zXzXVXVXVXVXVXVXNX: y.j.k.k.k.O &XLXU.U.U.U.U.U.U.U.U.U.",
"U.U.U.U.U.U.U.U.U.U.LXLXO n j.k.u.CXVXVXVXVXVXVXVX.Xk a.a.u.u.s.8 8 zXNXVXVXVXVXVXVXVXVXCXu.u.j.k.k.k.$ @ LXLXU.U.U.U.U.U.U.U.U.",
"U.U.U.U.U.U.U.U.U.U.LXLXO j.k.k.u..XVXVXVXVXVXVXVXVXVXVXVXVXVXVXVXVXVXVXVXVXVXVXVXVXVXVX*.j.k.k.k.k.k.e.O LXLXU.U.U.U.U.U.U.U.U.",
"U.U.U.U.U.U.U.U.U.U.LXR.O j.k.k.y.NXVXVXVXVXVXVXVXVXVXVXVXVXVXVXVXVXVXVXVXVXVXVXVXVXVXVX5 k.k.k.k.j.k.k.O &XLXU.U.U.U.U.U.U.U.U.",
"U.U.U.U.U.U.U.U.U.U.LXR.O k.k.k.y.NXVXVXVXVXVXVXVXVXVXVXVXVXVXVXVXVXVXVXVXVXVXVXVXVXVXVX5 k.k.k.j.k.k.j.O . LXU.U.U.U.U.U.U.U.U.",
"U.U.U.U.U.U.U.U.U.U.LXR.O k.k.k.w.NXVXVXVXVXVXVXVXVXVXVXVXVXVXVXVXVXVXVXVXVXVXVXVXVXVXVXh k.k.k.j.k.j.j.O @ LXU.U.U.U.U.U.U.U.U.",
"U.U.U.U.U.U.U.U.U.U.LX-XO k.k.k.h VXVXVXVXVXVXVXVXVXVXVXVXVXVXVXVXVXVXVXVXVXVXVXVXVXVXVX2.k.k.k.k.j.j.j.O - LXU.U.U.U.U.U.U.U.U.",
"U.U.U.U.U.U.U.U.U.U.LXLXO u.u.u.M.VXVXVXVXVXVXVXVXMXNXzXzXZXNXzXzXzXNXVXVXVXVXVXVXVXVXVXNXw.u.k.k.j.j.j.O O LXU.U.U.U.U.U.U.U.U.",
"U.U.U.U.U.U.U.U.U.U.LXLXO e.u.e kXVXVXVXVXVXVXVXVXX.@ - - @ @ . : o.NXVXVXVXVXVXVXVXVXVXNX$ u.k.k.k.j.j.O 4.LXU.U.U.U.U.U.U.U.U.",
"U.U.U.U.U.U.U.U.U.U.LXLXO $ ~ tXNXVXVXVXVXVXNX& & 0X0X0X0X0X0X0X0X0X- O .XNXVXVXVXVXVXVXVXbX*.k.k.j.j.r.O -XLXU.U.U.U.U.U.U.U.U.",
"U.U.U.U.U.U.U.U.U.U.U.LX5.$ O.NXVXVXVXVXVXzX@ 0X0XqXqXqXqXqXqXqXqXqXqX8XR O kXNXVXVXVXVXVXzXi h.k.k.k.$ O LXLXU.U.U.U.U.U.U.U.U.",
"U.U.U.U.U.U.U.U.U.U.U.LXLXO NXNXVXVXVXVXVX/.O qXqXqXqXqXqXqXqXqX0X0XqXqXqXqX, @XNXNXVXVXVXVXVX< &.y.y.$ - LXLXU.U.U.U.U.U.U.U.U.",
"U.U.U.U.U.U.U.U.U.U.U.LXLXp 1 NXVXVXVXVXVX@ V.qXqXqXqXqXqXqXqXqX0XC.qXqXqXqX0X: <XNXVXVXVXVXVXNXuX* m $ 5.LXLXU.U.U.U.U.U.U.U.U.",
"U.U.U.U.U.U.U.U.U.U.U.U.LXJX@ } NXVXVXVXNXO 0XO K 8XqXqXqXqXqX0XO I.0XqXqXqXqX8X@ fXVXVXVXVXVXVXVXzX@ + KXLXU.U.U.U.U.U.U.U.U.U.",
"U.U.U.U.U.U.U.U.U.U.U.U.LXLX- - OXNXVXVX.XO qX6XX O F.qXqXqX@ + F 8XqXqXqXqXqXqXO f NXVXVXVXVXVXNX/ O | LXLXU.U.U.U.U.U.U.U.U.U.",
"U.U.U.U.U.U.U.U.U.U.U.U.U.LXLXO O (.NXNX| @ qX8XX O qXqXqXqX0X+ -.0XqXqXqXqXqXqXa ) VXVXVXVXVXNX| O O KXLXU.U.U.U.U.U.U.U.U.U.U.",
"U.U.U.U.U.U.U.U.U.U.U.U.U.U.LXLX-XO O aX@ =.qX8XO O qX0X0X9X0XO qXqXqXqXqXqXqXqXt O NXVXVXMXMXO O O KXLXU.U.U.U.U.U.U.U.U.U.U.U.",
"U.U.U.U.U.U.U.U.U.U.U.U.U.U.U.LXLXDXO O @ =.qX8XK qXqX0XJ.9X0XH qXqXqXqXqXqXqXqXO O NXVXVX_.@ O O KXKXU.U.U.U.U.U.U.U.U.U.U.U.U.",
"U.U.U.U.U.U.U.U.U.U.U.U.U.U.U.U.LXLXLX4.O <.qXqXqXqXK O O O O qXqXqXqXqXqXqXqX0XO O NXoXO + + @ LXLXLXU.U.U.U.U.U.U.U.U.U.U.U.U.",
"U.U.U.U.U.U.U.U.U.U.U.U.U.U.LXLXLXLXLXLX= O qXqXqX8XO + + + O ! qXqXqXqXqXqXqX6XO O @ + O - W.LXLXLXU.U.U.U.U.U.U.U.U.U.U.U.U.U.",
"U.U.U.U.U.U.U.U.U.U.U.U.U.U.LXLXJXLXLXLX1 @ 0XqXqX:.O & Y p.b O qXqXqXqXqXqX0XW O O O < #X8.O ] HXLXLXU.U.U.U.U.U.U.U.U.U.U.U.U.",
"U.U.U.U.U.U.U.U.U.U.U.U.U.LXLX- O O > > JX@ P.qXqX:.O p.p.p.p.O qXqXqXqXqXqX0XO O 8.HX< - O O O O LXLXU.U.U.U.U.U.U.U.U.U.U.U.U.",
"U.U.U.U.U.U.U.U.U.U.U.U.U.LXO O V.V.O O @ O @ qXqX7XU f.f.f.p.& qXqXqXqX0X0X- + #.@ O O O 0X0X8XO 2 LXU.U.U.U.U.U.U.U.U.U.U.U.U.",
"U.U.U.U.U.U.U.U.U.U.U.U.U.LX+ + 0XqX0XD.O + O : qX0X* p.p.p.$ K.qXqXqX0X4XO + O & & @ 7XqXqXqX0XO - LXU.U.U.U.U.U.U.U.U.U.U.U.U.",
"U.U.U.U.U.U.U.U.U.U.U.U.U.LX@ @ qX6XqXqXqX! O @ @ A.6XV.G ;.0X8X8X8X5XO @ @ & n.qXqXqXqXqX0X0XS.O @.LXU.U.U.U.U.U.U.U.U.U.U.U.U.",
"U.U.U.U.U.U.U.U.U.U.U.U.U.LXGX@ O 6XqXqXqX0X8X].@ O O . G ;.<.R O O O O @ rX8X0XqXqXqXqXqX0X> & O LXLXU.U.U.U.U.U.U.U.U.U.U.U.U.",
"U.U.U.U.U.U.U.U.U.U.U.U.U.LXLX-XO qX0X0X0XqXqX0X: O O O O + + + O O B + O 8X0X0XqXqXqXqXqX6X@ O KXLXLXU.U.U.U.U.U.U.U.U.U.U.U.U.",
"U.U.U.U.U.U.U.U.U.U.U.U.U.U.LXLX@ O O O O O K O B $ 8X0X0X0X0XL.k.k.k.O O O Z.8X8X8X0X0X8X0X@ @ LXLXU.U.U.U.U.U.U.U.U.U.U.U.U.U.",
"U.U.U.U.U.U.U.U.U.U.U.U.U.U.U.LXLXAXiX+X- O O w.z =.qXqXqXqXqXG.k.k.k.u.O O O O O O O O O + + - LXLXU.U.U.U.U.U.U.U.U.U.U.U.U.U.",
"U.U.U.U.U.U.U.U.U.U.U.U.U.U.U.U.LXLXLXLXLX*XO g.@ `.` ' ' `.XXeXy.y.k.k.k.k.k.y.% dXLXLXLXiXxXLXLXU.U.U.U.U.U.U.U.U.U.U.U.U.U.U.",
"U.U.U.U.U.U.U.U.U.U.U.U.U.U.U.U.U.U.U.LXLX: u.@ T nXmXNXNXnXXXN.c y.k.k.k.k.k.y.%.% LXLXLXLXLXLXU.U.U.U.U.U.U.U.U.U.U.U.U.U.U.U.",
"U.U.U.U.U.U.U.U.U.U.U.U.U.U.U.U.U.U.U.LXLXO u.: NXVXVXVXVXVXVXNXO y.k.k.k.k.k.k.u.O LXLXU.U.U.U.U.U.U.U.U.U.U.U.U.U.U.U.U.U.U.U.",
"U.U.U.U.U.U.U.U.U.U.U.U.U.U.U.U.U.U.U.LXLX% y.2 NXVXVXVXVXVXVXNX_ $ y.k.k.k.y.y.* * LXLXU.U.U.U.U.U.U.U.U.U.U.U.U.U.U.U.U.U.U.U.",
"U.U.U.U.U.U.U.U.U.U.U.U.U.U.U.U.U.U.U.LXLX7.O VXVXVXVXVXVXVXVXVXNX@ O I i.M ; O d LXLXU.U.U.U.U.U.U.U.U.U.U.U.U.U.U.U.U.U.U.U.U.",
"U.U.U.U.U.U.U.U.U.U.U.U.U.U.U.U.U.U.U.U.LXKXO VXVXVXVXVXVXVXVXVXNXNXhXm.M @ 9.O 3XLXU.U.U.U.U.U.U.U.U.U.U.U.U.U.U.U.U.U.U.U.U.U.",
"U.U.U.U.U.U.U.U.U.U.U.U.U.U.U.U.U.U.U.U.U.LXHX> NXVXVXVXVXVXVXVXVXVXNXO O O + O sXLXU.U.U.U.U.U.U.U.U.U.U.U.U.U.U.U.U.U.U.U.U.U.",
"U.U.U.U.U.U.U.U.U.U.U.U.U.U.U.U.U.U.U.U.U.LXKX@ @ NXVXVXVXVXVXVXNXNXO O & z.v.O O HXLXU.U.U.U.U.U.U.U.U.U.U.U.U.U.U.U.U.U.U.U.U.",
"U.U.U.U.U.U.U.U.U.U.U.U.U.U.U.U.U.U.U.U.LXLXFX& & @ zXNXNXNXVXNXzX@ O S c.c.c.u O KXLXU.U.U.U.U.U.U.U.U.U.U.U.U.U.U.U.U.U.U.U.U.",
"U.U.U.U.U.U.U.U.U.U.U.U.U.U.U.U.U.U.U.U.LXLX@ & l.@ - O } ,XVXNX(.@ y v.c.c.c.S O KXLXU.U.U.U.U.U.U.U.U.U.U.U.U.U.U.U.U.U.U.U.U.",
"U.U.U.U.U.U.U.U.U.U.U.U.U.U.U.U.U.U.U.U.LXLXO v.v.v.v.S @ + O O + + v.c.c.c.c.S O KXLXU.U.U.U.U.U.U.U.U.U.U.U.U.U.U.U.U.U.U.U.U.",
"U.U.U.U.U.U.U.U.U.U.U.U.U.U.U.U.U.U.U.U.LX5.O c.c.c.c.v.& O LXLXO w v.c.c.c.c.O O HXLXU.U.U.U.U.U.U.U.U.U.U.U.U.U.U.U.U.U.U.U.U.",
"U.U.U.U.U.U.U.U.U.U.U.U.U.U.U.U.U.U.U.LXLXO O c.c.c.c.b.O - LXLXO D c.c.c.c.z.O > LXU.U.U.U.U.U.U.U.U.U.U.U.U.U.U.U.U.U.U.U.U.U.",
"U.U.U.U.U.U.U.U.U.U.U.U.U.U.U.U.U.U.U.U.LXLXO l.l.v.z.O O LXLXLXO V v.c.c.c.C - lXLXU.U.U.U.U.U.U.U.U.U.U.U.U.U.U.U.U.U.U.U.U.U.",
"U.U.U.U.U.U.U.U.U.U.U.U.U.U.U.U.U.U.U.U.LXLX1 O O r @ O W.LXLXLXO O v.c.c.c.@ - LXLXU.U.U.U.U.U.U.U.U.U.U.U.U.U.U.U.U.U.U.U.U.U.",
"U.U.U.U.U.U.U.U.U.U.U.U.U.U.U.U.U.U.U.U.U.LXLXO O + O ;XLXLXU.LXSXO O C C O O KXLXLXU.U.U.U.U.U.U.U.U.U.U.U.U.U.U.U.U.U.U.U.U.U.",
"U.U.U.U.U.U.U.U.U.U.U.U.U.U.U.U.U.U.U.U.U.U.LXLXLXLXLXLXLXU.U.LXLX-X@ O O O $XLXLXU.U.U.U.U.U.U.U.U.U.U.U.U.U.U.U.U.U.U.U.U.U.U.",
"U.U.U.U.U.U.U.U.U.U.U.U.U.U.U.U.U.U.U.U.U.U.U.LXLXLXLXLXU.U.U.U.LXLXLXLXLXLXLXLXU.U.U.U.U.U.U.U.U.U.U.U.U.U.U.U.U.U.U.U.U.U.U.U.",
"U.U.U.U.U.U.U.U.U.U.U.U.U.U.U.U.U.U.U.U.U.U.U.U.U.U.U.U.U.U.U.U.U.LXLXLXLXLXLXU.U.U.U.U.U.U.U.U.U.U.U.U.U.U.U.U.U.U.U.U.U.U.U.U."
};
