/* XPM */
static char *toad4[] = {
/* columns rows colors chars-per-pixel */
"64 64 228 2 ",
"   c #020202",
".  c #020402",
"X  c #020407",
"o  c #020707",
"O  c #070407",
"+  c #070707",
"@  c #070907",
"#  c #070C07",
"$  c #110707",
"%  c #1B0407",
"&  c #1B0707",
"*  c #110C07",
"=  c #1B0C07",
"-  c #1B1107",
";  c #070C11",
":  c #110C11",
">  c #071111",
",  c #07151B",
"<  c #111111",
"1  c #111511",
"2  c #1B1111",
"3  c #1B1511",
"4  c #1B151B",
"5  c #1B1A1B",
"6  c #1B1F1B",
"7  c #240407",
"8  c #2D0402",
"9  c #2D0707",
"0  c #2D0C07",
"q  c #360000",
"w  c #360002",
"e  c #360202",
"r  c #360407",
"t  c #3F0D0D",
"y  c #341C11",
"u  c #361F11",
"i  c #391E11",
"p  c #391F11",
"a  c #3D1F11",
"s  c #02282D",
"d  c gray13",
"f  c #242324",
"g  c #362824",
"h  c #342B24",
"j  c #400000",
"k  c #400002",
"l  c #400202",
"z  c #490002",
"x  c #490402",
"c  c #40090B",
"v  c #420D0E",
"b  c #450D0D",
"n  c #450D0E",
"m  c #490D0E",
"M  c #510000",
"N  c #4C110D",
"B  c #4C100E",
"V  c #51100E",
"C  c #451511",
"Z  c #491514",
"A  c #63110D",
"S  c #631111",
"D  c #6F1311",
"F  c #6B1511",
"G  c #741414",
"H  c #7C1515",
"J  c #512D14",
"K  c #63351B",
"L  c #68361B",
"P  c #421F21",
"I  c #492724",
"U  c #49392D",
"Y  c #493A31",
"T  c #493D36",
"R  c #4C3F34",
"E  c #513F36",
"W  c #7A3839",
"Q  c #4E4036",
"!  c #4E4136",
"~  c #514036",
"^  c #564336",
"/  c #56433D",
"(  c #56443D",
")  c #6E403D",
"_  c #494340",
"`  c #514C42",
"'  c #51504E",
"]  c #515051",
"[  c #515351",
"{  c #545551",
"}  c #5A5556",
"|  c #5D5756",
" . c #575854",
".. c #575A57",
"X. c #5A5856",
"o. c #5D5A56",
"O. c #5D5C5D",
"+. c #684440",
"@. c #6B4445",
"#. c #744C49",
"$. c #6E504C",
"%. c #785D4D",
"&. c #7A5F4E",
"*. c #635151",
"=. c #6E5551",
"-. c #7A5151",
";. c #7F6554",
":. c #605E60",
">. c #606260",
",. c #626462",
"<. c #656165",
"1. c #656565",
"2. c #6B686B",
"3. c #6B696B",
"4. c #747574",
"5. c #7C7878",
"6. c #841414",
"7. c #871414",
"8. c #951511",
"9. c #951A11",
"0. c #B61F1B",
"q. c #BE1A1B",
"w. c #BF1E1B",
"e. c #BE1F1B",
"r. c #823436",
"t. c #883936",
"y. c #873C39",
"u. c #B62324",
"i. c #BE2324",
"p. c #B62824",
"a. c #B6312D",
"s. c #C21C1A",
"d. c #C11E1B",
"f. c #C71F1B",
"g. c #954724",
"h. c #954C24",
"j. c #984D21",
"k. c #9A4D21",
"l. c #9D4C24",
"z. c #9D5024",
"x. c #874139",
"c. c #846956",
"v. c #847668",
"b. c #907263",
"n. c #907463",
"m. c #907563",
"M. c #927663",
"N. c #927665",
"B. c #987865",
"V. c #987C65",
"C. c #9D7E6B",
"Z. c #D77A74",
"A. c #9A816D",
"S. c #AB867F",
"D. c #BE977C",
"F. c magenta",
"G. c #858785",
"H. c #8D8785",
"J. c #888688",
"K. c #888888",
"L. c #8C8A8C",
"P. c #9A9A95",
"I. c #9A9C95",
"U. c #A98E85",
"Y. c #AE8E8A",
"T. c #A8978A",
"R. c #AB9692",
"E. c #A09C95",
"W. c #A39C95",
"Q. c #AB9A95",
"!. c #A39E98",
"~. c #B69A95",
"^. c #BEA795",
"/. c #A6A4A0",
"(. c #A6A3A6",
"). c gray65",
"_. c #ABAAAB",
"`. c gray67",
"'. c #AEAFAE",
"]. c #B0B2B0",
"[. c #B3B2B3",
"{. c gray70",
"}. c #B9B7B9",
"|. c #C79F85",
" X c #C7A385",
".X c #CFA385",
"XX c #CFA38D",
"oX c #CFA78D",
"OX c #CFAB8D",
"+X c #D2A78A",
"@X c #D7A78D",
"#X c #D4A88D",
"$X c #D7AB8D",
"%X c #D7AF8D",
"&X c #D7BFAE",
"*X c #FFB3A6",
"=X c #E8B3B6",
"-X c #EFBFB6",
";X c #C7C4C7",
":X c #CFCCC7",
">X c gray79",
",X c #D7CCC7",
"<X c #CFD0CF",
"1X c #D7D0C7",
"2X c #D7D4CF",
"3X c #D7D8CF",
"4X c #DFD8CF",
"5X c #D7D8D7",
"6X c #DFD8D7",
"7X c #DFDCD7",
"8X c #E8D0C7",
"9X c #EFD8C7",
"0X c #E8D8CF",
"qX c #E8DCD7",
"wX c #DFE0D7",
"eX c #DFE0DF",
"rX c #E8E0D7",
"tX c #E8E4D7",
"yX c #E5E0DA",
"uX c #E8E4DF",
"iX c gray91",
"pX c #E8ECE8",
"aX c #EFEFEF",
"sX c #F7F3F7",
"dX c gray97",
"fX c #F7FBF7",
"gX c #FFFBFF",
"hX c white",
/* pixels */
"F.F.F.F.F.F.F.F.F.F.F.F.F.F.F.F.F.F.F.F.F.F.F.F.F.F.F.hXhXhXhXhXhXhXhXhXF.F.F.F.F.F.F.F.F.F.F.F.F.F.F.F.F.F.F.F.F.F.F.F.F.F.F.F.",
"F.F.F.F.F.F.F.F.F.F.F.F.F.F.F.F.F.F.F.F.F.F.F.hXhXhXhXhXhXhXhXhXhXhXhXhXhXhXhXhXF.F.F.F.F.F.F.F.F.F.F.F.F.F.F.F.F.F.F.F.F.F.F.F.",
"F.F.F.F.F.F.F.F.F.F.F.F.F.F.F.F.F.F.F.F.F.hXhXgXgXdX4.@ @ + + + + + + +  .iXhXhXhXhXF.F.F.F.F.F.F.F.F.F.F.F.F.F.F.F.F.F.F.F.F.F.",
"F.F.F.F.F.F.F.F.F.F.F.F.F.F.F.F.F.F.F.hXhXhXhX<.: + + @ @ G q.q.q.q.A + # # < f hXhXhXhXF.F.F.F.F.F.F.F.F.F.F.F.F.F.F.F.F.F.F.F.",
"F.F.F.F.F.F.F.F.F.F.F.F.F.F.F.F.F.F.hXhXhX4 + # # 4X7 q.q.s.s.s.s.s.s.q.q.q.6.+ : : hXhXhXF.F.F.F.F.F.F.F.F.F.F.F.F.F.F.F.F.F.F.",
"F.F.F.F.F.F.F.F.F.F.F.F.F.F.F.F.F.hXhX].# # | wXwXe e.s.s.s.s.s.s.s.s.s.s.s.s.q.+ + + 1.hXhXhXF.F.F.F.F.F.F.F.F.F.F.F.F.F.F.F.F.",
"F.F.F.F.F.F.F.F.F.F.F.F.F.F.F.F.hXhX# # # rXyXqX0 e.s.s.s.s.s.s.s.s.s.s.s.s.s.s.q.+ 5 # + pXhXhXF.F.F.F.F.F.F.F.F.F.F.F.F.F.F.F.",
"F.F.F.F.F.F.F.F.F.F.F.F.F.F.F.hXhX+ # P.7XrXyXQ.=.e.s.s.s.s.s.s.s.s.s.s.s.s.s.s.q.q.rX1X+ + hXhXhXF.F.F.F.F.F.F.F.F.F.F.F.F.F.F.",
"F.F.F.F.F.F.F.F.F.F.F.F.F.F.hXhX+ + rXyXyXyXrX; e.s.s.s.s.s.s.s.s.s.s.s.s.s.s.s.s.s.@.rXuX1 + hXhXhXF.F.F.F.F.F.F.F.F.F.F.F.F.F.",
"F.F.F.F.F.F.F.F.F.F.F.F.F.hXhX+ + 4XyXyXyXyXrXo q.s.s.s.s.s.s.s.s.s.s.s.s.s.s.s.s.s.e yXrXrX  + hXhXhXF.F.F.F.F.F.F.F.F.F.F.F.F.",
"F.F.F.F.F.F.F.F.F.F.F.F.hXhX>.+ m 4XyXyXyXyXrXv q.s.s.s.s.s.s.s.s.s.s.s.s.s.s.s.s.s.+.yXyXyXrX< : pXhXF.F.F.F.F.F.F.F.F.F.F.F.F.",
"F.F.F.F.F.F.F.F.F.F.F.F.hXhX# m q.9 yXyXyXyXrXo q.s.s.s.s.s.s.s.s.s.s.s.s.s.s.s.s.s.U.yXyXyXrXuX: : hXhXF.F.F.F.F.F.F.F.F.F.F.F.",
"F.F.F.F.F.F.F.F.F.F.F.hXhX: + s.s.& yXyXyXyXrX+ e.s.s.s.s.s.s.s.s.s.s.s.s.s.s.s.e.H 7XyXyXyXyXrX/.# J.hXhXF.F.F.F.F.F.F.F.F.F.F.",
"F.F.F.F.F.F.F.F.F.F.F.hX].+ e.s.s.v yXyXyXyXyXS.) s.s.s.s.s.s.s.s.s.s.s.s.s.s.s.r.j rXyXyXyXyXyXrX6 + hXhXF.F.F.F.F.F.F.F.F.F.F.",
"F.F.F.F.F.F.F.F.F.F.hXfX+ $ s.s.s.Z yXyXyXyXyXrX+ y.e.s.s.s.s.s.s.s.s.s.s.s.s.p.< rXyXyXyXyXyXyXyXyX+ : hXhXF.F.F.F.F.F.F.F.F.F.",
"F.F.F.F.F.F.F.F.F.F.hXfX+ e.s.s.s.> yXyXyXyXyXrXrXz e.s.s.s.s.s.s.s.s.s.s.s.s.c rXrXyXyXyXyXyXyXyXyX' : hXhXF.F.F.F.F.F.F.F.F.F.",
"F.F.F.F.F.F.F.F.F.hXhX# # q.s.s.s.j yXyXyXyXyXyXyXrX8X$ q.s.s.s.s.s.s.s.q.$ -XrXyXyXyXyXyXyXyXrX8 $.a.+ f hXhXF.F.F.F.F.F.F.F.F.",
"F.F.F.F.F.F.F.F.F.hXhX@ @ q.s.s.s.R.yXyXyXyXyXyXyXyXyX7X7XY.M s P , M -.rXrXrXyXyXyXyXyXyXyXrXj e.e.s.B < hXhXF.F.F.F.F.F.F.F.F.",
"F.F.F.F.F.F.F.F.F.hXhX+ t s.s.q.6.wXyXyXyXyXyXyXyXyXyXyXyXyXyXyXyXyXyXyXyXyXyXyXyXyXyXyXyXyXr s.s.s.s.q.+ eXhXF.F.F.F.F.F.F.F.F.",
"F.F.F.F.F.F.F.F.F.hXhX+ F s.s.x.x rXyXyXyXyXyXyXyXyXyXyXyXyXyXyXyXyXyXyXyXyXyXyXyXyXyXyXrX!.q.s.s.s.s.q.@ @ hXF.F.F.F.F.F.F.F.F.",
"F.F.F.F.F.F.F.F.F.hXhX+ F s.s.x.*XrXyXyXyXyXyXyXyXyXyXyXyXyXyXyXyXyXyXyXyXyXyXyXyXyXyXyXrX< q.s.s.s.s.q.@ @ hXF.F.F.F.F.F.F.F.F.",
"F.F.F.F.F.F.F.F.F.hXhX+ b s.q.2 rXyXyXyXyXyXyXyXyXyXyXyXyXyXyXyXyXyXyXyXyXyXyXyXyXyXyXyX0X#.s.s.s.s.s.s.S + hXF.F.F.F.F.F.F.F.F.",
"F.F.F.F.F.F.F.F.F.hXhX@ @ q.& yXyXyXyXyXyXyXyXyXyXyXrXyXyXyXyXyXyXyXyXyXyXyXyXyXyXyXyXyXZ.t.s.s.s.s.s.s.8.+ hXF.F.F.F.F.F.F.F.F.",
"F.F.F.F.F.F.F.F.F.hXhX+ + 1 yXyXyXyXyXyXyX7X7X&X` + + + R ^.2XtXrXrXyXyXyXyXyXyXyXyXyXyXI i.s.s.s.s.s.s.9.+ hXF.F.F.F.F.F.F.F.F.",
"F.F.F.F.F.F.F.F.F.F.hX<X+ uXyXyXyXyXyXyXyX} + ` &X X@X X Xv.* 5 G.rXyXyXyXyXyXyXyXyXyXyXI i.s.s.s.s.s.s.9.+ hXF.F.F.F.F.F.F.F.F.",
"F.F.F.F.F.F.F.F.F.F.hXhX1 { yXyXyXyXyXrX# * @X#X#X#X#X#X#X#X@XXXA.# 5.rXyXyXyXyXyXyXyXyX=XW s.s.s.s.s.s.B + hXF.F.F.F.F.F.F.F.F.",
"F.F.F.F.F.F.F.F.F.F.hXhX4 + rXyXyXyXyX7X# oX#X#X#X#X#X#X#X#X#X#X#X#Xm.3 rXrXyXyXyXyXyXyX0X#.s.s.s.s.s.q.@ @ hXF.F.F.F.F.F.F.F.F.",
"F.F.F.F.F.F.F.F.F.F.F.hXhX+ < rXrXyXrXY + @XoXc.D.#X#X#X#X#X@X+X#X#X#X@X* 9XrXyXyXyXyXyXrX< q.s.s.s.s.q.+ + hXF.F.F.F.F.F.F.F.F.",
"F.F.F.F.F.F.F.F.F.F.F.hXhXO.< 2XrXyXrX+ D.@XoX+ Y #X#X#X#X#X&.|.#X#X#X@XT.* rXyXyXyXyXyXrXo.q.s.s.s.s.6.+ 5XhXF.F.F.F.F.F.F.F.F.",
"F.F.F.F.F.F.F.F.F.F.F.F.hXhX+ + wXyXE.: #X#Xb.+ c.#X#X#X#XoX+ U #X#X#X#X@X@X: rXyXyXyXyXrXrXe s.s.s.q.+ # hXhXF.F.F.F.F.F.F.F.F.",
"F.F.F.F.F.F.F.F.F.F.hXhXhXgX].@ @ rX# 3 @X#X+ + @X#X#X#X#XN.@ ;.#X#X#X#X#X#Xm.} rXrXyXyXyXyXrXe q.q.b + ,.fXhXF.F.F.F.F.F.F.F.F.",
"F.F.F.F.F.F.F.F.F.F.hXgX+ + + + + @ + D.@X#X+ < @X#X#X#X#X+ + #X#X#X#X#X#X#X#X@ + :X6Xd + H.7XrX& *.+ 1 hXhXF.F.F.F.F.F.F.F.F.F.",
"F.F.F.F.F.F.F.F.F.hXhX+ + h .XE + @ + @X@X#X#X@X@X#X#X#X#X+ + #X#X#X#X#X#X#X* @ + + + + + + X.rXrX& + ].hXhXF.F.F.F.F.F.F.F.F.F.",
"F.F.F.F.F.F.F.F.F.hXhX+ + oX#XoX+ Q + #X#X#X#X#X#X#X#X#X#X^ B.#X#X#X#X#X#X#X+ @X#X+ # @XoX+ + rX+ + + hXhXF.F.F.F.F.F.F.F.F.F.F.",
"F.F.F.F.F.F.F.F.F.hXhX+ C.#X#X@X@X@X# #X#X#X#X#X#X#X#X@X@X#X#X#X#X#X#X#X#X#X+ #X#X* oX#X@X+ @ + # # hXhXF.F.F.F.F.F.F.F.F.F.F.F.",
"F.F.F.F.F.F.F.F.F.hXhX+ h #X#X#X#X@X+ XXXX#X#XoXoX#X#XQ OX#X#X#X#X#X#X#X%XV.# +XoX3 @X#XoX+ @ + : hXhXF.F.F.F.F.F.F.F.F.F.F.F.F.",
"F.F.F.F.F.F.F.F.F.hXhX+ + #X#X#X#X@X+ . XX#X#XoXo # : + Q #X#X#X#X#X#X#XV.: # +XoXoX@X#XoX+ @ (.hXhXF.F.F.F.F.F.F.F.F.F.F.F.F.F.",
"F.F.F.F.F.F.F.F.F.F.hXgX# + @X#X#X#X&.# #X#X#X@X@XoX@X#X# oX#X#X#X#X+X~ @ @ @X#X#X#X#X#X+ + dXhXhXF.F.F.F.F.F.F.F.F.F.F.F.F.F.F.",
"F.F.F.F.F.F.F.F.F.F.hXhX2.# + @X@X#X@X+ + #X#X#X#X#X#X#X#X#X#X#X@X@X< + : oX#X#X#X#XoX+ # >.hXhXF.F.F.F.F.F.F.F.F.F.F.F.F.F.F.F.",
"F.F.F.F.F.F.F.F.F.F.F.hXhX>X# # # #XoX#X3 + oX@X@X#X#X#X#X#X#X#X#X: + + #X#X#XoX#X# @ + 2.hXhXF.F.F.F.F.F.F.F.F.F.F.F.F.F.F.F.F.",
"F.F.F.F.F.F.F.F.F.F.F.F.hXhXhX;X# + < #X#X+ + + @X#X#X#X#X#X#X#X( : + oX#X#X#XQ # # @ aXhXhXF.F.F.F.F.F.F.F.F.F.F.F.F.F.F.F.F.F.",
"F.F.F.F.F.F.F.F.F.F.F.F.F.hXhXhXhXfX# + m.+ @ + + # # T T T + + + + oX#XoXoX# @ : '.hXhXhXF.F.F.F.F.F.F.F.F.F.F.F.F.F.F.F.F.F.F.",
"F.F.F.F.F.F.F.F.F.F.F.F.F.F.F.F.hXhXgX[ # b : oXoX+ + + + + + + @ @ @XoX+ + # 2.hXhXhXF.F.F.F.F.F.F.F.F.F.F.F.F.F.F.F.F.F.F.F.F.",
"F.F.F.F.F.F.F.F.F.F.F.F.F.F.F.F.F.hXhX+ 6.+ m.#X#X#X#X@X* q.s.s.$ $ @ + + + hXhXhXhXF.F.F.F.F.F.F.F.F.F.F.F.F.F.F.F.F.F.F.F.F.F.",
"F.F.F.F.F.F.F.F.F.F.F.F.F.F.F.F.hXhX# m q.+ oX#X#X#X#X@X* q.s.s.f.V @ + + `.hXhXF.F.F.F.F.F.F.F.F.F.F.F.F.F.F.F.F.F.F.F.F.F.F.F.",
"F.F.F.F.F.F.F.F.F.F.F.F.F.F.F.F.hXfX# e.+ # + # # # + / : q.s.s.s.s.e.e.0.# hXhXF.F.F.F.F.F.F.F.F.F.F.F.F.F.F.F.F.F.F.F.F.F.F.F.",
"F.F.F.F.F.F.F.F.F.F.F.F.F.F.F.hXhX# e.u.# 7XrXyXyXrXrXwXI.C s.s.s.s.s.s.e.$ dXhXF.F.F.F.F.F.F.F.F.F.F.F.F.F.F.F.F.F.F.F.F.F.F.F.",
"F.F.F.F.F.F.F.F.F.F.F.F.F.F.F.hXhX# q.* E.yXyXyXyXyXyXyXyX* q.s.s.s.s.s.e.D O.hXF.F.F.F.F.F.F.F.F.F.F.F.F.F.F.F.F.F.F.F.F.F.F.F.",
"F.F.F.F.F.F.F.F.F.F.F.F.F.F.F.hXhXK.# + rXyXyXyXyXyXyXyXyX!.= q.f.f.q.q.* * ].hXF.F.F.F.F.F.F.F.F.F.F.F.F.F.F.F.F.F.F.F.F.F.F.F.",
"F.F.F.F.F.F.F.F.F.F.F.F.F.F.F.F.hXhX>.+ rXyXyXyXyXyXyXyXyXrX~.+ + + + + * hXhXhXF.F.F.F.F.F.F.F.F.F.F.F.F.F.F.F.F.F.F.F.F.F.F.F.",
"F.F.F.F.F.F.F.F.F.F.F.F.F.F.F.F.F.hXgX+ 3XyXyXyXyXyXyXyXyXyXrXrX7X7XrX .< dXhXF.F.F.F.F.F.F.F.F.F.F.F.F.F.F.F.F.F.F.F.F.F.F.F.F.",
"F.F.F.F.F.F.F.F.F.F.F.F.F.F.F.F.F.hXhX+ + wXyXyXyXyXyXyXyXyXyXrXrXrX6X# hXhXF.F.F.F.F.F.F.F.F.F.F.F.F.F.F.F.F.F.F.F.F.F.F.F.F.F.",
"F.F.F.F.F.F.F.F.F.F.F.F.F.F.F.F.F.F.hXaX+ + 4XrXrXyXyXyXyXwX,X_ @ @ @ :.hXhXF.F.F.F.F.F.F.F.F.F.F.F.F.F.F.F.F.F.F.F.F.F.F.F.F.F.",
"F.F.F.F.F.F.F.F.F.F.F.F.F.F.F.F.F.hXhX).+ + # f rXyXyXyXyX5 # + @ @ @ + < hXhXF.F.F.F.F.F.F.F.F.F.F.F.F.F.F.F.F.F.F.F.F.F.F.F.F.",
"F.F.F.F.F.F.F.F.F.F.F.F.F.F.F.F.hXhX].+ + l.l.+ + # + # # + a l.l.l.l.p # `.hXF.F.F.F.F.F.F.F.F.F.F.F.F.F.F.F.F.F.F.F.F.F.F.F.F.",
"F.F.F.F.F.F.F.F.F.F.F.F.F.F.F.F.hXhX+ * h.j.j.j.j.l.L + + z.j.j.j.j.j.l.+ [ hXhXF.F.F.F.F.F.F.F.F.F.F.F.F.F.F.F.F.F.F.F.F.F.F.F.",
"F.F.F.F.F.F.F.F.F.F.F.F.F.F.F.F.hXhX@ u l.j.j.j.j.h.+ # l.j.j.j.j.j.l.g.# `.hXF.F.F.F.F.F.F.F.F.F.F.F.F.F.F.F.F.F.F.F.F.F.F.F.F.",
"F.F.F.F.F.F.F.F.F.F.F.F.F.F.F.F.hXhX@ u l.j.j.j.j.u + # l.j.j.j.j.j.l.+ # sXhXF.F.F.F.F.F.F.F.F.F.F.F.F.F.F.F.F.F.F.F.F.F.F.F.F.",
"F.F.F.F.F.F.F.F.F.F.F.F.F.F.F.F.hXhX+ * h.j.j.h.- + @ * h.j.j.j.l.l.* # gXgXhXF.F.F.F.F.F.F.F.F.F.F.F.F.F.F.F.F.F.F.F.F.F.F.F.F.",
"F.F.F.F.F.F.F.F.F.F.F.F.F.F.F.F.hXhX].+ + p p + + # # + g.l.j.l.L + # }.hXhXF.F.F.F.F.F.F.F.F.F.F.F.F.F.F.F.F.F.F.F.F.F.F.F.F.F.",
"F.F.F.F.F.F.F.F.F.F.F.F.F.F.F.F.F.hXhXL.< # + < ].hXhX+ + J K + < < hXhXhXF.F.F.F.F.F.F.F.F.F.F.F.F.F.F.F.F.F.F.F.F.F.F.F.F.F.F.",
"F.F.F.F.F.F.F.F.F.F.F.F.F.F.F.F.F.F.hXgXgXdXfXhXhXhXhX5X+ + + + L.gXhXhXF.F.F.F.F.F.F.F.F.F.F.F.F.F.F.F.F.F.F.F.F.F.F.F.F.F.F.F.",
"F.F.F.F.F.F.F.F.F.F.F.F.F.F.F.F.F.F.F.hXhXhXhXhXhXF.hXhXhXhXgXhXhXhXhXF.F.F.F.F.F.F.F.F.F.F.F.F.F.F.F.F.F.F.F.F.F.F.F.F.F.F.F.F.",
"F.F.F.F.F.F.F.F.F.F.F.F.F.F.F.F.F.F.F.F.F.F.F.F.F.F.F.hXhXhXhXhXhXF.F.F.F.F.F.F.F.F.F.F.F.F.F.F.F.F.F.F.F.F.F.F.F.F.F.F.F.F.F.F."
};
