/* XPM */
static char *toad3[] = {
/* columns rows colors chars-per-pixel */
"64 64 170 2 ",
"   c #070707",
".  c #070B07",
"X  c #110707",
"o  c #110C07",
"O  c #1B0C07",
"+  c #110C11",
"@  c #1B0C11",
"#  c #111111",
"$  c #1B1311",
"%  c #1B161A",
"&  c #1C1D1C",
"*  c #240405",
"=  c #2D0101",
"-  c #240C07",
";  c #2D0C07",
":  c #2A0C0B",
">  c #360000",
",  c #2D1507",
"<  c #360711",
"1  c #241311",
"2  c #241F1B",
"3  c #2D1316",
"4  c #391F11",
"5  c #3D2311",
"6  c #241F24",
"7  c #362B24",
"8  c #400101",
"9  c #440D0E",
"0  c #490D0E",
"q  c #490202",
"w  c #510000",
"e  c #401511",
"r  c #491312",
"t  c #63110D",
"y  c #661211",
"u  c #6E1411",
"i  c #6F1A1A",
"p  c #7A1412",
"a  c #402311",
"s  c #4D2815",
"d  c #54341E",
"f  c #552A15",
"g  c #63351B",
"h  c #71371B",
"j  c #42362D",
"k  c #4C3A21",
"l  c #5A3A21",
"z  c #423633",
"x  c #4D3D35",
"c  c #682221",
"v  c #752323",
"b  c #7D3837",
"n  c #7A3D39",
"m  c #5B462D",
"M  c #544128",
"N  c #4E4036",
"B  c #604428",
"V  c #6D5836",
"C  c #494C49",
"Z  c #424342",
"A  c #544D4A",
"S  c #4E504C",
"D  c #51504E",
"F  c #565554",
"G  c #5B5B5B",
"H  c #5C5958",
"J  c #654C49",
"K  c #744D49",
"L  c #794443",
"P  c #68554C",
"I  c #745E4D",
"U  c #605751",
"Y  c #685151",
"T  c #675C5A",
"R  c #745456",
"E  c #63605D",
"W  c #746151",
"Q  c #636363",
"!  c #6D6C6C",
"~  c #727472",
"^  c #7C7974",
"/  c #7C7674",
"(  c #841514",
")  c #8C1612",
"_  c #881815",
"`  c #821B18",
"'  c #951511",
"]  c #951A11",
"[  c #9D1A1B",
"{  c #AE1A1B",
"}  c #BE1D1B",
"|  c #9D2C2D",
" . c #833B39",
".. c #953C3A",
"X. c #A02D2A",
"o. c #BE2824",
"O. c #C21C1A",
"+. c #8D4724",
"@. c #944C24",
"#. c #9C4C23",
"$. c #954724",
"%. c #84522D",
"&. c #9D5024",
"*. c #9D582D",
"=. c #92522A",
"-. c #805532",
";. c #8A6D43",
":. c #8C6D5C",
">. c #906F5D",
",. c #90725D",
"<. c #987849",
"1. c #8A7160",
"2. c #937563",
"3. c #957964",
"4. c #997965",
"5. c #BE8F51",
"6. c #B68F5A",
"7. c #A68854",
"8. c #988A7F",
"9. c #A6836D",
"0. c #AE8C77",
"q. c #B68F77",
"w. c #B6907A",
"e. c #C79F63",
"r. c #C7A363",
"t. c #CCA265",
"y. c #CF8F51",
"u. c magenta",
"i. c #8D8D8D",
"p. c #848484",
"a. c #918E91",
"s. c #909090",
"d. c #9A9895",
"f. c #9C9897",
"g. c #B89689",
"h. c #A49D98",
"j. c #A99E98",
"k. c #A09C95",
"l. c #A8A69D",
"z. c #A3A3A0",
"x. c #AEAFA6",
"c. c #A8A7A8",
"v. c #ADACAD",
"b. c #B2ADA5",
"n. c #B1B2B1",
"m. c #CF9F85",
"M. c #C79B85",
"N. c #CFA385",
"B. c #CFA78D",
"V. c #D7A78D",
"C. c #D4A88D",
"Z. c #CFBFBE",
"A. c #EFB3AE",
"S. c #EFC4BE",
"D. c #CFCCC7",
"F. c #DFCCC7",
"G. c #D7D0C7",
"H. c #D7D3CF",
"J. c #DFD9CF",
"K. c #D7D8D7",
"L. c #DFDBD7",
"P. c #DFE0D7",
"I. c #DFE4DF",
"U. c #E8E0D7",
"Y. c #E5E0DA",
"T. c #E8E4DF",
"R. c #EBECEB",
"E. c #F7F6F7",
"W. c #F7FBF7",
"Q. c #FFFFFF",
/* pixels */
"u.u.u.u.u.u.u.u.u.u.u.u.u.u.u.u.u.u.u.u.u.u.u.u.u.u.u.Q.Q.Q.Q.Q.Q.Q.Q.Q.Q.u.u.u.u.u.u.u.u.u.u.u.u.u.u.u.u.u.u.u.u.u.u.u.u.u.u.u.",
"u.u.u.u.u.u.u.u.u.u.u.u.u.u.u.u.u.u.u.u.u.u.u.u.Q.Q.Q.Q.Q.Q.Q.Q.Q.Q.Q.Q.Q.Q.Q.Q.Q.u.u.u.u.u.u.u.u.u.u.u.u.u.u.u.u.u.u.u.u.u.u.u.",
"u.u.u.u.u.u.u.u.u.u.u.u.u.u.u.u.u.u.u.u.u.u.Q.Q.Q.Q.R.z                   c.Q.Q.Q.Q.Q.u.u.u.u.u.u.u.u.u.u.u.u.u.u.u.u.u.u.u.u.u.",
"u.u.u.u.u.u.u.u.u.u.u.u.u.u.u.u.u.u.u.u.Q.Q.Q.Q.& + .   % ) } } } ] ) t   + # # ~ Q.Q.Q.Q.u.u.u.u.u.u.u.u.u.u.u.u.u.u.u.u.u.u.u.",
"u.u.u.u.u.u.u.u.u.u.u.u.u.u.u.u.u.u.Q.Q.Q.Q..     . } } } O.O.O.O.O.O.O.} } p   .   # Q.Q.Q.u.u.u.u.u.u.u.u.u.u.u.u.u.u.u.u.u.u.",
"u.u.u.u.u.u.u.u.u.u.u.u.u.u.u.u.u.Q.Q.E.    + Z.* } O.O.O.O.O.O.O.O.O.O.O.O.} } K F     v.Q.Q.Q.u.u.u.u.u.u.u.u.u.u.u.u.u.u.u.u.",
"u.u.u.u.u.u.u.u.u.u.u.u.u.u.u.u.Q.Q.R.    U.U.X } O.O.O.O.O.O.O.O.O.O.O.O.O.O.O.u U.P.$   . Q.Q.Q.u.u.u.u.u.u.u.u.u.u.u.u.u.u.u.",
"u.u.u.u.u.u.u.u.u.u.u.u.u.u.u.Q.Q.p..   H.U.3 } } O.O.O.O.O.O.O.O.O.O.O.O.O.O.O.} H P.P.H.. % Q.Q.Q.u.u.u.u.u.u.u.u.u.u.u.u.u.u.",
"u.u.u.u.u.u.u.u.u.u.u.u.u.u.Q.Q.i.  D U.U.U.r O.O.O.O.O.O.O.O.O.O.O.O.O.O.O.O.O.O.3 Y.Y.U.U.    W.Q.Q.u.u.u.u.u.u.u.u.u.u.u.u.u.",
"u.u.u.u.u.u.u.u.u.u.u.u.u.Q.Q.K.  D U.Y.Y.U.} O.O.O.O.O.O.O.O.O.O.O.O.O.O.O.O.O.O.r Y.Y.Y.Y.J.    Q.Q.Q.u.u.u.u.u.u.u.u.u.u.u.u.",
"u.u.u.u.u.u.u.u.u.u.u.u.u.Q.E.    U.Y.Y.Y.^ } O.O.O.O.O.O.O.O.O.O.O.O.O.O.O.O.O.O.1 Y.Y.Y.Y.Y.Y.%   Q.Q.u.u.u.u.u.u.u.u.u.u.u.u.",
"u.u.u.u.u.u.u.u.u.u.u.u.Q.Q.+   L.U.Y.Y.Y.^ } O.O.O.O.O.O.O.O.O.O.O.O.O.O.O.O.O.O.T Y.Y.Y.Y.Y.Y.T.  & Q.Q.u.u.u.u.u.u.u.u.u.u.u.",
"u.u.u.u.u.u.u.u.u.u.u.Q.Q.!   $ P.Y.Y.Y.Y.T.} O.O.O.O.O.O.O.O.O.O.O.O.O.O.O.O.O._ L.Y.Y.Y.Y.Y.Y.Y.H.  F Q.Q.u.u.u.u.u.u.u.u.u.u.",
"u.u.u.u.u.u.u.u.u.u.u.Q.Q.  9 ....U.Y.Y.Y.U.= O.O.O.O.O.O.O.O.O.O.O.O.O.O.O.} } = Y.Y.Y.Y.Y.Y.Y.U.J.    Q.Q.u.u.u.u.u.u.u.u.u.u.",
"u.u.u.u.u.u.u.u.u.u.Q.Q.Q   } }   U.Y.Y.Y.Y.T } } O.O.O.O.O.O.O.O.O.O.O.O.} b 8 U.Y.Y.Y.Y.Y.U.U.> } }     Q.Q.u.u.u.u.u.u.u.u.u.",
"u.u.u.u.u.u.u.u.u.u.Q.Q..   } } ( U.Y.Y.Y.Y.U.- } O.O.O.O.O.O.O.O.O.O.O.O.} 8 A.U.Y.Y.Y.Y.Y.U.& n } } }   Q.Q.u.u.u.u.u.u.u.u.u.",
"u.u.u.u.u.u.u.u.u.u.Q.R.  } O.} } L.Y.Y.Y.Y.Y.U.Y i } O.O.O.O.O.O.O.O.O.` K U.U.Y.Y.Y.Y.Y.Y.F.L } O.O.O.  # Q.u.u.u.u.u.u.u.u.u.",
"u.u.u.u.u.u.u.u.u.Q.Q.    } O.O.O.P.Y.Y.Y.Y.Y.Y.Y.U.J w  .} } } }  .< R U.Y.Y.Y.Y.Y.Y.Y.Y.P.  } O.O.O.O.u   Q.u.u.u.u.u.u.u.u.u.",
"u.u.u.u.u.u.u.u.u.Q.Q.    O.O.} } L.Y.Y.Y.Y.Y.Y.Y.Y.Y.Y.Y.Y.Y.Y.Y.Y.Y.Y.Y.Y.Y.Y.Y.Y.Y.Y.Y.P.{ } O.O.O.O.}   n.u.u.u.u.u.u.u.u.u.",
"u.u.u.u.u.u.u.u.u.Q.Q.  p O.O.} ' L.Y.Y.Y.Y.Y.Y.Y.Y.Y.Y.Y.Y.Y.Y.Y.Y.Y.Y.Y.Y.Y.Y.Y.Y.Y.Y.Y.h.} } O.O.O.O.}   # u.u.u.u.u.u.u.u.u.",
"u.u.u.u.u.u.u.u.u.Q.Q.  ] O.O.} ; U.Y.Y.Y.Y.Y.Y.Y.Y.Y.Y.Y.Y.Y.Y.Y.Y.Y.Y.Y.Y.Y.Y.Y.Y.Y.Y.Y.> O.O.O.O.O.O.O.    u.u.u.u.u.u.u.u.u.",
"u.u.u.u.u.u.u.u.u.Q.Q.  ' O.O.} # U.Y.Y.Y.Y.Y.Y.Y.Y.Y.Y.Y.Y.Y.Y.Y.Y.Y.Y.Y.Y.Y.Y.Y.Y.Y.Y.Y.q O.O.O.O.O.O.O.y   u.u.u.u.u.u.u.u.u.",
"u.u.u.u.u.u.u.u.u.Q.Q.  u O.O.L L Y.Y.Y.Y.Y.Y.Y.Y.Y.Y.Y.Y.Y.Y.Y.Y.Y.Y.Y.Y.Y.Y.Y.Y.Y.Y.Y.Y.= O.O.O.O.O.O.O.y   u.u.u.u.u.u.u.u.u.",
"u.u.u.u.u.u.u.u.u.Q.Q.  : O.O.8 S.Y.Y.Y.Y.Y.Y.Y.Y.Y.Y.Y.Y.Y.Y.Y.Y.Y.Y.Y.Y.Y.Y.Y.Y.Y.Y.Y.Y.g.O.O.O.O.O.O.O.y   u.u.u.u.u.u.u.u.u.",
"u.u.u.u.u.u.u.u.u.Q.Q.    } } 2 U.Y.Y.Y.Y.Y.Y.U.U.P.S . . . + F k.U.Y.Y.Y.Y.Y.Y.Y.Y.Y.Y.Y.L._ } O.O.O.O.O.0 # u.u.u.u.u.u.u.u.u.",
"u.u.u.u.u.u.u.u.u.u.Q.z.  } * Y.Y.Y.Y.Y.Y.U.L.# # N B.V.V.V.V.V.2.o # U P.U.Y.Y.Y.Y.Y.Y.Y.U.@ o.O.O.O.O.O.    u.u.u.u.u.u.u.u.u.",
"u.u.u.u.u.u.u.u.u.u.Q.E.    Y.Y.Y.Y.Y.Y.Y.z.+ C.C.C.C.C.C.C.C.C.C.C.C.C.# A L.L.Y.Y.Y.Y.Y.Y.J.Y } O.O.O.} . # u.u.u.u.u.u.u.u.u.",
"u.u.u.u.u.u.u.u.u.u.Q.E.    Y.Y.Y.Y.Y.Y.Y.% N.C.C.C.C.C.C.C.C.C.C.C.C.C.B.8.+ L.Y.Y.Y.Y.Y.Y.J.* } O.O.O.( . n.u.u.u.u.u.u.u.u.u.",
"u.u.u.u.u.u.u.u.u.u.u.Q.Q.  E Y.Y.Y.Y.U.U.  B.V.V.C.C.C.C.C.C.C.C.C.C.C.C.V.g.  U.Y.Y.Y.Y.Y.U.U.= } O.O.    Q.u.u.u.u.u.u.u.u.u.",
"u.u.u.u.u.u.u.u.u.u.u.Q.Q.    U.U.Y.Y.T.&   V.  B.B.C.C.C.C.C.C.4.o C.C.C.C.C.C.# U.Y.Y.Y.Y.Y.Y.U.j.= n   + Q.u.u.u.u.u.u.u.u.u.",
"u.u.u.u.u.u.u.u.u.u.u.u.Q.Q.    G.P.Y.L.  4.C.B.    V.C.C.C.N.    V.C.C.C.C.C.C.V.  Y.Y.Y.Y.Y.Y.Y.U.D.    Q.Q.u.u.u.u.u.u.u.u.u.",
"u.u.u.u.u.u.u.u.u.u.u.u.Q.Q.Q.    P.Y.L.  C.C.B.  :.V.C.C.C.    2 V.C.C.C.C.C.C.V.  Y.Y.Y.Y.Y.Y.Y.U.      Q.Q.u.u.u.u.u.u.u.u.u.",
"u.u.u.u.u.u.u.u.u.u.u.u.u.Q.Q.H     P.U.  V.C.N.  2.C.C.C.C.V.  j C.C.C.C.C.C.C.V.. Y.Y.Y.Y.Y.Y.U.d.. . Q.Q.Q.u.u.u.u.u.u.u.u.u.",
"u.u.u.u.u.u.u.u.u.u.u.u.u.u.Q.Q.C .   /   V.C.V.. V.C.V.V.C.B.o 4.C.C.C.C.C.C.C.V.  Y.Y.Y.Y.U.U.d..   F Q.Q.u.u.u.u.u.u.u.u.u.u.",
"u.u.u.u.u.u.u.u.u.u.u.u.u.u.u.Q.Q.n.      V.C.V.2.V.C.9.q.C.B.o C.C.C.C.C.C.C.C.V.  Y.Y.Y.Y.U.6   . F E.Q.u.u.u.u.u.u.u.u.u.u.u.",
"u.u.u.u.u.u.u.u.u.u.u.u.u.u.u.u.Q.Q.Q.&   V.C.C.C.V.. . .   3.V.V.C.C.C.C.C.C.C.2.. Y.Y.U.F       G Q.Q.u.u.u.u.u.u.u.u.u.u.u.u.",
"u.u.u.u.u.u.u.u.u.u.u.u.u.u.u.u.u.Q.Q.s.  V.C.C.C.# . . . .   C.C.C.C.C.C.C.C.C.+ + l.#   . . . W.Q.Q.u.u.u.u.u.u.u.u.u.u.u.u.u.",
"u.u.u.u.u.u.u.u.u.u.u.u.u.u.u.u.u.u.Q.Q.# V.C.C.C.    e | v   9.V.C.C.C.C.C.V.V.  .     . # I.Q.Q.Q.u.u.u.u.u.u.u.u.u.u.u.u.u.u.",
"u.u.u.u.u.u.u.u.u.u.u.u.u.u.Q.Q.Q.Q.Q.Q.# o C.C.C.  | | | | | W V.C.C.C.C.C.V.$   .   i.R.Q.Q.Q.Q.u.u.u.u.u.u.u.u.u.u.u.u.u.u.u.",
"u.u.u.u.u.u.u.u.u.u.u.u.Q.Q.Q.Q.Q.Q.Q.Q.a.  4.C.C.X | X.X.X.v w.V.C.C.C.C.B.x   . Q.Q.Q.Q.Q.Q.Q.Q.Q.Q.u.u.u.u.u.u.u.u.u.u.u.u.u.",
"u.u.u.u.u.u.u.u.u.u.u.u.Q.Q..     + Q.Q.Q.# . 4.V.V.X | | c # C.C.C.C.C.B.  . . n.n.Q.Q.n.      # Q.Q.Q.u.u.u.u.u.u.u.u.u.u.u.u.",
"u.u.u.u.u.u.u.u.u.u.u.Q.Q.. .     +     C a.  . . B.N.z z 0.V.B.B.B.M.x .                           Q.Q.u.u.u.u.u.u.u.u.u.u.u.u.",
"u.u.u.u.u.u.u.u.u.u.u.Q.Q.. I N.N.B.          . .       1.0.W x   +     . 7 3.C.V.V.B.2.C.B.B.B.N.  # Q.Q.u.u.u.u.u.u.u.u.u.u.u.",
"u.u.u.u.u.u.u.u.u.u.u.Q.Q.  4.C.C.C.V.V.V.B.V.I   . .     . . . .         V.C.C.C.C.C.C.C.C.C.C.V.  # Q.Q.u.u.u.u.u.u.u.u.u.u.u.",
"u.u.u.u.u.u.u.u.u.u.u.Q.Q.+   m.>.2.N x ,.B.C.  9 X V.V.V.V.V.  [         ,.V.V.C.C.C.C.C.V.B.B.+   f.Q.u.u.u.u.u.u.u.u.u.u.u.u.",
"u.u.u.u.u.u.u.u.u.u.u.Q.Q.Q.+ . . o   o o     (   B.C.C.C.C.V.    o . .       :.N.C.V.V.V.V.    . + Q.Q.u.u.u.u.u.u.u.u.u.u.u.u.",
"u.u.u.u.u.u.u.u.u.u.u.u.Q.Q.Q . . &.#.#.#.    0   B.C.C.C.C.o   a #.#.#.#.f       . j I V.V.  & Q.Q.Q.u.u.u.u.u.u.u.u.u.u.u.u.u.",
"u.u.u.u.u.u.u.u.u.u.u.u.Q.Q.    #.#.#.#.#.#.    P N   . . .     @.o X X @.#.s     . . . + N.    Q.Q.u.u.u.u.u.u.u.u.u.u.u.u.u.u.",
"u.u.u.u.u.u.u.u.u.u.u.u.Q.n.  *.*.=.#.#.#.#.#.    L.U.Y.Y.    k e.r.t.t.e.@.@.o   X Q.Q.+   + E.Q.u.u.u.u.u.u.u.u.u.u.u.u.u.u.u.",
"u.u.u.u.u.u.u.u.u.u.u.Q.Q.G   m r.t.l #.#.#.#.@.. ! Y.Y.Y.  o 6.t.t.t.t.t.B #.    O Q.Q.Q.Q.Q.Q.Q.u.u.u.u.u.u.u.u.u.u.u.u.u.u.u.",
"u.u.u.u.u.u.u.u.u.u.u.u.Q.G   r.r.t.5.g #.#.#.@..   Y.Y.Y.  o t.t.t.t.t.t.t.#.    O Q.Q.Q.Q.Q.Q.u.u.u.u.u.u.u.u.u.u.u.u.u.u.u.u.",
"u.u.u.u.u.u.u.u.u.u.u.u.Q.Q.  7.r.t.t.y.%.#.#.#.h . U.U.b.. o t.t.t.t.t.t.e.#.o   Q.Q.Q.u.u.u.u.u.u.u.u.u.u.u.u.u.u.u.u.u.u.u.u.",
"u.u.u.u.u.u.u.u.u.u.u.u.Q.Q.  . t.t.t.e.$ #.#.#.#.  h.U.^ . V t.t.t.t.t.t.e.@.    Q.Q.u.u.u.u.u.u.u.u.u.u.u.u.u.u.u.u.u.u.u.u.u.",
"u.u.u.u.u.u.u.u.u.u.u.u.Q.Q..   e.r.t.t.t.-.#.#.#.  L.U.x.  M t.t.t.t.t.t.-.&.. Q Q.u.u.u.u.u.u.u.u.u.u.u.u.u.u.u.u.u.u.u.u.u.u.",
"u.u.u.u.u.u.u.u.u.u.u.u.u.Q.E.    r.t.t.t., #.#.1   L.U.U.  o t.t.t.t.t.t.; 5 . Q.Q.u.u.u.u.u.u.u.u.u.u.u.u.u.u.u.u.u.u.u.u.u.u.",
"u.u.u.u.u.u.u.u.u.u.u.u.u.Q.Q.F   o t.t.t.- #.+.    d.U.U.    <.t.t.t.t.;.@.    Q.Q.u.u.u.u.u.u.u.u.u.u.u.u.u.u.u.u.u.u.u.u.u.u.",
"u.u.u.u.u.u.u.u.u.u.u.u.u.u.Q.Q.      e.e.d 4                     V m $ $.    W.Q.u.u.u.u.u.u.u.u.u.u.u.u.u.u.u.u.u.u.u.u.u.u.u.",
"u.u.u.u.u.u.u.u.u.u.u.u.u.u.u.Q.Q.G       .   & Q.Q.Q.Q.Q.Q.n.. .         # Q.Q.Q.u.u.u.u.u.u.u.u.u.u.u.u.u.u.u.u.u.u.u.u.u.u.u.",
"u.u.u.u.u.u.u.u.u.u.u.u.u.u.u.u.Q.Q.E.v.Z ! W.Q.Q.Q.Q.Q.Q.Q.Q.Q.n.~ & C R.Q.Q.Q.u.u.u.u.u.u.u.u.u.u.u.u.u.u.u.u.u.u.u.u.u.u.u.u.",
"u.u.u.u.u.u.u.u.u.u.u.u.u.u.u.u.u.Q.Q.Q.Q.Q.Q.Q.u.u.u.u.u.u.Q.Q.Q.Q.Q.Q.Q.Q.Q.u.u.u.u.u.u.u.u.u.u.u.u.u.u.u.u.u.u.u.u.u.u.u.u.u.",
"u.u.u.u.u.u.u.u.u.u.u.u.u.u.u.u.u.u.u.u.u.u.u.u.u.u.u.u.u.u.u.u.u.u.u.u.u.u.u.u.u.u.u.u.u.u.u.u.u.u.u.u.u.u.u.u.u.u.u.u.u.u.u.u.",
"u.u.u.u.u.u.u.u.u.u.u.u.u.u.u.u.u.u.u.u.u.u.u.u.u.u.u.u.u.u.u.u.u.u.u.u.u.u.u.u.u.u.u.u.u.u.u.u.u.u.u.u.u.u.u.u.u.u.u.u.u.u.u.u.",
"u.u.u.u.u.u.u.u.u.u.u.u.u.u.u.u.u.u.u.u.u.u.u.u.u.u.u.u.u.u.u.u.u.u.u.u.u.u.u.u.u.u.u.u.u.u.u.u.u.u.u.u.u.u.u.u.u.u.u.u.u.u.u.u.",
"u.u.u.u.u.u.u.u.u.u.u.u.u.u.u.u.u.u.u.u.u.u.u.u.u.u.u.u.u.u.u.u.u.u.u.u.u.u.u.u.u.u.u.u.u.u.u.u.u.u.u.u.u.u.u.u.u.u.u.u.u.u.u.u."
};
