/* XPM */
static char *door[] = {
/* columns rows colors chars-per-pixel */
"64 64 187 2 ",
"   c #020101",
".  c #090602",
"X  c #070801",
"o  c #0B0B01",
"O  c #06050A",
"+  c #07080B",
"@  c #0B0B0B",
"#  c #100E03",
"$  c #100C09",
"%  c #0E1002",
"&  c #0D120A",
"*  c #141302",
"=  c #181702",
"-  c #161801",
";  c #1B1C02",
":  c #14140A",
">  c #15180B",
",  c #1A1B0B",
"<  c #010013",
"1  c #0A0D12",
"2  c #101010",
"3  c #1A1A14",
"4  c #161719",
"5  c #1B1B1B",
"6  c #221F02",
"7  c #201E0F",
"8  c #1F2100",
"9  c #1F2012",
"0  c #182018",
"q  c #242402",
"w  c #282600",
"e  c #262900",
"r  c #2C2C01",
"t  c #23240B",
"y  c #25280B",
"u  c #2D2B0A",
"i  c #312F02",
"p  c #2F3101",
"a  c #343401",
"s  c #383701",
"d  c #363801",
"f  c #3E3E00",
"g  c #3D3D01",
"h  c #3A3A05",
"j  c #3D3D04",
"k  c #3C3C01",
"l  c #33330A",
"z  c #383709",
"x  c #373A0B",
"c  c #3C3B0A",
"v  c #232312",
"b  c #272816",
"n  c #2A2912",
"m  c #24251B",
"M  c #2F3011",
"N  c #2E301A",
"B  c #34341B",
"V  c #383419",
"C  c #373B1A",
"Z  c #383919",
"A  c #313415",
"S  c #151D28",
"D  c #191A36",
"F  c #1D242E",
"G  c #202020",
"H  c gray13",
"J  c #222222",
"K  c #262626",
"L  c #232323",
"P  c #2A2B23",
"I  c #2B2C2B",
"U  c #312F22",
"Y  c #203020",
"T  c #203020",
"R  c #2B372D",
"E  c #383723",
"W  c #3B3B25",
"Q  c #31312A",
"!  c #3D3D2C",
"~  c #2A2B33",
"^  c #262A3A",
"/  c #2B2D3B",
"(  c #252834",
")  c #2D3336",
"_  c #2D323C",
"`  c #333333",
"'  c #3A3730",
"]  c #3B3C30",
"[  c #303439",
"{  c #33393E",
"}  c #3B3B3B",
"|  c #403F02",
" . c #3F4000",
".. c #3F4101",
"X. c #3F4112",
"o. c #284028",
"O. c #404100",
"+. c #414200",
"@. c #424300",
"#. c #414103",
"$. c #434401",
"%. c #454501",
"&. c #424004",
"*. c #464605",
"=. c #434302",
"-. c #494705",
";. c #484703",
":. c #474901",
">. c #484800",
",. c #494902",
"<. c #4D4D01",
"1. c #4A4B02",
"2. c #44440A",
"3. c #4C4C09",
"4. c #504F00",
"5. c #4E5102",
"6. c #4F500A",
"7. c #535402",
"8. c #5A5706",
"9. c #555901",
"0. c #5A5C03",
"q. c #52540B",
"w. c #57580C",
"e. c #5E5D0A",
"r. c #43431A",
"t. c #5D6202",
"y. c #5A6008",
"u. c #606205",
"i. c #676D02",
"p. c #666609",
"a. c #6A7201",
"s. c #6B7208",
"d. c #686B10",
"f. c #484927",
"g. c #43442A",
"h. c #4E4E2C",
"j. c #424238",
"k. c #595635",
"l. c #52513F",
"z. c #2B2E42",
"x. c #262C44",
"c. c #2E3442",
"v. c #323544",
"b. c #343B46",
"n. c #3B3A41",
"m. c #32364A",
"M. c #363D49",
"N. c #383E4A",
"B. c #3A404C",
"V. c #424242",
"C. c #434343",
"Z. c #484443",
"A. c #464843",
"S. c #48474C",
"D. c #4A4A4A",
"F. c #4F5143",
"G. c #56534E",
"H. c #514F54",
"J. c #555655",
"K. c #5D5B59",
"L. c #5F6257",
"P. c #5E635F",
"I. c #6B6954",
"U. c #626464",
"Y. c #6A6B66",
"T. c #656569",
"R. c #6A696E",
"E. c #70726F",
"W. c #6B6A72",
"Q. c #726F78",
"!. c #6F7075",
"~. c #737374",
"^. c #727679",
"/. c #817E87",
"(. c #84828F",
"). c #908F8D",
"_. c #8B8996",
"`. c #918F9C",
"'. c #9A9994",
"]. c #95949A",
"[. c #9D989E",
"{. c #A6A69E",
"}. c #9997A2",
"|. c #A8A4A1",
" X c #A5A3AD",
".X c #A8A6AB",
"XX c #A3A1A6",
/* pixels */
"Y 0 0 2 2 2 2 2 0   Y 0 0 2 2 2 2 2 2     0 0 2 2 2 2 2 2 0   Y 0 0 2 2 2 2 2 0   2 2 Y Y 0 Y 0 0 Y 2 2 0 0 2 2 2 2 2 2 0     2 ",
"Y 2 2 0 0 2 0 2 2   Y 0 2 2 0 2 0 2 2     0 2 2 0 2 2 0 2 2   Y 2 2 0 0 2 0 2 2   2 0 0 Y 0 0 Y 0 0 2 2 0 2 2 0 2 2 0 2 2     0 ",
"Y 0 0 2 2 2 2 2 2   Y 0 0 2 2 2 0 2 2     0 0 2 2 2 2 2 2 2   Y 0 0 2 2 2 2 2 2   2 0 0 0 0 Y 0 0 0 2 2 0 0 2 2 2 2 2 2 2     0 ",
"                                                                                  0 2 2 2 2 0 2 2 2 2 2                       2 ",
"2 2 2 0   Y J.O 5 2 2 O I 2 @ 2 5 2 @ 2 G 2 O V.O 2 5 2 @ } @ 2 2 2 G 2 G 2 G @ D.@ 5 2 5 2 V.O 5 5 5 @ C.@ G 5 2 5 0 2 2 2   2 ",
"2 0 2 2   Y 5 G 5 G 5 2 5 5 5 5 5 5 5 5 5 5 5 2 5 5 5 3 5 5 5 5 5 5 2 5 5 2 5 5 5 5 5 5 5 5 2 5 5 5 5 5 5 5 2 5 G 5 2 2 0 2   2 ",
"2 2 2 2   Y C.G 2 2   v q 8 , u w t p u r q t w q t q r r ; w * - w q w r e q q r v e r t r u e r y r e v . 5 2 G } 0 2 2 2   2 ",
"            5 K 5 K   t q r - r q t p w e 6 = a a r r r r a k - - f a e q r r s r % e r - r q w r - i q 6 o                   2 ",
"Y 0 0 2 2 2 ` 2 5 G   -.* o * * * * ; - - * = , - - - - > o r r t s o 3 - ; * - v ; ; - - , * ; - - * . ,.o 2 2 2 2 2 2 0     2 ",
"Y 2 2 0 0 2 V.@ @ I   d * r k ,.s k k f @.,.f @.f k k k k * r r r d % l k k s @.h &.-.f =.k a s *.f a . h o 2 0 2 2 0 2 2     0 ",
"Y 0 0 2 2 2 2 2 2 5 . j * ^.-.*.j f ,.=.*.@.k =.*.k @.f r P e q q a * q @.@.@.@.@.@...f =.=.@.f $.*.T.. a # 2 2 2 2 2 2 2     0 ",
"                  G   <.* r @.,.| k ,.&.@...@.=.,.k f =.i - r q q f % r @.f k <.=.=.@.@.&.@.f $.,.@.r . 3.*                   2 ",
"Y Y 0 2 2 o.I @ 5 G   @.* e f k ,.<.>.>.=.*.f =.f &.f f s Q p e r s > r =.s =.f ,.f =.3.<.$.f -.f @.r . f o G G 2 ` Y 0 0 0   2 ",
"0 Y 0 0 2 o.} @ 2 I   w * r a.+ @ O @ @ @ O @ + + + O @ l - r ; q s * a + + + @ @ @ @ @ @ @ + O @ q.a . r * K @ @ D.0 0 Y 0   2 ",
"Y 0 0 0 2 o.V.G 5 2   3.* u ^ v.L b.b.M._ Z.N.v.v.b.` m.* 3 r q t s > ; M.n.M.b.b.B.I M.b.b.b.4 5 R a X 5.o 2 5   o.Y 0 0 0   2 ",
"2 2 2 2 2 2 } G 5 D.  ,.* ' ..a l a a l s s s a s a a r k t r a e s - s s a d k s k f s s s s h c &.7 o -.o } G   2 2 2 2 2   2 ",
"2 Y Y Y 0 Y ` @ 5 G   W * r a k f ,.@.&.@.f @.f f f f @.f 9 r r t l * h =.f *.&.*.@...f j @.<.*.k s r . ! o 5 5 0 0 0 0 Y 2   2 ",
"2 Y 0 Y 0 0 } @ 2 L   <.% !.i =.@.@.=.f f *.@.=.f @.3.s - o @.q - 3.. - s -.@.&.=.@.@.f f *.@.@.@.s T.. q.* K @ @ } Y 0 0 2   0 ",
"2 0 0 0 0 Y } K 4 2   9.* r s @.@.f @.f f f $.&.| &.k r i =.<.a q 3.=.k r s f *.f f @.@.f f @.f -.s r . u.* 5 5 K V.0 0 0 2   0 ",
"0 0 2 0 2 2 2 G G C.O y * U.=.*.7.*.f @.<.@.f j f =.j = r 3.; . . * -.k * s *.f @.f $.q.@.f ,.7.,.@.j.O B ; V.5 5 V.2 2 2 2   2 ",
"0 0 0 Y 2 o.Y 2 I 2   7.* w i.9.0.9.t.9.0.9.5.9.y.<.r q r ..- 8 - r w k , r <.t.9.9.u.d.0.i.t.s.t.a.r . q.; @ ` 5 ` Y 0 0 0   2 ",
"0 Y 0 0 2 o.0 @ O K   0.* r S v.A.) { { |.) ) ) Y.c.3 D.s F.s o o x > 2.Q = _ [.c.v.z.XXv.m.b.~ ~ _ s . 7.q I 2 @ V.0 0 Y 0   2 ",
"0 0 0 0 2 o.C.G 2 4   K.* ; q . . o X o % . o o o o a q r a - a r q a f - s o o o o . o . o o o o * - X G.* 2 2 I V.Y 0 0 0   2 ",
"2 2 2 2 2 2 } 5 5 A.  8.* w @.| 3.=.<.<.@.@.*.f @.| f b d 0.f o o ,.0.>.t f h =.f >.@.@.=.-.,.-.,.*.a . 9.* V.G   2 2 2 2 2   2 ",
"o.Y Y 0 0 0 } 2 ` @   p.* U.-.3.>.-.=.,.@.f =.@.f &.,.r w n k = r X.z q q >.f f f =.@.@.3.=.@.f 3.@.D.O p., @ I 0 0 0 0 Y 2   2 ",
"o.0 0 Y Y 0 } 2 @ I   R.* r @.&.*.s f $.j <.f | ..k @.k *   a r r a . * a V r a *.s @.l -.=.c s f &.a . ~.= ` @ @ } Y 0 0 2   0 ",
"o.Y Y 0 0 0 V.0 0 2   4.# L.k =.2.@.=.<.  -.f ;.-.f 3.@.s L a a r s > r =.h $.f <.k <.O <.=.f f @.k U.. ,.- 2 5 K V.0 0 0 2   0 ",
"2 2 2 2 2 2 ` 2 2 }   ;.% r f 5.k ..,.*.f   k =.@.@.@.@.a q p q t x ; r k =.@.@.@.u < @.@.,.$.f 5.=.i . =.; V.G 5 } 2 2 2 2   2 ",
"Y Y 0 2 2 o.` Y 0 2   Y.* ] | -.@.<.f -.3.j   %.=.@.k f r v r k q j * i =.f @.=.5.o * 9.,.@.@.k ,.$.N . K.* @ I 2 } Y 0 0 0   2 ",
"0 Y 0 0 2 o.} 5 O G   8.* s &.f @.=...@...@ o o @ f @.| s ; r s ; k - s f @.f *   .   2.>.d =.,.@.&.l X 9., G @ 5 V.0 0 Y 0   2 ",
"Y 0 0 0 2 o.} G 2 5 O 7.* r k f f ..3.x o f X *   % a f @.q r * - Z - k $.k e - O . =.o e @.f k &.f r o 7.; 5 5 K V.Y 0 0 0   2 ",
"2 2 2 2 2 2 } 5 K D.  Q.* ] =.$.@.r   . l o   X $.o O   d m e a ; s > a *   O h X O @ 2.o @ q @.@.f P o /., D.2 2 2 2 2 2 2   2 ",
"Y 0 Y 0 0 Y ` 2 I @   1.* q a f k <.  o . . q *.X x . *.s w w s - s , @.@.  @ @ a o # . o o =.s @.s q o ,.o 2 ` 2 } Y o.0 2   2 ",
"0 2 0 2 0 2 2 0 2 G   -.: E.s s k p X . . @.s 3.*.&.$.f s t q q , u ; d @.$.>.2.&.k -.. O . e =.f d W.. @.@ I O 2 C.0 0 0 2   0 ",
"0 0 2 0 2 2 2 2 2 2   _.* r r a c O . o . @.f @.=.f ..@.f q p k ; @.; f @.$.x -.f k =.. . . O * k r p . }.o 2 5 I V.0 0 0 2   2 ",
"2 2 2   2 2 2     V.  9.* t -.- . . O   o f k f 6.@.f k k q r f q f - f k r f =.f f f   O   O X   =.n o q.* C.5 5 } 0 2 2 2   0 ",
"2 2 2 2 2 o.Y o.Y 2   <.* ; f O X .   . O u @.&.k &.f f a P 8 ; - C : q k s f f @.=.&.@     . o . e r o ,.; @ I 2 ` Y o.Y o.  2 ",
"0 Y 0 0 2 Y 0 Y 0 K   (.* w r @ . . o . l . O d ,.@.,.k % , @.a 8 <., o f f | $...O . x . o . o   p r . `.* G @ 2 V.0 Y 0 Y   0 ",
"0 0 0 0 2 Y Y 0 Y `   @.% q 3.>.@.5.>.<.f =.$.$.$.=.<.q d I.2.v = k.r.j q ,.@.$.=.3.@.&.@.$.<.>.,.,.r @ k * ` 2 5 I Y 0 Y 0   2 ",
"0 0 0 2 2 0 ` 5 G C.  @.* a =.=.=.=.@.@.3.@.f *.,.h k t d ,.* . . # =.>., d k q.f k f 2...s <.@.1.h a o @., V.K G } 0 0 2 2   2 ",
"2 2 2 2 2 2 ` @ ` @   `.o P.e.0.5.5.9.0.0.3.9.9.q.5.=.q d h 6 * o r - f ; <.*.<.5.q.>.9.<.<.<.q.9.0.J..  X% 2 Y o.o.Y o.0 2   2 ",
"2 0 0 0 0 0 } 2 @ K   3.o e F z.C.) [ { {.~ [ [ Y.c.5 } f J.k o . k 5 3.v - ) '.) ) ) '.[ { { I I x.r o -.* G O 5 } 0 0 0 2   0 ",
"2 0 0 0 0 0 5 5 2 I   @.* g.8 o o . o o o o o o o o a q s i . a r o r @.; s o o o o o o o o o o o * E o f , ` 2 G 5 0 0 0 2   2 ",
"2 0 0 0 0 0 ` G G D.  ].o q s 3.| ..,.@.f k @.@.-.f @.; *.9.*.- $ <.9.1., | f @.@.3.=.f @.>.$.@.,.k r . .X, C.G 5 } 0 2 2 2   0 ",
"o.Y Y 0 0 o.} @ I 2   =.o q k >.-.3.f @.,.k k -.$.f k q a c @.q w &.&.a ; s f *.3.d @.3.<.f @...-.f p . *.* 2 I 2 } Y o.Y o.  2 ",
"0 0 Y 0 2 Y 0 Y O I   >.o , @.@.-.f f =.$.f f =.$.=.@.&.- . a r q f @ * k =.*.*...*.f @.,.f k =.@.@.q X 5.; K @ 5 Y 0 Y 0 Y   0 ",
"0 0 0 0 2 Y Y 0 2 ` O ].o r @.f f f =.*.=.$.f f &...$.f r 5 u m % l.% r j @.f &.@.f @.,.&.| f f $.$.r O  X# } 2 5 Y Y 0 Y 0   2 ",
"0 0 2 2 2 0 0 0 I `   k % * q.<.8.7.9.9.5.9.,.7.w.7.5.-.d 8 r a , x - a =.-.=.<.>.=.<.<.>.>.<.5.,.q., o @.> } I G 0 0 0 2 2   2 ",
"Y 0 Y 0 0 Y 0 0 I 2   9.o r D [ n._ _ / / ~._ _ / / S.z.; m i f t k * ; / T.^ ( / ^ H./ / / ^ ~ I 0 r o <.- 2 I 2 o.Y o.0 2   2 ",
"0 2 0 2 0 2 } 5 O K * ).o ~.@   @ X X o   O X . X o o O x q r v * f.- f & o @ & @ @ o 1 & @ & > & X T.o '.* I O 5 0 0 0 0 2   0 ",
"0 0 2 0 2 2 G 5 2 ` O >.* r a @.k =.f f k k =.f $.j k &.2.v s r = f , k @.s f <.f =.=.s &.k ,.f 3.s a o @.- ` 2 5 0 0 0 0 2   2 ",
"2 2 2   2 2 ` 5 I `   f * ! c f 5.,.@.f =.@.f | @.3.&...f q r r - k ; k @.f *.f f @.f ,.s f >.5.f h U o k * ` I G ` 0 2 2 2   0 ",
"Y 0 0 2 2 Y I 2 I     ].* q a @.<.*.f =.@.@.f f *.@.f a ..m a v o h.> d k f @.-.f f =.@.<.,.@.,.@.k a o XX* @ I 2 I Y o.Y o.  2 ",
"2 2 0 2   0 ` 2 @ K O ;.* u =.f @.@.,.k f f @.s -.s k k j 6 r p ; f - k k s a @.k ,.d &.k 3.k f f ..r o =.: K O 5 V.0 Y 0 Y   0 ",
"2 2 2 2   0 0 2 2 ` O f * o ; * : - P * - * - ` * * * * L # r a - s o : * * o o 3 - = ; * : * * * , @   f * I 2 5 K Y 0 Y 0   2 ",
"2 2       2 2 2 I `   r.-...A a r M z l l w A f s r i k $.s 7.q ; 8.s a c a p k k g.i s W r l a a C f f h.* 5 5 5 ` 0 0 2 2   2 ",
"Y 0 Y 0 0 Y 0 0 5 O . q 6 r t q q q q q ; ; t w q ; 6 r q q - - * ; q ; q q q q w - q r q q q q q r r t q O   2 @ I 0 Y 2     2 ",
"0 2 0 2 0 2 2 0 O @                                                                                         O   @ } 2 2 2     0 ",
"0 0 2 0 2 2 2 2 @ @ O O O @ O @ O @ O O @ O @ @ @ @ @ @ @   O @ @   2 O O O   @ @ O @ @ 2 @ O @ @ @ @ 2 2 @ O   @ 2 2 2 2     2 ",
"2 2 2   2 2 2       2 0 2 2 2             0 2 2     : :       2 2 2   2 2 2       2 0 2 2 2             0 2 2     2 2         0 ",
"Y 0 0 2 2 Y 0 Y 0 0 Y 0 0 Y 2   Y Y Y 0 Y 0 0 Y 2   T 0 Y 0 Y Y 0 0 2 2 Y 0 Y 0 0 Y 0 0 Y 2   Y Y F 0 m 0 0 Y 2   Y 0 Y 0 Y   2 ",
"2 2 0 2   0 2 0 : 0 2 2 5 2     Y 0 0 0 0 2 2 2 2   0 2 0 2 0 2 2 0 2   0 2 0 2 0 2 : 0 2     Y 0 5 0 0 2 2 2 2   0 2 0 2 0   0 ",
"2 2 2 2   0 0 2 0 : : 2 2 2     m : : 2 2 2 2 2 2   5 0 2 0 2 2 2 2 2   0 0 2 0 2 2 2 2 2     Y 2 2 2 2 2 2 2 2   0 0 2 0 2   2 ",
"2 2       2 2 2   2 2           0 : 2 2     2       2 2 2     2 2       2 2 2   2 2           0 : 2 2     2       2 2 2       2 "
};
