/* XPM */
static char *east[] = {
/* columns rows colors chars-per-pixel */
"64 64 5 1 ",
"  c black",
". c #101010",
"X c #182018",
"o c #203020",
"O c #284028",
/* pixels */
"oXX.....X oXX......  XX......X oXX.....X ..ooXoXXo..XX......X  .",
"o..XX.X.. oX..X.X..  X..X..X.. o..XX.X.. .XXoXXoXX..X..X..X..  X",
"oXX...... oXX...X..  XX....... oXX...... .XXXXoXXX..XX.......  X",
"                                         X....X.....           .",
"...X oXX......  XX......X oX......X oXX......  XX......X oX... .",
".X.. o..XX.X..  X..X.XX.. o..X..X.. o..XX.X..  X..X.XX.. o..X. .",
".... oXX...X..  XX...X... oX....... oXX...X..  XX...X... oX... .",
"                                                               .",
"oXX.....X ..ooXoXXo..ooXXXXXXo.oXX.....X OooXXXXXX..XX......X  .",
"o..XX.X.. .XXoXXoXX..oXXoXXoXX.o..XX.X.. OoXXoXoXX..X..X..X..  X",
"oXX...... .XXXXoXXX..ooXXXXXXX.oXX...... OooXXXoXX..XX.......  X",
"          X....X...............          ...........           .",
"ooX..OooXXXXXX...ooXoXoo..OoXXXXXXo.OooXXXXXX..XX......X OoXXX .",
"XoXX.OXXooXoXX..XXoXXooXX.OXXoXXoXX.OXXooXoXX..X..X.XX.. OXXoX .",
"oXXX.OooXXXoXX..XXXXoXXXX.OoXXXXXXX.OooXXXoXX..XX...X... OoXXX .",
"....................X..........................          ..... .",
".oooXooX..oXX......  ooXXXXXXo..oooXooX..OooXXXXXX..ooXXXXXXo. .",
".oXoXXoXX.oX..X.X..  oXXoXXoXX..oXoXXoXX.OoXXoXoXX..oXXoXXoXX. X",
".XXXXoXXX.oXX...X..  ooXXXXXXX..XXXXoXXX.OooXXXoXX..ooXXXXXXX. X",
"XX.X......           ..........XX.X........................... .",
"XXXo.OooXXXXXX..ooXXXXXXo.OoXXXXXXo.OooXXXXXX..XX......X OoXXX .",
"XoXX.OXXooXoXX..oXXoXooXX.OXXoXXoXX.OXXooXoXX..X..X.XX.. OXXoX .",
"XXXX.OooXXXoXX..ooXXXoXXX.OoXXXXXXX.OooXXXoXX..XX...X... OoXXX .",
"...............................................          ..... .",
"OooXXXXXo.oXX......  .ooooooo..OooXXXXXo.OooXXXXXX..ooXXXXXXo. .",
"OXXooXoXX.oX..X.X..  XoooXXoXX.OXXooXoXX.OoXXoXoXX..oXXoXXoXX. X",
"OooXXXXXX.oXX...X..  XXXXooXXX.OooXXXXXX.OooXXXoXX..ooXXXXXXX. X",
"..........           .X.XX.................................... .",
"ooX..OooXXXXXX...ooXoXoo..OoXXXXXXo..oooXoXXo...ooXoXoo..OoXXX .",
"XoXX.OXXooXoXX..XXoXXooXX.OXXoXXoXX..oXoXXoXX..XXoXXooXX.OXXoX .",
"oXXX.OooXXXoXX..XXXXoXXXX.OoXXXXXXX..XXXXoXXX..XXXXoXXXX.OoXXX .",
"....................X...............XX.X...........X.......... .",
"oXoXXoXX..OOOOoOooOX.OoOoOOoOX.OoOooOooXXOOOOoOooOX.OoOoOOoOX. .",
"X.X.X..X. oOooooXoX..OXoXoXXXX.oXoXoXXoX.oOooooXoX..OXoXoXXXX. X",
"XX.X..... oOXXXXXXX..OoXoXXXXX.ooXoXXXXX.oOXXXXXXX..OoXoXXXXX. .",
"... ...   XoXXX......oXX..XX...XXX.XXX...XoXXX......oXX..XX... X",
".....OoOooOooOX.OOOoOooOX.OoOoOOooXX...........oooXoXXo. OoOoO .",
"XoXX.oXoXoXXoX..OooooXXXX.oXoXoXXoX..XXXXXoXX..oXXXX.... oXoXo X",
"XXXX.ooXoXXXXX..OXXXXXXXX.ooXoXXXXX..XXXXXXXo..o........ ooXoX .",
"XXX..XXX.XX.....oXXX..X...XXX..XX....XXXXXXX...X...  .   XXX.. .",
"..........OOOOoOooOX.oXoXooXo. OoOooOooXXooooXoXXo. OoOoOOoOX. .",
".XXXXXoXX.oOooooXoX..o.X.X.... oXoXoXXoX.XoXXXX.X.  OXoXoXXXX. X",
".XXXXXXXX.oOXXXXXXX..oX.X..... ooXoXXXXX.Xo.......  OoXoXXXXX. .",
".XXXXXXX..XoXXX......X..  ..   XXX.XXX....X...      oXX..XX... X",
"OooXXOoOooOooOX...........OoOoOOooXXOoOooOooOX.OOOoOooOX.OoOoO .",
"XXoX.oXoXoXXoX..oXXXXooXX.oXoXoXXoX.oXoXoXXoX..OooooXXXX.oXoXo X",
"XXXX.ooXoXXXXX..XXoXXXXoX.ooXoXXXXX.ooXoXXXXX..OXXXXXXXX.ooXoX .",
"XX...XXX.XX......XXXXXX...XXX..XX...XXX.XX.....oXXX..X...XXX.. .",
"oXoXXoXX.............OoOoOOoOX.OoOooOooXXooooXoXXo. OoOoOOoOX. .",
"X.X.X..X. .oXXXXoXX..OXoXoXXXX.oXoXoXXoX.XoXXXX.X.  OXoXoXXXX. X",
"XX.X..... .XXoXXXXo..OoXoXXXXX.ooXoXXXXX.Xo.......  OoXoXXXXX. .",
"... ...   ..XXXXXX...oXX..XX...XXX.XXX....X...      oXX..XX... X",
"oXX..oXoXXoXXo. OOOoOooOX.oXoXooXX..OoOooOooOX.oooXoXXo. OoOoO .",
"..X. X.X.X..X.  OooooXXXX.X.X.X..X. oXoXoXXoX..oXXXX.... oXoXo X",
".... XX.X.....  OXXXXXXXX.XX.X..... ooXoXXXXX..o........ ooXoX .",
"..   ... ..     oXXX..X......  ..   XXX.XX.....X...  .   XXX.. .",
"oXoXXoXX..ooooXoXXo. oXoXooXo. oXoXXoXX..ooooXoXXo. oXoXooXo.  .",
"X.X.X..X. XoXXXX.X.  o.X.X.... X.X.X..X. XoXXXX.X.  o.X.X....  X",
"XX.X..... Xo.......  oX.X..... XX.X..... Xo.......  oX.X.....  .",
"... ...   .X...      X..  ..   ... ...   .X...      X..  ..    X",
"oXX..oXoXXoXXo. oooXoXXo. oXoXooXX..oXoXXoXXo. oooXoXXo. oXoXo .",
"..X. X.X.X..X.  oXXXX.... X.X.X..X. X.X.X..X.  oXXXX.... X.X.X X",
".... XX.X.....  o........ XX.X..... XX.X.....  o........ XX.X. .",
"..   ... ..     X...  .   ...  ..   ... ..     X...  .   ...   ."
};
