/* XPM */
static char *north[] = {
/* columns rows colors chars-per-pixel */
"64 64 18 1 ",
"  c black",
". c #101010",
"X c #101810",
"o c #200000",
"O c #300000",
"+ c #002000",
"@ c #003000",
"# c #182018",
"$ c #282000",
"% c #383000",
"& c #202020",
"* c #282828",
"= c #203020",
"- c gray22",
"; c #400000",
": c #483800",
"> c #004000",
", c #284028",
/* pixels */
".##==,#,,==# ,==###,=###=.,==##.,=####.==##=.,==###.##,=,,,,=,##",
"..#,,,#,=,=. ,==###==#=##.,==##.==####.===##.,==###..##,,,,,,##.",
".#.##=#==#.# =#=###,#=#=#.=#==#.,#=#=#.###=#.=#=#=#..###====###.",
".#==,,,,.==# ,####.===###.,####.=#=##..=####.,####...##=,,,,=##.",
"..#=,,,,#=#. ===#..==####.===#..=####..==###.=#=##...==,,,,,,==.",
".##=#=#=.=## #......#.....#............#.....#........=,====,=..",
".##=,,#,==## #....#=#.... #.... =#...# ===#=.##...# .=,,,,,,,,=.",
"..#=,,#,==#. #.#...=.#.#. #.##. =.#.#. ==#=#.#.#.#. #=#,,,,,,#=#",
"...==,#,,=#. #.....=#.... #..#. =#.... ##=##.##.... #==,,,,,,==#",
"............ #=.==#=#. #==#=.==#=#.=##=#= ==###.=##=............",
"..=,,,,,.,#. .. ##.... .##.. =##.#.#..#.. =##.# #..##==,,,,,,==#",
".#=,,=,=#,## #. =#.... #..#. ##....=#.... #..#. =#...##==,,==##.",
" .##.###.##.                                        .##########.",
".##==,#,,==# =##.#..###=#.,==#=.##.... #==##.=##... ##,=,,,,=,##",
"..#,,,#,=,=. =......####=.,####.#.#... =####.=..... .##,,,,,,##.",
".#.##=#==#.#       ####.........       ......       .###====###.",
".#==,,,,.==# #=.,=###=.===#=.==###=,=####.#.... ,=##.##=,,,,=##.",
"..#=,,,,#=#. #=.=#=###.#=##=.,#####===###.=.... ===#.==,,,,,,==.",
".##=#=#=.=## #..##.##..####..=###..##..#..#..   ##....=,====,=..",
".##=,,#,==## .=#=#.-*************************==###=..=,,,,,,,,=.",
"..#=,,#,==#. #=####-&&&&&&&&&&&&&&&&&&&&&&&&*=#=#=#.#=#,,,,,,#=#",
"...==####=#. .####.-&OO;OOO:OO;OOO;OOOO;OO;-*=####..############",
"............ =,#,,=-&;OOOO:X;;;OOOX;;;OXO;;-*##.,==,............",
".##=,,,,#==# =#.,#=-&OO;;X:XOO;X;oOO;OO:X;O-*#. ,#=#.#=,=,,=,=#.",
".#=,,=,=#,## =#.,=#-&;OXOX:$OXO;OoOoXOO%XOO-*#. ,=##.##==,,==##.",
" .##.###.##. ......-&O;O-X:$XXoOoooOoOX%XXO-*   .....##########.",
".##==,#,,==# ,==#=#-&OO;X-$XO;X@@@XoXX%$XOO-*,==###.##,=,,,,=,##",
"..#,,,#,=,=. ,#####-&X;OX*XXXOO>>@+O;O$$X;;-*,#####..##,,,,,,##.",
".#.##=#==#.# ......-&O*XOX+$XXoX>+XOoX$XX;O-*........###====###.",
".#==,,,,.==# #=.,=#-&;X-*@@X*-XX>+OoXXXXOXX-*##.,=##.##=,,,,=##.",
"..#=,,,,#=#. #=.=#=-&;O&+@+@X--+X+XX-X++XXX-*##.===#.==,,,,,,==.",
".##=#=#=.=## #..##.-&OX-XX%$++XXX+X*X@X+XX;-*##.##....=,====,=..",
".##=,,#,==## #....#-&-&*X::%$X::::$XX$$&*&&-*==###=..=,,,,,,,,=.",
"..#=,,#,==#. #.#...-&*X*X:::::$$:$X%X%$$&*&-*=#=#=#.#=#,,,,,,#=#",
"...==####=#. #...  -&&X&X::X%::::::%$%$$&XX-*=####..############",
"............ ...,,=-&-&XX%%X$::::::%$$$$XXX-*##.,==,............",
".##=,,,,#==# =#.,#=-&-&XXX%-X$$X$$$XX$$XX**-*#. ,#=#.#=,=,,=,=#.",
".#=,,=,=#,## ##.,=#-&*&X$XXXXXXXXX&XX$$XX**-*#. ,=##.##==,,==##.",
"............ ......-&&&$$XX%XXoXoXXX$XXXX&X-*,,=,=#.............",
".##==,#,,==# =#####-&X&$$$$%XXoXooX%$XXXXXX-*,==###.##,=,,,,=,##",
"..#,,,#,=,=. #=####-&XX$::%$X-oXoXo$X$$XXXX-*,#####..##,,,,,,##.",
".#.##=#==#.# ......-&XX$%::$X*ooo*XX$$%:%$$-*........###====###.",
".#==,,,,.==# ##.,=#-&XX$%%%X%X%%%&XX$X:%$%%-*##.,=##.##=,,,,=##.",
"..#=,,,,#=#. ##.=#=-&XX$:::X$:%$%%$$$%:$::%-*##.===#.==,,,,,,==.",
".##=#=#=.=## ...##.-&XX$:::%$$$$$%$$$*%::$:-*...##....=,====,=..",
".##=,,#,==## #....#-&XX$%$%%%$$%$X$$$X&%$::-*==###=..=,,,,,,,,=.",
"..#=,,#,==#. #.#...-&XX$::%%$$$$$XX$$$X*X:%-*=#=#=#.#=#,,,,,,#=#",
"...==####=#. #...  -*************************=####..############",
"............ #=.==#=#. =,,=,#==#=#.,==,=,.==###.,==,............",
".##=,,,,#==# #. =.#.#. ###=#.#.#...,#=#=#.#.##. ,#=#.#=,=,,=,=#.",
".#=,,=,=#,## #. =#.... =##=#.##....,=####.#..#. ,=##.##==,,==##.",
"............ ==#=#.=##=#= ==###.==#=#. #==#=.==#=#. ............",
".##==,#,,==# =##.#.#..#.. =##.# ##.... .##.. =##... ##,=,,,,=,##",
"...==,#,,=#. #.....=#.... #..#. =#.... #..#. ##.... #==,,,,,,==#",
".#.##=#==#.#                                        .###====###.",
"..=,,,,,.,#. .. ##.... .##.. =##.#.#..#.. =##.# #..##==,,,,,,==#",
"..#=,,,,#=#. .. #.#... #.... =.....###... =.... ###..==,,,,,,==.",
".##=#=#=.=##    .. ..  ..    #...  ..  .  #..   ..  ..=,====,=..",
",,=,=#,==,=,.,,=,=#,==,=,.,,===#,,=,=#.=,,=,#,,=,=#.=,,=,#,,=,=#",
"==###=,=####.=####=,=####.=####.,=###=.=####.==###=.=####.==###=",
",#####=###=#.,#####=###=#.,##=#.=###=#.###=#.,###=#.###=#.,#####",
"=#=#=#,==##=.===#=#,==##=.===#=.,#=###.==##=.=#=###.==##=.=#=#=#",
"==###.,=###..=####.,=###..=##=#.,=###..=##=..==###..=##=..==###.",
"=###..##..#..=###..##..#..=##...##.##..##....=####..##....=###.."
};
