/* XPM */
static char *south_xpm[] = {
"64 64 7 1",
"a c #3a3a3a",
"b c #4e4e4e",
"c c #5e5e5e",
"d c #707070",
"e c #828282",
"f c #2a2a2a",
"g c #909090",
"cbdaccacacaacebbdedcgaebbbcebddccaabdccdcbddbdcedbgbcdbcadddecdd",
"dceecdaddgebcdacbbadbbceacceeebccegbbbbcdbaccdgdcddaededccbdaabb",
"caabbcaedbbccbegccafcbebagcbcacgedbcbdcdcbegeeedbccaabbdgceggcbb",
"bbdeecddadeddcbdcefccedbbbeebegdccbagdceceebbbbdbcbeccdececccacb",
"adbcddccddbdbbdcdfecdccdcccedeebdeebbcabaddebddbegbgccgebcccbcda",
"dcacdcagdgbbadbbfeebbeddaadcaedeaeaeccdebbcbbfabccdbcbfabaddbceb",
"ecceccdgceddccafadbbaeedbbbcbcbggcbgccacccbcfbacaacbdcdfdeccgbdd",
"aeeddebcceeedefdbabcbeddddcaddccdadbabdbdgcfcddddabbdcdafbdddbcc",
"cbebgeacegcbbebdbcgbecedbecaacccbcceadebedebccgdccbabebebbcbcgee",
"deecdadcddbaebccbdgbdcdcbbbecbegcbbacabbdedcccccabgbcdebbbccgeea",
"adecdaceeegbbbcdedddcdadbedcbbddbacdcbdaccgdecbbgdcacdcbdebaccdb",
"ddcbgcebbdbgcbbcdebcbgbaaceedgecbedadcccbabcgbgbceecaccebceaceda",
"aaebdecbgdbdcbadedeabcggcbccebededdcccdabdbaadcgegbaacdcbcdddedb",
"ebdcdbbbbedccgcbedgbceeeabbbgdececbdebddbcbbbddbacdbcbdcabcddabd",
"cbcgcdccegcbdbaecececbaddeadccbbcebcegbbegcaecedebdbceebbcccbbde",
"addaebdddccdcdccadcbddcbcbbcacfadaddcaccgbegdebgcgebdeacdbebebce",
"bbccabbedebdbcdceddebgdcdbgdcdfbdaebdgddcaabdccebbdaacbcbddbdcbe",
"bbadedcbaddcdcedbeaccbadadebbdfdebccaeddaedcdcbbbacddedbdcdcbdgb",
"eabbdedcecbedddgcedecddcbdaebafecbaaddddadceeeaeeebbbaeededbaadb",
"ccabbdccgcedaccdcdcbeaebabdgacfdbccebebbdcbdaddddccceaeabbeccebc",
"cdddccbeddbcddbcebbcdebbbccbcbfdbgbcgddcbdbbcacddcdcbdcdecddcbde",
"ddeddccdacdddbccdcdebddccgacbdfcbdcdcdeccebdcdbgcabcaccdcbbdecbe",
"cbbdedcdbgcdeecbcbecebcbcbadbbcccddceeaeedbedaagdbbbbdcbedbeddde",
"debdcdcedbbbcacbccceaecddeccgaddaddecgcceaddcecccdbccdebeccbcgdd",
"ccbdddadecacabedddeddddddbdcdbbadedceddbccccdeadabedecacdegccbdb",
"baadbgaebadbdbaddedaddcebgdaadeacdbecacdcdbdcddccdeddbagdecdgedc",
"cecddeebabcdeeaeeedbeedecaddbdebddcbbddcaedbdeeccdbbbdcdccbagcbd",
"dbdccaagecdbdcedegbabbaadeceeadcbgbddgdccbggbabceeeadddgabdedfff",
"bcbbcbbbdadbaebeeebcaeedccecdbbaddbebcbbecbccebgaedbcbbbcggeabea",
"dbgaecbaecbcebdbbddbaadcbbddedbadcdaeceecaecebbecbcdacccbdeecdcd",
"aegccccagbbbbeaadbaddcdbedabccbbcbdebddbeecceccedcbccgeeeeacgebc",
"dccaccabgdedeeeadbdbcedbccgbcdbdgcbccbbbbcbbacedddbdccdccbbccdac",
"ebdcbgbdbaecaccdbbgdbccddeecdddcddebeaddcgdcdedcccdbcdccdeccbcbd",
"daeceegbceaadcedcgccdccdcedcaccddegccdgccebcgecbedegecbbccbbddcg",
"dacdcdaceddbcdbdcgdcbbdbbbcedeaadcdcbbaedcccaedgcdbaeeceecdgcebc",
"dbcecdbbcbgbdbcccabecbbbbadcbdabebceebcdcgbgcbcbdbedcbdbebccbdcd",
"dccabecdbdccbacbbdbcedeebbaddccddbecdbbeddaabbccacdbeddbcdcaedba",
"edabbdbedadcdebaeceddedcadccebdadebcgdcbaccbcbddbbccecbebdcecdbd",
"dcdebbcbabbdcbcccbaagdadgdbccbcaeddedbbbadebbdeebdedcbeccdcebadd",
"edeeccbbdadbcgaacbdaeedcbdccccdeebbcdcbaccgeeggdeaddbdgcdbceabdc",
"adcdccdcbbecbebacbcdbdbcdacacedddbgdbecbgddbdabcadbbdcededeebdcd",
"debcdedadacebedbbcedbabebdbdcbecdefacbceeabedccbecedacbedabccdcc",
"adcacgabdbbcbdcggaddedddcbdeedcddcfcdcaccgccbbcbaeccdcbaccddeced",
"abdgcdceacebbabbdbcbdedbdgdaeecbbcfdebcddcdcacadccdbcaedgaddcabb",
"daeccddddcdbdddcdgcbcebacddcgbdaabfcdbecbbdebadbgcdceccebdadcead",
"ceedbbbcbbddbgbdbeebdebccebddcdebefdebegbabgaebdabdacedegabddacb",
"cbagcebcbcbdbdcbccecbgedbbbaaccdcafdccdgedcccgcccbgadebdcbbbedea",
"dcdccgadecdgbddcdccddcdcbdbecdccbbecccebbecdeeeaceebbbbceccacgdc",
"cddbdccbcccabdabdbcbeadebcddcaccdbcdeccdebgdcdcadcccedadcceccecc",
"ceddcaddddbbaebaddaddcadcdgeebccagbbcbedccaceeebbaccccdcebedaccc",
"dcbdbdedceceacdaeadbedecddbbebebbadgcdbedbadaebbdcdbecebdgcacdbc",
"acdcdbebegecbcdceacedcabbeebeadgcedaccbdbdbadadddcacadbdccdbbece",
"ecbaebccbcbcccbcbbbeceaecdddbdbbaccbeadbdddabdgaddececeaeccabddb",
"cbbbcggdccdeddbdedadcbgddbeeedeedcedebgcebgdbebbcbceddcdddeecade",
"cdedacabecdccbcedbabdcdebdaebbgcbedeccgcgbebcabecebcbdecceedadcg",
"cddccdeccgaeddcdeddacbgebddacddbdbccgdedcgddbbdedcbcebdbcabcggbc",
"ebccbbccgbbeceddcbdcdddbcecbdbdaedcebbacddcebcdgdddcedccecbeccde",
"bcacceddcdbedebddceededebdddbadebbbadgecdaecadbbacdeaebbdccdbdbe",
"ecadaccadddccdbegegcgacbcddccbcbbdccbdbbddgdeeddabaeddbcbdgcabce",
"ecbbbdcgedcebbdcbbaedegcdceebabdcaedcaecacdecdbbecbdbbcdddcadacc",
"ddbddcbedabgbcdeddaageaabebdedebbadbgdbebcbdeeaedecdddaacbfadaee",
"cbdbcbgccadeebccdbdgdaabddcccddeddeedadecebecdbcccacgdedegfffffb",
"eecddedcbecdccgbcdcecedgabbeabdgbcddddbbadbbgdddddcaaacbbcfdbdbb",
"ccdcdaeceaebeedbabebdddbbagcddbaaebgcdbdbccbbdbcdbbbccdceadebacb"
};
