/* XPM */
static char *west[] = {
/* columns rows colors chars-per-pixel */
"64 64 248 2 ",
"   c black",
".  c #101010",
"X  c #0C121E",
"o  c #182018",
"O  c #1A1E35",
"+  c #151724",
"@  c #3C162B",
"#  c #3C1B34",
"$  c #221830",
"%  c #203020",
"&  c #372239",
"*  c #5D040A",
"=  c #5A0418",
"-  c #4A0013",
";  c #630004",
":  c #64010D",
">  c #69000D",
",  c #680002",
"<  c #67041A",
"1  c #770B1B",
"2  c #550C26",
"3  c #46182A",
"4  c #581A29",
"5  c #411C34",
"6  c #451A39",
"7  c #531B34",
"8  c #551B39",
"9  c #561938",
"0  c #590B32",
"q  c #740D22",
"w  c #661725",
"e  c #78152A",
"r  c #661933",
"t  c #6E1230",
"y  c #5A2329",
"u  c #572637",
"i  c #462436",
"p  c #642329",
"a  c #632237",
"s  c #743439",
"d  c #284028",
"f  c #342C49",
"g  c #2E2951",
"h  c #552C47",
"j  c #4D334C",
"k  c #5A3745",
"l  c #4B2F4C",
"z  c #783756",
"x  c #75314E",
"c  c #6B1748",
"v  c #564A51",
"b  c #664559",
"n  c #754353",
"m  c #514E70",
"M  c #76516C",
"N  c #75666C",
"B  c #6C6362",
"V  c #8C020D",
"C  c #91000F",
"Z  c #9A0709",
"A  c #89081A",
"S  c #950112",
"D  c #9A0817",
"F  c #921317",
"G  c #A60404",
"H  c #AD0302",
"J  c #AE0802",
"K  c #A5010B",
"L  c #AC020B",
"P  c #A40B0A",
"I  c #B40102",
"U  c #BA0102",
"Y  c #B3020C",
"T  c #BC010A",
"R  c #B40A08",
"E  c #A40313",
"W  c #A90413",
"Q  c #A60918",
"!  c #B30313",
"~  c #B70417",
"^  c #A5141A",
"/  c #A6171B",
"(  c #B5170E",
")  c #B22916",
"_  c #860A25",
"`  c #990825",
"'  c #88152B",
"]  c #9B1426",
"[  c #991629",
"{  c #8B1B32",
"}  c #8B1533",
"|  c #931B36",
" . c #9F0A34",
".. c #A60B27",
"X. c #A31424",
"o. c #A81926",
"O. c #B51F28",
"+. c #B21D35",
"@. c #AD1E30",
"#. c #8B2736",
"$. c #962C3D",
"%. c #883839",
"&. c #95363B",
"*. c #8B2A2D",
"=. c #AA2123",
"-. c #A72527",
";. c #B02127",
":. c #B2232A",
">. c #B7282D",
",. c #B63829",
"<. c #A32936",
"1. c #B82A39",
"2. c #AB3A39",
"3. c #B33534",
"4. c #B23C34",
"5. c #BE363D",
"6. c #B23D3C",
"7. c #BA3A3B",
"8. c #B83738",
"9. c #A9332F",
"0. c #9A251C",
"q. c #C40202",
"w. c #C90101",
"e. c #CD0C01",
"r. c #C3020A",
"t. c #CA020B",
"y. c #C40A08",
"u. c #D30E04",
"i. c #DA0C02",
"p. c #D50808",
"a. c #C41402",
"s. c #CC1204",
"d. c #CC1C03",
"f. c #CB120B",
"g. c #C71B09",
"h. c #D31204",
"j. c #D31D02",
"k. c #D4140A",
"l. c #D2190A",
"z. c #DA1409",
"x. c #C20114",
"c. c #CB0B18",
"v. c #CC1212",
"b. c #C81819",
"n. c #D41815",
"m. c #CE260C",
"M. c #CC2B0D",
"N. c #C82704",
"B. c #D42605",
"V. c #D4250B",
"C. c #DA210B",
"Z. c #D42C0C",
"A. c #DB2C0C",
"S. c #D82704",
"D. c #D8350C",
"F. c #CC2713",
"G. c #CC2B13",
"H. c #C82A1A",
"J. c #D22D12",
"K. c #D52415",
"L. c #CD3214",
"P. c #C5331C",
"I. c #CC3A1C",
"U. c #C6361A",
"Y. c #D53213",
"T. c #DB3515",
"R. c #D43C14",
"E. c #DB3C15",
"W. c #D43C1C",
"Q. c #DB3B1A",
"!. c #D6341A",
"~. c #E2361A",
"^. c #E22C0A",
"/. c #C51726",
"(. c #C6262A",
"). c #C83825",
"_. c #D43C23",
"`. c #D83924",
"'. c #C62932",
"]. c #C3363A",
"[. c #E22317",
"{. c #8B4639",
"}. c #B34A3B",
"|. c #B8443B",
" X c #AB4934",
".X c #C94116",
"XX c #D9411B",
"oX c #D0400D",
"OX c #CA4326",
"+X c #D34224",
"@X c #D74427",
"#X c #C54736",
"$X c #D44738",
"%X c #8D1C43",
"&X c #882846",
"*X c #833340",
"=X c #8A3D4F",
"-X c #883646",
";X c #943D4A",
":X c #963842",
">X c #8A3C55",
",X c #97314E",
"<X c #B83944",
"1X c #A53849",
"2X c #C23841",
"3X c #8B464A",
"4X c #8C4C4C",
"5X c #8B4745",
"6X c #95424C",
"7X c #994547",
"8X c #865747",
"9X c #92534C",
"0X c #854355",
"qX c #984854",
"wX c #975857",
"eX c #875659",
"rX c #AE4C46",
"tX c #A74749",
"yX c #B14B49",
"uX c #B74947",
"iX c #A64959",
"pX c #A75759",
"aX c #B05055",
"sX c #886646",
"dX c #AC625D",
"fX c #934963",
"gX c #8A5969",
"hX c #90596C",
"jX c #AB5866",
"kX c #B45863",
"lX c #AB5971",
"zX c #8B6876",
"xX c #98687A",
"cX c #97676E",
"vX c #A86363",
"bX c #B26263",
"nX c #B0686C",
"mX c #A3787F",
"MX c #C34847",
"NX c #D84B43",
"BX c #CB5144",
"VX c #6E7398",
"CX c #9E6684",
"ZX c #9C6A85",
"AX c #93678D",
"SX c #A26A85",
"DX c #A0668C",
"FX c #828E9A",
/* pixels */
"% o o . . . . . o   % o o . . . . . .     o o . . . . . . o   % o o . . . . . o   . . % % o % o o % . . o o . . . . . . o     . ",
"% . . o o . o . .   % o . . o . o . .     o . . X . . o . .   % . . . o . . . .   . o o % o o % o o . . o . . o . . o . .     o ",
"% o o . . . . . .   % o o + X . o . .     o j p e _ F E Y L G A 0X&XQ G ! L D A e a b j o o % o o o . . o o . . . . . . .     o ",
"                                          M x V Y Y T r.q.U I V ;X{ L G T U Y Y K E e M . . o . . . . .                       . ",
". . . o   % o o . . . . . .     o o . . } c &XK I I I I I I J C ;X| Y H U H H H I I _ fXr 9   o o . . . . . . o   % o . . .   . ",
". o . .   % . . o o . o . .     o . . 1 Q t &XE H H H H H H H S ;X{ L G U I H I I H A 1XA _ t o . . o . o o . .   % . . o .   . ",
". . . .   % o o . . . o . .     o 8 e W P w -XE Y I I H I Y T V 6X{ L G U U U I I I 1 tXE W A 7 o . . . o . . .   % o . . .   . ",
"                                k _ S G K < -XW G T I I I I I V 6X{ K J I I I U I H _ 6XE Z L 1 8                             . ",
"% o o . . . . . o   . . % % o % t E ! H K < -XW G T I I I I I V 6X{ K J I I I U I H _ 6XE H U D _ u . . o o . . . . . . o     . ",
"% . . o o . o . .   . o o % o s S T T U K q =XW H U I I I I I V 6X{ K J U I U U I H A 6XS I w.W ~ q v . o . . o . . o . .     o ",
"% o o . . . . . .   . o o o o A ! U I U K q =XW H U I I I I I V 6X{ K J I I U U I H A 6XS J q.H U S a . o o . . . . . . .     o ",
"                    o . . O r D H H H U K q =XW H U I I I I I V 6X{ K J I I U U I H A 6XS P I G J K t f                       . ",
"% % o . . d % % o o o o o & A K H I H I R q *XK J q.I I I I I C 6X' Y H U I I I I H ` 4XK H I I G H A k . . . o   d % o o o   . ",
"o % o o . d o o % % o % o k Z H I I I I R q *XK J U I I I I I C 6X' Y H U U I I I I ` 3XK I I U H I D u O o . .   d o o % o   . ",
"% o o o . d % % o o o % o a P I I I I I R q %.K J q.I I U U U C 6X' Y H U U U I I I ` 3XK I I U U U W e f . . .   d % o o o   . ",
". . . . . . . . . . . . . 2 P I U U U U H e %.K J q.U U U U U C 6X| Y H U U U U I I ` 4XW I I U U U L ' j         . . . . .   . ",
". % % % o % % o . . % o o = L U U U U U H e *XK J q.U U U U U C 6X| Y H U U U U I I ` 4XW I I U U I I A j % o o o o o o % .   . ",
". % o % o o % o o . % o . = L I U U U U L e *XK J q.U U U U U V 6X{ L H U U U I I I ` 4XE I I U U I H _ j o o % o o % o o .   o ",
". o o o o % o o o . % o o = L I Y I I Y K ' &X! Y r.I I I I I V ;X| ! I r.U U T T T ..qX! T T T T T Y _ h % o o o o o o o .   o ",
"o o . o . . . . . .       r ] X.X.X.X.X.] x z [ ] ..[ ] ] ] [ } n x  .] ..^ X.X.X.] %XgX| X.] [ o.o.X.' l . . . . . . . . .   . ",
"o o o % . d % % o o o o o = : ; ; ; ; ; : l b < * ; > > > > > - b h : * > ; ; ; : : 0 v < : * = * ; , = $ . . o   d % o o o   . ",
"o % o o . d o o % % o % o 1 ! ~ ~ Y Y ! W %X&X~ W x.x.x.x.x.x.` qX%X~ W ~ Y Y L ! !  .wX..! ! ~ ! Y Y ..0 o . .   d o o % o   . ",
"o o o o . d % % o o o % o Z q.w.w.w.w.w.I ' $.T U w.U U U U U D tX[ y.a.w.q.q.q.q.U o.9XL q.q.w.w.w.q...2 . . .   d % o o o   . ",
". . . . . . . . . . . . . V w.w.w.w.w.w.U #.#.x.U w.w.w.w.w.w.D ;X} r.q.t.w.w.w.q.U ` 4X! r.w.w.w.U q.Y 2         . . . . .   . ",
"d % % o o o o o % . % o o V w.w.w.w.w.w.U #.*Xx.U w.w.w.w.w.w.Q ;X} r.q.t.w.w.w.q.U ` 4X! r.w.w.w.U w.Y 2 % o o o o o o % .   . ",
"d o o % % o % o o . % o . V w.w.w.w.w.w.U #.*Xx.U w.w.w.w.w.w.Q ;X} r.q.t.w.w.q.q.U ` 4X! r.w.w.w.U w.Y 2 o o % o o % o o .   o ",
"d % % o o o o o o . % o o D w.w.w.w.w.w.y.$.-Xx.U w.w.w.w.w.w.^ ;X' r.q.t.w.w.q.U U ..9X! r.w.w.w.U w.Y 2 % o o o o o o o .   o ",
". . . . . . . . . .       D w.w.w.w.w.w.y.$.-Xx.U w.w.w.w.w.w.^ 6X} r.q.t.w.w.w.U U ..9X! r.w.w.w.U w.Y 2 . . . . . . . . .   . ",
"% % o . . d % % o o o o o F U q.r.t.t.t.Y #.#.~ q.q.r.q.t.t.t.] qX| ~ r.t.t.t.r.y.y.' qX/.t.y.w.w.t.t.Q 9 % % . . d % o o o   . ",
"o % o o . d o o % % o % o ^ w.w.w.w.w.w.c.<.$.Y t.t.w.w.w.w.w.o.tX[ r.q.w.w.w.w.q.y.o.yX/.p.q.p.p.p.p.R w % o o . d o o % o   . ",
"% o o o . d % % o o o % o %X:.:.:.;.;.;.1.>Xz <.-.-.:.:.=.=.=.<.eX-X:.-.:.;.=.;.-.-.:XwX<X+.<.:.;.:.O.-.4 o o o . d % o o o   . ",
". . . . . . . . . . . . . u hXCXCXCXCXCXSXVXVXzXmXzXSXZXSXSXSXAXVXVXCXxXSXSXSXZXZXZXM FXzXxXzXxXZXAXDXb O . . . . . . . . .   . ",
"% o % o o % o o . . d d d @ 7 7 8 7 7 7 a g m 3 4 3 8 8 8 8 8 6 m m 9 7 8 9 7 7 7 8 f m 5 4 i 4 4 6 8 i O % d % d d % d o .   . ",
"o . o . o . . o .   % d % &X^ ^ ^ / / / <.fX>X@./ / ^ ^ ^ ^ ^ <.wX-Xo./ ^ ^ ^ / / ^ ,XfX1Xo.0.( ( / / -.w o % o % o o o o .   o ",
"o o . o . . . . .   % d o =.s.u.u.u.h.u.g.7X-Xc.a.u.u.u.u.u.u.O.qX#.v.a.k.u.h.h.s.f.+.9X(.f.s.h.i.f.u.b.4 % o % o o o o o .   . ",
". . .   . . .       o % o =.s.u.u.h.h.u.g.7X-Xc.a.u.u.u.u.u.u.O.qX#.v.a.k.u.h.h.s.f.+.9X(.f.s.h.i.f.u.b.4 o o . . o o . . .   o ",
". . . . . d % d % % d % % =.s.u.u.u.u.u.g.7X-Xc.a.u.u.u.u.u.u.O.qX#.v.a.k.u.h.h.s.f.+.9X(.v.s.h.i.f.u.b.4 o % .   d % d % d   . ",
"o % o o . % o % o % o o % =.k.e.u.u.u.u.a.:X%.c.a.u.u.u.u.z.u.>.qX#.f.a.e.u.e.e.s.f.+.9X(.y.f.e.i.f.u.b.4 . . .   % o % o %   o ",
"o o o o . % % o % o o o o >.l.h.k.k.k.k.g.7X*Xc.g.h.z.k.u.z.h.'.pX#.n.j.k.z.z.k.k.v.1.9X'.v.l.h.i.l.k.b.4 . . .   % % o % o   . ",
"o o o . . o o o . o o . . ) k.p.p.p.p.p.b.iX;X/.z.z.p.u.p.p.p.'.wX*.v.s.u.i.i.u.u.k.@.7X(.p.e.i.u.p.z.( 0 .       o o o . .   . ",
". . . . . . . . . . d d d ) d.d.d.d.d.d.H.7Xs ) d.a.d.d.d.d.d.'.iX#.n.h.z.j.N.N.d.N.9.9X4.n.g.d.N.m.d.( 4 % d % d d % d o .   . ",
". o o o o o % o o . % d % 9.l.k.k.k.k.h.K.tX&.H.l.k.k.k.k.k.k.1.pX#.b.g.l.l.l.l.f.g.1.qX].n.g.k.d.f.k.( w o % o % o o o o .   o ",
". o o o o o o o o . % d o tX].5.].5.5.].5.fXz <X2X7.5.5.2X2X2XtXcX0X|. X8.5.5.7.<X<XiXeX2.].4.,.7.<X].2.h % o % o o o o o .   . ",
". o o o o o o o . . o % o w %.5X5X5X5X5X5Xb N 3X5X4X3X3X4X4X4Xs N hX:X{.tX6X6X3X4X3Xk B n &.{.{.5X3X7Xp $ o o . . o o . . .   o ",
"d % % o o d % d % % d % % qX|.4.4.4.4.4.MXfXx 3.4.4.6.6.6.6.6.6XgX>XuX X7.7.7.7.6.<XiXgXyX2X7.7.3.6.8.6.u % d o . d % d % d   . ",
"o o % o . % o % o % o o % 3.G.G.G.G.G.G.G.iX=XL.H.A.G.G.F.F.F.4.wX#.L.M.K.F.V.V.G.H.8.8X'.H.J.Z.V.F.V.H.7 o o o . % o % o %   o ",
"o o o o . % % o % o o o o 3.K.V.V.V.V.V.M.iX=XL.H.C.V.V.K.V.K.4.wX$.G.N.K.F.V.V.m.G.8.8X'.F.V.V.V.M.V.H.7 o o o . % % o % o   . ",
"o o . . . o o o . o o . . 3.V.C.C.C.C.C.L.aX=XL.H.j.C.C.C.C.C.,.wX#.G.N.K.V.V.V.V.M.1.8X(.F.m.B.V.m.B.H.4 o . . . o o o . .   . ",
"% o % o o % o o . . . . . 3.V.V.C.V.V.C.L.aX=XL.H.j.C.B.C.B.B.,.wX#.G.N.K.V.B.S.B.M.3.8X(.G.m.B.C.m.B.H.4 % d % d d % d o .   . ",
"o . o . o . . o .   . % o 3.V.V.V.V.V.V.L.aX=XL.H.j.B.B.B.B.B.,.wX#.G.N.K.V.S.S.S.M.3.8X(.G.m.B.C.V.S.H.4 o % o % o o o o .   o ",
"o o . o . . . . .   . o o 2.Z.Z.Z.D.D.D.!.pX6X).S.^.Z.Z.Z.Z.Z.8.pXs !.^.Z.A.A.A.A.Z.rXtX|.U.M.A.Y.A.^.U.p % o % o o o o o .   . ",
". . .   . . .       . . o ,.Y.Y.Y.J.J.J.P.pX3X).m.Z.Y.Y.J.J.J.6.wX%.).^.Y.V.Z.J.J.L.&.pXuXP.G.Z.Z.J.Z.,.u o o . . o o . . .   o ",
"% o o . . % o % o o % o o 4.Y.Y.!.!.T.!._.pX%.).L.W.Y.Y.Y.Y.Y.|.bX*._.A.Y.Y.Y.Y.!.W.aXtX|.I.!.D.D.!.!.,.y o % .   d % d % d   . ",
". . o .   o . o . o . . o tXP._.U.P.P.U.OXpX%.#XU.,.I.I.I.I.I. XbX&.).L.U.U.I.I.U.).tX7X}.OXI.L.L.P.P.,.4 . . .   % o % o %   o ",
". . . .   o o . o . . . . x pXpXpXpXpXpXbXN zXpXkXnXbXbXbXbXbXgXxXgXvXpXvXvXbXbXvXvXM zXcXvXbXbXkXlXjX3X# . . .   % % o % o   . ",
". .       . . .   . .     @ 3 5 @ @ @ 5 3 g m 3 5 6 5 5 6 6 6 & m m 5 # # # # # i & f m & # # 5 6 6 6 @ g .       o o o . .   . ",
"% o % o o % o o . . % % % pXrXrXyXrXrXyX XzXb |.rXyXyXrXyXrXyXkXzXz yX XyXyXrXrXrXrXjXB kXyXrXrX}.yXyXaXh o % o % % o % .     . ",
"o . o . o . . o .   o % o }.W.W.W.W.W.W..XpX5X@XOX`.W.W.W.W.W.#XpX%.+X.X_.W.W.W.+X+X|.sX$X_.W.W.E._._.|.y . o . o . . . .     o ",
"o o . o . . . . .   o % . |.Q.T.Q.T.T.T..XjX3X@XI.~.Q.Q.Q.Q.Q.#XdX&.XXoXQ.Q.Q.Q.Q.Q.uXsX$X_.R.T.T.!.!.OXy o . o . . . . .     . ",
". . .   . . .       . o . uX_.W._.W.W.W.OXlX0X$X.X`._._._._._.uXcX-X+X.X`._._._._._.uXB NX_.W.W.W.`.!.#Xu . .     . .         o ",
"% o o . . % o % o o % o o rXW.R.E.R.R.R.W.lX0X$XR.~.Q.W.Q.W.Q.MXvX:XW.D.Q.W.W.W.R.W.MX8XNX_.R.D.R.W.^.OX9 o % .   % o % o %   . ",
". . o .   o . o . o . . o }.W.E.E.E.E.E.I.pX=XXX_.T.W.W.W.W.W.#XvX&.+XoX`.R.R.R.R.XXMX8XNX`.E.E.T.W.E._.y . . .   o . o . o   o ",
". . . .   o o . o . . . . }.Q.E.E.E.E.E.I.pX0X@XOXE.XXXXE.E.E.BXvX&.+XoX`.Q.XXXXE.Q.MX8XNX@XQ.E.Q.W.E.+Xu . . .   o o . o .   . ",
". .       . . .   . .     }.W.Q.Q.Q.Q.Q..XpX0X@XOXD.E.E.E.E.E.|.wX&.+XoX`.Q.Q.E.E.Q.MX8XNX@XXXXXE..XR.OXu .       . . .       . "
};
